; generated by Slic3r 0.9.10b on 2013-09-27 at 14:55:58

; layer_height = 0.3
; perimeters = 3
; top_solid_layers = 3
; bottom_solid_layers = 3
; fill_density = 0.2
; perimeter_speed = 80
; infill_speed = 130
; travel_speed = 195
; nozzle_diameter = 0.4
; filament_diameter = 3
; extrusion_multiplier = 1
; perimeters extrusion width = 0.42mm
; infill extrusion width = 0.42mm
; solid infill extrusion width = 0.42mm
; top infill extrusion width = 0.42mm
; support material extrusion width = 0.42mm

G21 ; set units to millimeters
M107
M190 S60 ; wait for bed temperature to be reached
M104 S225 ; set temperature
G28 ; home all axes
G1 Z5 F5000 ; lift nozzle
M109 S225 ; wait for temperature to be reached
G90 ; use absolute coordinates
G92 E0
M82 ; use absolute distances for extrusion
G1 F1800.000 E-1.00000
G92 E0
G1 Z0.300 F11700.000
G1 X78.700 Y88.150
G1 F1800.000 E1.00000
G1 X79.280 Y87.670 F1680.000 E1.01338
G1 X80.340 Y86.900 E1.03668
G1 X81.130 Y86.410 E1.05320
G1 X81.790 Y86.050 E1.06657
G1 X82.970 Y85.500 E1.08971
G1 X83.680 Y85.230 E1.10322
G1 X84.390 Y84.990 E1.11654
G1 X85.700 Y84.650 E1.14060
G1 X86.440 Y84.510 E1.15399
G1 X87.480 Y84.370 E1.17265
G1 X87.860 Y84.340 E1.17942
G1 X88.550 Y84.310 E1.19170
G1 X89.930 Y84.300 E1.21623
G1 X100.990 Y84.300 E1.41286
G1 X102.260 Y84.350 E1.43545
G1 X103.250 Y84.460 E1.45316
G1 X104.170 Y84.620 E1.46976
G1 X104.540 Y84.700 E1.47649
G1 X105.480 Y84.950 E1.49378
G1 X106.190 Y85.180 E1.50705
G1 X107.390 Y85.660 E1.53003
G1 X108.080 Y85.990 E1.54362
G1 X108.840 Y86.400 E1.55898
G1 X109.950 Y87.110 E1.58240
G1 X110.550 Y87.550 E1.59563
G1 X111.410 Y88.260 E1.61546
G1 X111.970 Y88.780 E1.62904
G1 X112.610 Y89.430 E1.64526
G1 X112.860 Y89.710 E1.65193
G1 X113.440 Y90.430 E1.66837
G1 X113.880 Y91.030 E1.68159
G1 X114.610 Y92.180 E1.70581
G1 X114.970 Y92.850 E1.71933
G1 X115.490 Y93.970 E1.74128
G1 X115.760 Y94.680 E1.75479
G1 X116.000 Y95.390 E1.76811
G1 X116.340 Y96.700 E1.79217
G1 X116.480 Y97.440 E1.80556
G1 X116.620 Y98.480 E1.82422
G1 X116.680 Y99.620 E1.84451
G1 X116.680 Y100.370 E1.85785
G1 X116.610 Y101.530 E1.87851
G1 X116.520 Y102.280 E1.89193
G1 X116.370 Y103.170 E1.90798
G1 X116.290 Y103.540 E1.91471
G1 X116.000 Y104.600 E1.93425
G1 X115.760 Y105.310 E1.94757
G1 X115.370 Y106.280 E1.96616
G1 X115.050 Y106.970 E1.97968
G1 X114.590 Y107.840 E1.99717
G1 X113.930 Y108.890 E2.01922
G1 X113.490 Y109.500 E2.03259
G1 X112.670 Y110.490 E2.05545
G1 X112.150 Y111.040 E2.06890
G1 X111.290 Y111.840 E2.08978
G1 X110.710 Y112.320 E2.10317
G1 X109.960 Y112.880 E2.11981
G1 X108.860 Y113.580 E2.14299
G1 X108.200 Y113.940 E2.15635
G1 X107.020 Y114.490 E2.17950
G1 X106.310 Y114.760 E2.19300
G1 X105.600 Y115.000 E2.20632
G1 X104.290 Y115.340 E2.23039
G1 X103.550 Y115.480 E2.24377
G1 X102.510 Y115.620 E2.26243
G1 X102.130 Y115.650 E2.26921
G1 X101.510 Y115.680 E2.28024
G1 X100.140 Y115.700 E2.30460
G1 X89.900 Y115.700 E2.48664
G1 X88.470 Y115.680 E2.51207
G1 X87.720 Y115.640 E2.52542
G1 X86.690 Y115.530 E2.54384
G1 X86.320 Y115.470 E2.55050
G1 X85.580 Y115.320 E2.56392
G1 X84.510 Y115.030 E2.58363
G1 X83.800 Y114.800 E2.59690
G1 X82.710 Y114.370 E2.61773
G1 X82.020 Y114.050 E2.63125
G1 X81.260 Y113.660 E2.64644
G1 X80.930 Y113.470 E2.65321
G1 X80.030 Y112.880 E2.67234
G1 X79.430 Y112.440 E2.68557
G1 X78.500 Y111.670 E2.70703
G1 X77.950 Y111.150 E2.72049
G1 X77.130 Y110.280 E2.74174
G1 X76.500 Y109.500 E2.75957
G1 X76.060 Y108.890 E2.77294
G1 X75.410 Y107.860 E2.79459
G1 X75.050 Y107.200 E2.80796
G1 X74.650 Y106.370 E2.82434
G1 X74.230 Y105.310 E2.84461
G1 X73.990 Y104.600 E2.85793
G1 X73.700 Y103.540 E2.87747
G1 X73.470 Y102.280 E2.90024
G1 X73.380 Y101.530 E2.91366
G1 X73.310 Y100.630 E2.92971
G1 X73.300 Y99.730 E2.94571
G1 X73.310 Y99.360 E2.95229
G1 X73.380 Y98.460 E2.96834
G1 X73.470 Y97.710 E2.98177
G1 X73.700 Y96.450 E3.00454
G1 X73.990 Y95.390 E3.02408
G1 X74.230 Y94.680 E3.03740
G1 X74.500 Y93.970 E3.05091
G1 X75.050 Y92.790 E3.07405
G1 X75.410 Y92.130 E3.08742
G1 X76.060 Y91.100 E3.10907
G1 X76.500 Y90.490 E3.12244
G1 X77.130 Y89.710 E3.14027
G1 X78.030 Y88.760 E3.16353
G1 X78.654 Y88.192 E3.17852
G1 X78.970 Y88.470 F11700.000
G1 X79.550 Y87.990 F1680.000 E3.19191
G1 X80.260 Y87.450 E3.20776
G1 X80.570 Y87.240 E3.21442
G1 X81.330 Y86.780 E3.23021
G1 X81.990 Y86.420 E3.24358
G1 X83.130 Y85.890 E3.26593
G1 X83.820 Y85.630 E3.27904
G1 X84.530 Y85.390 E3.29236
G1 X85.770 Y85.060 E3.31517
G1 X86.510 Y84.920 E3.32856
G1 X87.510 Y84.790 E3.34649
G1 X87.890 Y84.760 E3.35327
G1 X88.550 Y84.730 E3.36501
G1 X89.930 Y84.720 E3.38954
G1 X100.990 Y84.720 E3.58617
G1 X102.230 Y84.770 E3.60823
G1 X103.190 Y84.870 E3.62539
G1 X103.570 Y84.930 E3.63223
G1 X104.450 Y85.110 E3.64820
G1 X105.350 Y85.350 E3.66476
G1 X106.060 Y85.580 E3.67802
G1 X107.210 Y86.040 E3.70004
G1 X107.900 Y86.370 E3.71364
G1 X108.950 Y86.950 E3.73496
G1 X109.700 Y87.440 E3.75089
G1 X110.300 Y87.880 E3.76412
G1 X111.130 Y88.570 E3.78331
G1 X111.690 Y89.090 E3.79689
G1 X112.540 Y89.990 E3.81890
G1 X113.110 Y90.680 E3.83481
G1 X113.550 Y91.280 E3.84804
G1 X114.240 Y92.380 E3.87112
G1 X114.600 Y93.050 E3.88465
G1 X114.950 Y93.780 E3.89904
G1 X115.360 Y94.820 E3.91891
G1 X115.600 Y95.530 E3.93224
G1 X115.930 Y96.770 E3.95505
G1 X116.070 Y97.510 E3.96844
G1 X116.200 Y98.510 E3.98636
G1 X116.260 Y99.620 E4.00613
G1 X116.260 Y100.370 E4.01946
G1 X116.200 Y101.480 E4.03922
G1 X116.110 Y102.230 E4.05265
G1 X115.960 Y103.080 E4.06799
G1 X115.880 Y103.450 E4.07472
G1 X115.600 Y104.460 E4.09336
G1 X115.360 Y105.170 E4.10668
G1 X114.990 Y106.110 E4.12464
G1 X114.670 Y106.800 E4.13816
G1 X114.230 Y107.630 E4.15486
G1 X114.040 Y107.950 E4.16148
G1 X113.590 Y108.640 E4.17612
G1 X113.150 Y109.250 E4.18949
G1 X112.370 Y110.200 E4.21135
G1 X111.850 Y110.750 E4.22480
G1 X111.020 Y111.520 E4.24493
G1 X110.440 Y112.000 E4.25831
G1 X109.730 Y112.540 E4.27417
G1 X109.420 Y112.750 E4.28083
G1 X108.660 Y113.210 E4.29662
G1 X108.000 Y113.570 E4.30999
G1 X107.210 Y113.950 E4.32557
G1 X106.170 Y114.360 E4.34545
G1 X105.460 Y114.600 E4.35877
G1 X104.220 Y114.930 E4.38158
G1 X103.480 Y115.070 E4.39497
G1 X102.480 Y115.200 E4.41290
G1 X101.510 Y115.260 E4.43018
G1 X100.140 Y115.280 E4.45453
G1 X89.910 Y115.280 E4.63640
G1 X88.500 Y115.260 E4.66147
G1 X87.750 Y115.220 E4.67482
G1 X86.750 Y115.110 E4.69271
G1 X86.380 Y115.050 E4.69937
G1 X85.310 Y114.820 E4.71883
G1 X84.640 Y114.630 E4.73121
G1 X83.930 Y114.400 E4.74448
G1 X82.880 Y113.990 E4.76452
G1 X82.190 Y113.670 E4.77804
G1 X81.140 Y113.110 E4.79919
G1 X80.280 Y112.550 E4.81744
G1 X79.680 Y112.110 E4.83066
G1 X78.790 Y111.370 E4.85124
G1 X78.240 Y110.850 E4.86470
G1 X77.450 Y110.000 E4.88533
G1 X76.840 Y109.250 E4.90251
G1 X76.400 Y108.640 E4.91589
G1 X75.780 Y107.660 E4.93650
G1 X75.420 Y107.000 E4.94987
G1 X74.890 Y105.860 E4.97222
G1 X74.630 Y105.170 E4.98533
G1 X74.390 Y104.460 E4.99865
G1 X74.110 Y103.450 E5.01728
G1 X73.880 Y102.230 E5.03935
G1 X73.790 Y101.480 E5.05278
G1 X73.720 Y100.230 E5.07504
G1 X73.730 Y99.370 E5.09033
G1 X73.790 Y98.510 E5.10565
G1 X73.880 Y97.760 E5.11908
G1 X74.110 Y96.540 E5.14115
G1 X74.390 Y95.530 E5.15979
G1 X74.630 Y94.820 E5.17311
G1 X75.040 Y93.780 E5.19298
G1 X75.420 Y92.990 E5.20857
G1 X75.780 Y92.330 E5.22194
G1 X76.400 Y91.350 E5.24255
G1 X76.840 Y90.740 E5.25592
G1 X77.450 Y89.990 E5.27311
G1 X78.060 Y89.330 E5.28909
G1 X78.924 Y88.513 E5.31023
G1 X79.240 Y88.790 F11700.000
G1 X79.820 Y88.310 F1680.000 E5.32361
G1 X80.810 Y87.590 E5.34538
G1 X81.540 Y87.150 E5.36053
G1 X82.200 Y86.790 E5.37389
G1 X82.950 Y86.420 E5.38876
G1 X83.300 Y86.270 E5.39553
G1 X83.950 Y86.020 E5.40791
G1 X84.660 Y85.780 E5.42123
G1 X85.850 Y85.470 E5.44310
G1 X86.590 Y85.330 E5.45649
G1 X87.540 Y85.200 E5.47353
G1 X87.920 Y85.170 E5.48031
G1 X89.940 Y85.140 E5.51622
G1 X100.990 Y85.140 E5.71267
G1 X102.210 Y85.190 E5.73437
G1 X103.120 Y85.280 E5.75063
G1 X103.500 Y85.340 E5.75747
G1 X104.360 Y85.520 E5.77309
G1 X105.220 Y85.750 E5.78892
G1 X105.930 Y85.980 E5.80219
G1 X107.020 Y86.410 E5.82302
G1 X107.710 Y86.740 E5.83661
G1 X108.740 Y87.310 E5.85754
G1 X109.450 Y87.780 E5.87268
G1 X110.050 Y88.220 E5.88591
G1 X110.840 Y88.870 E5.90409
G1 X111.400 Y89.390 E5.91768
G1 X112.230 Y90.270 E5.93918
G1 X112.770 Y90.930 E5.95434
G1 X113.210 Y91.530 E5.96757
G1 X113.870 Y92.570 E5.98947
G1 X114.230 Y93.240 E6.00299
G1 X114.570 Y93.950 E6.01699
G1 X114.970 Y94.950 E6.03613
G1 X115.210 Y95.660 E6.04946
G1 X115.520 Y96.850 E6.07132
G1 X115.660 Y97.590 E6.08471
G1 X115.790 Y98.540 E6.10175
G1 X115.840 Y99.620 E6.12098
G1 X115.840 Y100.370 E6.13431
G1 X115.780 Y101.430 E6.15318
G1 X115.690 Y102.180 E6.16661
G1 X115.550 Y102.990 E6.18123
G1 X115.470 Y103.360 E6.18796
G1 X115.210 Y104.330 E6.20581
G1 X114.970 Y105.040 E6.21913
G1 X114.610 Y105.930 E6.23620
G1 X114.290 Y106.620 E6.24972
G1 X113.870 Y107.420 E6.26578
G1 X113.680 Y107.740 E6.27240
G1 X113.250 Y108.400 E6.28640
G1 X112.810 Y109.010 E6.29978
G1 X112.060 Y109.910 E6.32060
G1 X111.540 Y110.460 E6.33406
G1 X110.750 Y111.200 E6.35330
G1 X110.170 Y111.680 E6.36669
G1 X109.180 Y112.400 E6.38845
G1 X108.450 Y112.840 E6.40360
G1 X107.790 Y113.200 E6.41697
G1 X107.040 Y113.570 E6.43184
G1 X106.040 Y113.970 E6.45098
G1 X105.330 Y114.210 E6.46431
G1 X104.140 Y114.520 E6.48617
G1 X103.400 Y114.660 E6.49956
G1 X102.450 Y114.790 E6.51660
G1 X101.500 Y114.840 E6.53352
G1 X100.130 Y114.860 E6.55787
G1 X89.910 Y114.860 E6.73956
G1 X88.520 Y114.840 E6.76428
G1 X87.770 Y114.800 E6.77763
G1 X86.820 Y114.700 E6.79461
G1 X86.450 Y114.640 E6.80127
G1 X85.400 Y114.410 E6.82038
G1 X84.060 Y114.000 E6.84530
G1 X83.060 Y113.610 E6.86438
G1 X82.370 Y113.290 E6.87790
G1 X81.350 Y112.740 E6.89850
G1 X80.530 Y112.210 E6.91586
G1 X79.930 Y111.770 E6.92909
G1 X79.080 Y111.060 E6.94878
G1 X78.530 Y110.540 E6.96223
G1 X77.760 Y109.720 E6.98223
G1 X77.180 Y109.010 E6.99853
G1 X76.740 Y108.400 E7.01190
G1 X76.150 Y107.450 E7.03178
G1 X75.790 Y106.790 E7.04514
G1 X75.420 Y106.040 E7.06001
G1 X75.270 Y105.690 E7.06678
G1 X75.020 Y105.040 E7.07916
G1 X74.780 Y104.330 E7.09249
G1 X74.520 Y103.360 E7.11034
G1 X74.300 Y102.180 E7.13168
G1 X74.210 Y101.430 E7.14511
G1 X74.140 Y100.220 E7.16665
G1 X74.150 Y99.380 E7.18159
G1 X74.210 Y98.560 E7.19621
G1 X74.300 Y97.810 E7.20964
G1 X74.520 Y96.630 E7.23097
G1 X74.780 Y95.660 E7.24883
G1 X75.020 Y94.950 E7.26215
G1 X75.420 Y93.950 E7.28130
G1 X75.790 Y93.200 E7.29617
G1 X76.150 Y92.540 E7.30953
G1 X76.740 Y91.590 E7.32941
G1 X77.180 Y90.980 E7.34278
G1 X77.760 Y90.270 E7.35908
G1 X78.350 Y89.620 E7.37469
G1 X78.620 Y89.350 E7.38148
G1 X79.193 Y88.832 E7.39521
G1 X79.510 Y89.110 F11700.000
G1 X80.090 Y88.630 F1680.000 E7.40860
G1 X81.040 Y87.940 E7.42947
G1 X81.740 Y87.520 E7.44398
G1 X82.400 Y87.160 E7.45735
G1 X83.110 Y86.810 E7.47142
G1 X83.460 Y86.660 E7.47819
G1 X84.090 Y86.420 E7.49017
G1 X84.800 Y86.180 E7.50350
G1 X85.930 Y85.880 E7.52428
G1 X86.670 Y85.740 E7.53767
G1 X87.580 Y85.620 E7.55399
G1 X87.960 Y85.590 E7.56077
G1 X88.560 Y85.560 E7.57145
G1 X89.940 Y85.550 E7.59598
G1 X100.990 Y85.550 E7.79243
G1 X102.190 Y85.610 E7.81379
G1 X103.060 Y85.700 E7.82933
G1 X103.440 Y85.760 E7.83617
G1 X104.270 Y85.930 E7.85124
G1 X105.090 Y86.150 E7.86633
G1 X105.800 Y86.380 E7.87960
G1 X106.840 Y86.790 E7.89947
G1 X107.530 Y87.120 E7.91307
G1 X108.520 Y87.670 E7.93320
G1 X109.200 Y88.120 E7.94770
G1 X109.800 Y88.560 E7.96093
G1 X110.560 Y89.180 E7.97836
G1 X111.120 Y89.700 E7.99195
G1 X111.920 Y90.550 E8.01270
G1 X112.430 Y91.180 E8.02711
G1 X112.870 Y91.780 E8.04034
G1 X113.500 Y92.770 E8.06120
G1 X113.860 Y93.440 E8.07472
G1 X114.180 Y94.110 E8.08792
G1 X114.570 Y95.090 E8.10667
G1 X114.810 Y95.800 E8.11999
G1 X115.110 Y96.930 E8.14078
G1 X115.250 Y97.670 E8.15417
G1 X115.370 Y98.580 E8.17049
G1 X115.430 Y99.620 E8.18901
G1 X115.430 Y100.370 E8.20234
G1 X115.370 Y101.380 E8.22033
G1 X115.280 Y102.130 E8.23376
G1 X115.140 Y102.900 E8.24767
G1 X115.060 Y103.270 E8.25440
G1 X114.810 Y104.190 E8.27135
G1 X114.570 Y104.900 E8.28467
G1 X114.230 Y105.750 E8.30095
G1 X113.910 Y106.440 E8.31447
G1 X113.510 Y107.200 E8.32974
G1 X113.320 Y107.520 E8.33635
G1 X112.910 Y108.150 E8.34971
G1 X112.470 Y108.760 E8.36309
G1 X111.760 Y109.620 E8.38291
G1 X111.240 Y110.170 E8.39637
G1 X110.480 Y110.880 E8.41486
G1 X109.900 Y111.360 E8.42824
G1 X108.950 Y112.050 E8.44912
G1 X108.250 Y112.470 E8.46363
G1 X107.590 Y112.830 E8.47699
G1 X106.880 Y113.180 E8.49107
G1 X105.900 Y113.570 E8.50982
G1 X105.190 Y113.810 E8.52314
G1 X104.060 Y114.110 E8.54393
G1 X103.320 Y114.250 E8.55731
G1 X102.410 Y114.370 E8.57363
G1 X101.490 Y114.420 E8.59001
G1 X100.000 Y114.450 E8.61651
G1 X89.920 Y114.450 E8.79571
G1 X88.910 Y114.440 E8.81366
G1 X87.790 Y114.380 E8.83360
G1 X86.890 Y114.290 E8.84968
G1 X85.870 Y114.100 E8.86813
G1 X85.500 Y114.010 E8.87490
G1 X84.190 Y113.600 E8.89930
G1 X83.240 Y113.230 E8.91742
G1 X82.550 Y112.910 E8.93095
G1 X81.560 Y112.380 E8.95091
G1 X80.780 Y111.870 E8.96748
G1 X80.180 Y111.430 E8.98071
G1 X79.370 Y110.760 E8.99939
G1 X78.820 Y110.240 E9.01285
G1 X78.070 Y109.440 E9.03234
G1 X77.520 Y108.760 E9.04789
G1 X77.080 Y108.150 E9.06126
G1 X76.520 Y107.250 E9.08011
G1 X76.160 Y106.590 E9.09347
G1 X75.810 Y105.880 E9.10755
G1 X75.660 Y105.530 E9.11431
G1 X75.420 Y104.900 E9.12630
G1 X75.180 Y104.190 E9.13962
G1 X74.930 Y103.270 E9.15657
G1 X74.710 Y102.130 E9.17721
G1 X74.620 Y101.380 E9.19064
G1 X74.560 Y100.210 E9.21147
G1 X74.570 Y99.390 E9.22605
G1 X74.620 Y98.610 E9.23994
G1 X74.710 Y97.860 E9.25337
G1 X74.930 Y96.720 E9.27401
G1 X75.180 Y95.800 E9.29096
G1 X75.420 Y95.090 E9.30429
G1 X75.810 Y94.110 E9.32304
G1 X76.160 Y93.400 E9.33711
G1 X76.520 Y92.740 E9.35047
G1 X77.080 Y91.840 E9.36932
G1 X77.520 Y91.230 E9.38269
G1 X78.070 Y90.550 E9.39824
G1 X78.650 Y89.920 E9.41346
G1 X79.464 Y89.152 E9.43335
G1 X79.770 Y89.440 F11700.000
G1 X80.350 Y88.960 F1680.000 E9.44673
G1 X80.970 Y88.490 E9.46056
G1 X81.280 Y88.280 E9.46722
G1 X81.940 Y87.880 E9.48094
G1 X82.600 Y87.520 E9.49431
G1 X83.630 Y87.040 E9.51451
G1 X84.930 Y86.580 E9.53902
G1 X86.010 Y86.290 E9.55890
G1 X86.750 Y86.150 E9.57229
G1 X87.610 Y86.040 E9.58770
G1 X87.990 Y86.010 E9.59448
G1 X88.560 Y85.980 E9.60463
G1 X89.940 Y85.970 E9.62916
G1 X100.990 Y85.970 E9.82561
G1 X102.170 Y86.020 E9.84660
G1 X102.990 Y86.110 E9.86127
G1 X103.820 Y86.250 E9.87623
G1 X104.190 Y86.330 E9.88296
G1 X104.960 Y86.540 E9.89715
G1 X105.670 Y86.770 E9.91042
G1 X106.660 Y87.170 E9.92940
G1 X107.350 Y87.500 E9.94300
G1 X108.310 Y88.030 E9.96249
G1 X108.960 Y88.460 E9.97635
G1 X109.560 Y88.900 E9.98958
G1 X110.270 Y89.490 E10.00599
G1 X110.830 Y90.010 E10.01957
G1 X111.360 Y90.540 E10.03290
G1 X111.610 Y90.820 E10.03957
G1 X112.090 Y91.420 E10.05323
G1 X112.530 Y92.020 E10.06646
G1 X113.130 Y92.970 E10.08644
G1 X113.490 Y93.640 E10.09996
G1 X113.800 Y94.280 E10.11260
G1 X114.170 Y95.220 E10.13056
G1 X114.410 Y95.930 E10.14388
G1 X114.700 Y97.010 E10.16376
G1 X114.840 Y97.750 E10.17715
G1 X114.950 Y98.610 E10.19256
G1 X115.010 Y99.620 E10.21055
G1 X115.010 Y100.370 E10.22389
G1 X114.950 Y101.330 E10.24099
G1 X114.860 Y102.080 E10.25441
G1 X114.740 Y102.820 E10.26774
G1 X114.660 Y103.190 E10.27447
G1 X114.410 Y104.060 E10.29056
G1 X114.170 Y104.770 E10.30389
G1 X113.850 Y105.580 E10.31937
G1 X113.530 Y106.270 E10.33289
G1 X113.150 Y106.990 E10.34737
G1 X112.960 Y107.310 E10.35398
G1 X112.570 Y107.910 E10.36670
G1 X112.130 Y108.520 E10.38007
G1 X111.450 Y109.330 E10.39888
G1 X110.930 Y109.880 E10.41233
G1 X110.220 Y110.550 E10.42969
G1 X109.640 Y111.030 E10.44307
G1 X109.020 Y111.500 E10.45690
G1 X108.710 Y111.710 E10.46356
G1 X108.050 Y112.110 E10.47728
G1 X107.390 Y112.470 E10.49064
G1 X106.710 Y112.800 E10.50408
G1 X105.770 Y113.170 E10.52204
G1 X105.060 Y113.410 E10.53537
G1 X103.980 Y113.700 E10.55525
G1 X103.240 Y113.840 E10.56863
G1 X102.380 Y113.950 E10.58405
G1 X101.490 Y114.010 E10.59991
G1 X100.120 Y114.030 E10.62426
G1 X89.920 Y114.030 E10.80560
G1 X88.910 Y114.020 E10.82355
G1 X87.810 Y113.970 E10.84313
G1 X86.590 Y113.810 E10.86500
G1 X85.970 Y113.690 E10.87623
