; generated by Slic3r 0.9.10b on 2013-09-27 at 14:56:16

; layer_height = 0.3
; perimeters = 3
; top_solid_layers = 3
; bottom_solid_layers = 3
; fill_density = 0.2
; perimeter_speed = 80
; infill_speed = 130
; travel_speed = 195
; nozzle_diameter = 0.4
; filament_diameter = 3
; extrusion_multiplier = 1
; perimeters extrusion width = 0.42mm
; infill extrusion width = 0.42mm
; solid infill extrusion width = 0.42mm
; top infill extrusion width = 0.42mm
; support material extrusion width = 0.42mm

G21 ; set units to millimeters
M107
M190 S60 ; wait for bed temperature to be reached
M104 S225 ; set temperature
G28 ; home all axes
G1 Z5 F5000 ; lift nozzle
M109 S225 ; wait for temperature to be reached
G90 ; use absolute coordinates
G92 E0
M82 ; use absolute distances for extrusion
G1 F1800.000 E-1.00000
G92 E0
G1 Z0.300 F11700.000
G1 X84.120 Y88.810
G1 F1800.000 E1.00000
G1 X85.210 Y87.860 F1680.000 E1.02570
G1 X86.510 Y86.920 E1.05422
G1 X86.910 Y86.670 E1.06261
G1 X87.880 Y86.120 E1.08243
G1 X88.500 Y85.820 E1.09468
G1 X89.870 Y85.270 E1.12092
G1 X90.320 Y85.120 E1.12936
G1 X91.830 Y84.720 E1.15713
G1 X92.300 Y84.630 E1.16563
G1 X93.780 Y84.440 E1.19216
G1 X94.760 Y84.400 E1.20960
G1 X95.500 Y84.410 E1.22275
G1 X95.970 Y84.430 E1.23112
G1 X97.410 Y84.580 E1.25686
G1 X98.450 Y84.780 E1.27568
G1 X99.670 Y85.120 E1.29820
G1 X100.120 Y85.270 E1.30663
G1 X101.470 Y85.810 E1.33248
G1 X101.910 Y86.020 E1.34115
G1 X102.900 Y86.550 E1.36111
G1 X103.660 Y87.030 E1.37709
G1 X104.660 Y87.760 E1.39910
G1 X105.030 Y88.060 E1.40757
G1 X106.310 Y89.260 E1.43876
G1 X106.630 Y89.610 E1.44719
G1 X107.330 Y90.450 E1.46663
G1 X108.070 Y91.510 E1.48961
G1 X108.320 Y91.910 E1.49800
G1 X108.970 Y93.080 E1.52179
G1 X109.180 Y93.520 E1.53046
G1 X109.720 Y94.870 E1.55631
G1 X109.870 Y95.320 E1.56474
G1 X110.210 Y96.540 E1.58726
G1 X110.410 Y97.580 E1.60609
G1 X110.560 Y99.020 E1.63183
G1 X110.580 Y99.490 E1.64019
G1 X110.580 Y100.480 E1.65779
G1 X110.560 Y100.960 E1.66633
G1 X110.410 Y102.410 E1.69224
G1 X110.210 Y103.450 E1.71107
G1 X109.870 Y104.670 E1.73359
G1 X109.720 Y105.120 E1.74202
G1 X109.180 Y106.470 E1.76787
G1 X108.970 Y106.910 E1.77654
G1 X108.440 Y107.900 E1.79650
G1 X107.960 Y108.660 E1.81248
G1 X107.230 Y109.660 E1.83449
G1 X106.930 Y110.030 E1.84296
G1 X105.730 Y111.310 E1.87415
G1 X105.380 Y111.630 E1.88258
G1 X104.300 Y112.500 E1.90724
G1 X103.100 Y113.320 E1.93308
G1 X101.910 Y113.970 E1.95718
G1 X101.470 Y114.180 E1.96585
G1 X100.120 Y114.720 E1.99170
G1 X99.670 Y114.870 E2.00013
G1 X98.450 Y115.210 E2.02265
G1 X97.410 Y115.410 E2.04147
G1 X95.970 Y115.560 E2.06721
G1 X95.500 Y115.580 E2.07557
G1 X94.510 Y115.580 E2.09317
G1 X94.030 Y115.560 E2.10172
G1 X92.580 Y115.410 E2.12763
G1 X91.540 Y115.210 E2.14646
G1 X90.320 Y114.870 E2.16897
G1 X89.870 Y114.720 E2.17741
G1 X88.520 Y114.180 E2.20326
G1 X88.080 Y113.970 E2.21192
G1 X87.090 Y113.440 E2.23189
G1 X86.330 Y112.960 E2.24787
G1 X85.330 Y112.230 E2.26988
G1 X84.960 Y111.930 E2.27835
G1 X83.880 Y110.940 E2.30439
G1 X83.060 Y110.030 E2.32617
G1 X82.760 Y109.660 E2.33464
G1 X81.920 Y108.480 E2.36039
G1 X81.670 Y108.080 E2.36877
G1 X81.070 Y107.010 E2.39058
G1 X80.860 Y106.580 E2.39909
G1 X80.320 Y105.280 E2.42411
G1 X79.970 Y104.150 E2.44514
G1 X79.850 Y103.690 E2.45360
G1 X79.580 Y102.410 E2.47685
G1 X79.430 Y100.960 E2.50277
G1 X79.410 Y100.480 E2.51131
G1 X79.410 Y99.490 E2.52891
G1 X79.430 Y99.020 E2.53727
G1 X79.580 Y97.580 E2.56301
G1 X79.780 Y96.540 E2.58184
G1 X80.120 Y95.320 E2.60435
G1 X80.270 Y94.870 E2.61279
G1 X80.810 Y93.520 E2.63863
G1 X81.020 Y93.080 E2.64730
G1 X81.550 Y92.090 E2.66727
G1 X82.030 Y91.330 E2.68325
G1 X82.760 Y90.330 E2.70526
G1 X83.060 Y89.960 E2.71373
G1 X84.077 Y88.856 E2.74041
G1 X84.410 Y89.120 F11700.000
G1 X85.480 Y88.180 F1680.000 E2.76573
G1 X86.730 Y87.270 E2.79322
G1 X87.130 Y87.020 E2.80161
G1 X88.070 Y86.490 E2.82079
G1 X88.890 Y86.100 E2.83693
G1 X90.000 Y85.670 E2.85809
G1 X90.450 Y85.520 E2.86653
G1 X91.910 Y85.140 E2.89335
G1 X92.380 Y85.050 E2.90186
G1 X93.580 Y84.880 E2.92340
G1 X95.000 Y84.820 E2.94867
G1 X95.950 Y84.850 E2.96557
G1 X97.340 Y85.000 E2.99042
G1 X98.360 Y85.190 E3.00887
G1 X99.540 Y85.520 E3.03065
G1 X99.990 Y85.670 E3.03908
G1 X101.290 Y86.190 E3.06397
G1 X101.730 Y86.400 E3.07264
G1 X102.680 Y86.910 E3.09181
G1 X103.430 Y87.380 E3.10754
G1 X104.400 Y88.080 E3.12881
G1 X104.770 Y88.380 E3.13728
G1 X106.000 Y89.540 E3.16733
G1 X106.320 Y89.890 E3.17577
G1 X107.000 Y90.710 E3.19470
G1 X107.720 Y91.730 E3.21690
G1 X107.970 Y92.130 E3.22529
G1 X108.590 Y93.260 E3.24820
G1 X108.800 Y93.700 E3.25687
G1 X109.320 Y95.000 E3.28176
G1 X109.470 Y95.450 E3.29019
G1 X109.800 Y96.630 E3.31197
G1 X109.990 Y97.650 E3.33042
G1 X110.140 Y99.040 E3.35527
G1 X110.160 Y99.510 E3.36364
G1 X110.160 Y100.460 E3.38053
G1 X110.140 Y100.940 E3.38907
G1 X109.990 Y102.340 E3.41410
G1 X109.800 Y103.360 E3.43254
G1 X109.470 Y104.540 E3.45433
G1 X109.320 Y104.990 E3.46276
G1 X108.800 Y106.290 E3.48765
G1 X108.590 Y106.730 E3.49632
G1 X108.080 Y107.680 E3.51549
G1 X107.610 Y108.430 E3.53122
G1 X106.910 Y109.400 E3.55249
G1 X106.610 Y109.770 E3.56096
G1 X105.450 Y111.000 E3.59101
G1 X105.100 Y111.320 E3.59944
G1 X104.060 Y112.160 E3.62321
G1 X103.670 Y112.440 E3.63174
G1 X102.880 Y112.960 E3.64856
G1 X101.730 Y113.590 E3.67187
G1 X101.290 Y113.800 E3.68054
G1 X99.990 Y114.320 E3.70543
G1 X99.540 Y114.470 E3.71386
G1 X98.360 Y114.800 E3.73564
G1 X97.340 Y114.990 E3.75409
G1 X95.950 Y115.140 E3.77894
G1 X95.480 Y115.160 E3.78731
G1 X94.530 Y115.160 E3.80420
G1 X94.050 Y115.140 E3.81274
G1 X92.650 Y114.990 E3.83777
G1 X91.630 Y114.800 E3.85621
G1 X90.450 Y114.470 E3.87800
G1 X90.000 Y114.320 E3.88643
G1 X88.700 Y113.800 E3.91132
G1 X88.260 Y113.590 E3.91999
G1 X87.310 Y113.080 E3.93916
G1 X86.560 Y112.610 E3.95489
G1 X85.590 Y111.910 E3.97616
G1 X85.220 Y111.610 E3.98463
G1 X84.170 Y110.650 E4.00992
G1 X83.380 Y109.770 E4.03094
G1 X83.080 Y109.400 E4.03941
G1 X82.270 Y108.260 E4.06427
G1 X82.020 Y107.860 E4.07266
G1 X81.450 Y106.820 E4.09374
G1 X81.240 Y106.390 E4.10225
G1 X80.710 Y105.140 E4.12639
G1 X80.370 Y104.040 E4.14685
G1 X80.250 Y103.580 E4.15531
G1 X80.000 Y102.340 E4.17779
G1 X79.850 Y100.940 E4.20282
G1 X79.830 Y100.460 E4.21137
G1 X79.830 Y99.510 E4.22825
G1 X79.850 Y99.040 E4.23662
G1 X80.000 Y97.650 E4.26147
G1 X80.190 Y96.630 E4.27992
G1 X80.520 Y95.450 E4.30170
G1 X80.670 Y95.000 E4.31013
G1 X81.190 Y93.700 E4.33502
G1 X81.400 Y93.260 E4.34369
G1 X81.910 Y92.310 E4.36286
G1 X82.380 Y91.560 E4.37860
G1 X83.080 Y90.590 E4.39986
G1 X83.380 Y90.220 E4.40833
G1 X84.367 Y89.166 E4.43400
G1 X84.700 Y89.420 F11700.000
G1 X85.380 Y88.800 F1680.000 E4.45036
G1 X85.740 Y88.500 E4.45869
G1 X86.950 Y87.630 E4.48519
G1 X87.350 Y87.380 E4.49357
G1 X88.260 Y86.870 E4.51212
G1 X89.070 Y86.480 E4.52810
G1 X90.130 Y86.060 E4.54837
G1 X90.580 Y85.910 E4.55680
G1 X91.990 Y85.550 E4.58267
G1 X92.460 Y85.460 E4.59118
G1 X93.610 Y85.300 E4.61182
G1 X95.000 Y85.240 E4.63656
G1 X95.940 Y85.270 E4.65328
G1 X97.270 Y85.410 E4.67705
G1 X98.270 Y85.600 E4.69515
G1 X99.410 Y85.910 E4.71615
G1 X99.860 Y86.060 E4.72458
G1 X101.110 Y86.570 E4.74858
G1 X101.550 Y86.780 E4.75725
G1 X102.470 Y87.270 E4.77578
G1 X103.200 Y87.730 E4.79112
G1 X104.130 Y88.410 E4.81160
G1 X104.500 Y88.710 E4.82007
G1 X105.690 Y89.830 E4.84912
G1 X106.010 Y90.180 E4.85755
G1 X106.670 Y90.970 E4.87585
G1 X107.360 Y91.950 E4.89716
G1 X107.610 Y92.350 E4.90555
G1 X108.210 Y93.440 E4.92767
G1 X108.420 Y93.880 E4.93633
G1 X108.930 Y95.130 E4.96034
G1 X109.080 Y95.580 E4.96877
G1 X109.390 Y96.720 E4.98977
G1 X109.580 Y97.720 E5.00787
G1 X109.720 Y99.050 E5.03164
G1 X109.740 Y99.520 E5.04000
G1 X109.740 Y100.450 E5.05654
G1 X109.720 Y100.930 E5.06508
G1 X109.580 Y102.270 E5.08903
G1 X109.390 Y103.270 E5.10713
G1 X109.080 Y104.410 E5.12813
G1 X108.930 Y104.860 E5.13656
G1 X108.420 Y106.110 E5.16056
G1 X108.210 Y106.550 E5.16923
G1 X107.720 Y107.470 E5.18776
G1 X107.260 Y108.200 E5.20310
G1 X106.580 Y109.130 E5.22358
G1 X106.280 Y109.500 E5.23205
G1 X105.160 Y110.690 E5.26110
G1 X104.810 Y111.010 E5.26953
G1 X103.810 Y111.820 E5.29241
G1 X102.670 Y112.600 E5.31697
G1 X101.550 Y113.210 E5.33964
G1 X101.110 Y113.420 E5.34831
G1 X99.860 Y113.930 E5.37231
G1 X99.410 Y114.080 E5.38074
G1 X98.270 Y114.390 E5.40174
G1 X97.270 Y114.580 E5.41984
G1 X95.940 Y114.720 E5.44361
G1 X95.470 Y114.740 E5.45198
G1 X94.540 Y114.740 E5.46851
G1 X94.060 Y114.720 E5.47705
G1 X92.720 Y114.580 E5.50100
G1 X91.720 Y114.390 E5.51910
G1 X90.580 Y114.080 E5.54010
G1 X90.130 Y113.930 E5.54853
G1 X88.880 Y113.420 E5.57254
G1 X88.440 Y113.210 E5.58120
G1 X87.520 Y112.720 E5.59973
G1 X86.790 Y112.260 E5.61507
G1 X85.860 Y111.580 E5.63555
G1 X85.490 Y111.280 E5.64402
G1 X84.470 Y110.350 E5.66856
G1 X83.710 Y109.500 E5.68883
G1 X83.410 Y109.130 E5.69730
G1 X82.630 Y108.040 E5.72113
G1 X82.380 Y107.640 E5.72951
G1 X81.820 Y106.640 E5.74989
G1 X81.610 Y106.210 E5.75840
G1 X81.110 Y105.000 E5.78167
G1 X80.780 Y103.940 E5.80141
G1 X80.660 Y103.480 E5.80986
G1 X80.410 Y102.270 E5.83183
G1 X80.270 Y100.930 E5.85578
G1 X80.250 Y100.450 E5.86432
G1 X80.250 Y99.520 E5.88085
G1 X80.270 Y99.050 E5.88922
G1 X80.410 Y97.720 E5.91299
G1 X80.600 Y96.720 E5.93109
G1 X80.910 Y95.580 E5.95209
G1 X81.060 Y95.130 E5.96052
G1 X81.570 Y93.880 E5.98452
G1 X81.780 Y93.440 E5.99319
G1 X82.270 Y92.520 E6.01172
G1 X82.730 Y91.790 E6.02706
G1 X83.410 Y90.860 E6.04754
G1 X83.710 Y90.490 E6.05601
G1 X84.657 Y89.466 E6.08081
G1 X84.980 Y89.730 F11700.000
G1 X85.650 Y89.120 F1680.000 E6.09692
G1 X86.010 Y88.820 E6.10525
G1 X87.170 Y87.980 E6.13071
G1 X87.570 Y87.730 E6.13909
G1 X88.450 Y87.240 E6.15700
G1 X89.240 Y86.860 E6.17259
G1 X90.270 Y86.460 E6.19223
G1 X90.720 Y86.310 E6.20066
G1 X92.070 Y85.960 E6.22545
G1 X92.540 Y85.870 E6.23396
G1 X93.640 Y85.720 E6.25370
G1 X95.000 Y85.660 E6.27790
G1 X95.920 Y85.690 E6.29426
G1 X97.200 Y85.820 E6.31714
G1 X98.180 Y86.010 E6.33488
G1 X99.270 Y86.310 E6.35498
G1 X99.720 Y86.460 E6.36341
G1 X100.930 Y86.950 E6.38662
G1 X101.370 Y87.160 E6.39529
G1 X102.250 Y87.630 E6.41303
G1 X102.970 Y88.080 E6.42812
G1 X103.870 Y88.730 E6.44786
G1 X104.240 Y89.030 E6.45633
G1 X105.380 Y90.110 E6.48424
G1 X105.700 Y90.460 E6.49267
G1 X106.340 Y91.230 E6.51047
G1 X107.010 Y92.170 E6.53100
G1 X107.260 Y92.570 E6.53938
G1 X107.830 Y93.620 E6.56062
G1 X108.040 Y94.060 E6.56929
G1 X108.530 Y95.270 E6.59250
G1 X108.680 Y95.720 E6.60093
G1 X108.980 Y96.810 E6.62103
G1 X109.170 Y97.790 E6.63877
G1 X109.300 Y99.070 E6.66165
G1 X109.320 Y99.540 E6.67001
G1 X109.320 Y100.430 E6.68583
G1 X109.300 Y100.910 E6.69437
G1 X109.170 Y102.200 E6.71742
G1 X108.980 Y103.180 E6.73517
G1 X108.680 Y104.270 E6.75527
G1 X108.530 Y104.720 E6.76370
G1 X108.040 Y105.930 E6.78691
G1 X107.830 Y106.370 E6.79558
G1 X107.360 Y107.250 E6.81331
G1 X106.910 Y107.970 E6.82841
G1 X106.260 Y108.870 E6.84814
G1 X105.960 Y109.240 E6.85661
G1 X104.880 Y110.380 E6.88453
G1 X104.530 Y110.700 E6.89296
G1 X103.570 Y111.480 E6.91495
G1 X103.180 Y111.760 E6.92348
G1 X102.450 Y112.240 E6.93902
G1 X101.370 Y112.830 E6.96089
G1 X100.930 Y113.040 E6.96956
G1 X99.720 Y113.530 E6.99277
G1 X99.270 Y113.680 E7.00120
G1 X98.180 Y113.980 E7.02130
G1 X97.200 Y114.170 E7.03905
G1 X95.920 Y114.300 E7.06192
G1 X95.450 Y114.320 E7.07028
G1 X94.560 Y114.320 E7.08610
G1 X94.080 Y114.300 E7.09465
G1 X92.790 Y114.170 E7.11770
G1 X91.810 Y113.980 E7.13544
G1 X90.720 Y113.680 E7.15554
G1 X90.270 Y113.530 E7.16397
G1 X89.060 Y113.040 E7.18718
G1 X88.620 Y112.830 E7.19585
G1 X87.740 Y112.360 E7.21358
G1 X87.020 Y111.910 E7.22868
G1 X86.120 Y111.260 E7.24842
G1 X85.750 Y110.960 E7.25688
G1 X84.770 Y110.050 E7.28066
G1 X84.030 Y109.240 E7.30016
G1 X83.730 Y108.870 E7.30863
G1 X82.980 Y107.820 E7.33157
G1 X82.730 Y107.420 E7.33996
G1 X82.200 Y106.460 E7.35945
G1 X81.990 Y106.030 E7.36796
G1 X81.510 Y104.860 E7.39044
G1 X81.180 Y103.830 E7.40967
G1 X81.060 Y103.370 E7.41812
G1 X80.820 Y102.200 E7.43935
G1 X80.690 Y100.910 E7.46240
G1 X80.670 Y100.430 E7.47094
G1 X80.670 Y99.540 E7.48677
G1 X80.690 Y99.070 E7.49513
G1 X80.820 Y97.790 E7.51800
G1 X81.010 Y96.810 E7.53575
G1 X81.310 Y95.720 E7.55585
G1 X81.460 Y95.270 E7.56428
G1 X81.950 Y94.060 E7.58749
G1 X82.160 Y93.620 E7.59616
G1 X82.630 Y92.740 E7.61389
G1 X83.080 Y92.020 E7.62899
G1 X83.730 Y91.120 E7.64872
G1 X84.030 Y90.750 E7.65719
G1 X84.937 Y89.776 E7.68085
G1 X85.270 Y90.030 F11700.000
G1 X85.920 Y89.440 F1680.000 E7.69646
G1 X86.280 Y89.140 E7.70479
G1 X87.400 Y88.340 E7.72926
G1 X87.800 Y88.090 E7.73764
G1 X88.630 Y87.620 E7.75460
G1 X89.410 Y87.250 E7.76995
G1 X90.400 Y86.860 E7.78887
G1 X90.850 Y86.710 E7.79730
G1 X92.150 Y86.370 E7.82119
G1 X92.620 Y86.280 E7.82969
G1 X93.680 Y86.130 E7.84873
G1 X95.000 Y86.080 E7.87221
G1 X95.900 Y86.110 E7.88822
G1 X97.130 Y86.240 E7.91021
G1 X97.860 Y86.370 E7.92339
G1 X99.140 Y86.710 E7.94693
G1 X99.590 Y86.860 E7.95537
G1 X100.750 Y87.330 E7.97762
G1 X101.190 Y87.540 E7.98629
G1 X102.040 Y87.990 E8.00338
G1 X102.750 Y88.430 E8.01823
G1 X103.600 Y89.060 E8.03704
G1 X103.970 Y89.360 E8.04551
G1 X105.070 Y90.390 E8.07230
G1 X105.390 Y90.740 E8.08073
G1 X106.010 Y91.490 E8.09803
G1 X106.650 Y92.400 E8.11781
G1 X106.900 Y92.800 E8.12619
G1 X107.450 Y93.800 E8.14648
G1 X107.660 Y94.240 E8.15515
G1 X108.130 Y95.400 E8.17740
G1 X108.280 Y95.850 E8.18583
G1 X108.570 Y96.900 E8.20520
G1 X108.750 Y97.860 E8.22256
G1 X108.880 Y99.090 E8.24455
G1 X108.900 Y99.560 E8.25292
G1 X108.900 Y100.410 E8.26803
G1 X108.880 Y100.890 E8.27657
G1 X108.750 Y102.130 E8.29873
G1 X108.570 Y103.090 E8.31610
G1 X108.280 Y104.140 E8.33546
G1 X108.130 Y104.590 E8.34390
G1 X107.660 Y105.750 E8.36615
G1 X107.450 Y106.190 E8.37481
G1 X107.000 Y107.040 E8.39191
G1 X106.560 Y107.750 E8.40676
G1 X105.930 Y108.600 E8.42557
G1 X105.630 Y108.970 E8.43404
G1 X104.600 Y110.070 E8.46083
G1 X104.250 Y110.390 E8.46926
G1 X103.320 Y111.140 E8.49050
G1 X102.240 Y111.880 E8.51377
G1 X101.190 Y112.450 E8.53501
G1 X100.750 Y112.660 E8.54368
G1 X99.590 Y113.130 E8.56593
G1 X99.140 Y113.280 E8.57436
G1 X98.090 Y113.570 E8.59373
G1 X97.130 Y113.750 E8.61109
G1 X95.900 Y113.880 E8.63308
G1 X95.430 Y113.900 E8.64145
G1 X94.580 Y113.900 E8.65656
G1 X94.100 Y113.880 E8.66510
G1 X92.860 Y113.750 E8.68726
G1 X91.900 Y113.570 E8.70463
G1 X90.850 Y113.280 E8.72399
G1 X90.400 Y113.130 E8.73243
G1 X89.240 Y112.660 E8.75468
G1 X88.800 Y112.450 E8.76334
G1 X87.950 Y112.000 E8.78044
G1 X87.240 Y111.560 E8.79529
G1 X86.390 Y110.930 E8.81410
G1 X86.020 Y110.630 E8.82257
G1 X85.060 Y109.760 E8.84560
G1 X84.360 Y108.970 E8.86437
G1 X84.060 Y108.600 E8.87283
G1 X83.340 Y107.590 E8.89488
G1 X83.090 Y107.190 E8.90327
G1 X82.580 Y106.270 E8.92197
G1 X82.370 Y105.840 E8.93048
G1 X81.900 Y104.720 E8.95207
G1 X81.590 Y103.720 E8.97068
G1 X81.470 Y103.260 E8.97914
G1 X81.240 Y102.130 E8.99964
G1 X81.110 Y100.890 E9.02180
G1 X81.090 Y100.410 E9.03034
G1 X81.090 Y99.560 E9.04545
G1 X81.110 Y99.090 E9.05382
G1 X81.240 Y97.860 E9.07580
G1 X81.420 Y96.900 E9.09317
G1 X81.710 Y95.850 E9.11253
G1 X81.860 Y95.400 E9.12097
G1 X82.330 Y94.240 E9.14322
G1 X82.540 Y93.800 E9.15189
G1 X82.990 Y92.950 E9.16898
G1 X83.430 Y92.240 E9.18383
G1 X84.060 Y91.390 E9.20264
G1 X84.360 Y91.020 E9.21111
G1 X85.227 Y90.076 E9.23390
G1 X85.560 Y90.340 F11700.000
G1 X86.550 Y89.470 F1680.000 E9.25733
G1 X87.620 Y88.690 E9.28087
G1 X88.020 Y88.440 E9.28926
G1 X88.820 Y87.990 E9.30557
G1 X89.590 Y87.630 E9.32068
G1 X90.530 Y87.260 E9.33864
G1 X90.980 Y87.110 E9.34708
G1 X92.230 Y86.780 E9.37006
G1 X92.700 Y86.690 E9.37857
G1 X93.710 Y86.550 E9.39669
G1 X95.000 Y86.500 E9.41964
G1 X95.880 Y86.530 E9.43530
G1 X97.070 Y86.650 E9.45656
G1 X97.770 Y86.780 E9.46922
G1 X99.010 Y87.110 E9.49203
G1 X99.460 Y87.260 E9.50046
G1 X100.570 Y87.700 E9.52169
G1 X101.010 Y87.910 E9.53036
G1 X101.820 Y88.350 E9.54674
G1 X102.520 Y88.790 E9.56144
G1 X103.340 Y89.380 E9.57940
G1 X103.710 Y89.680 E9.58787
G1 X104.760 Y90.670 E9.61353
G1 X105.080 Y91.020 E9.62196
G1 X105.680 Y91.750 E9.63876
