; generated by Slic3r 0.9.10b on 2013-09-27 at 14:56:36

; layer_height = 0.3
; perimeters = 3
; top_solid_layers = 3
; bottom_solid_layers = 3
; fill_density = 0.2
; perimeter_speed = 80
; infill_speed = 130
; travel_speed = 195
; nozzle_diameter = 0.4
; filament_diameter = 3
; extrusion_multiplier = 1
; perimeters extrusion width = 0.42mm
; infill extrusion width = 0.42mm
; solid infill extrusion width = 0.42mm
; top infill extrusion width = 0.42mm
; support material extrusion width = 0.42mm

G21 ; set units to millimeters
M107
M190 S60 ; wait for bed temperature to be reached
M104 S225 ; set temperature
G28 ; home all axes
G1 Z5 F5000 ; lift nozzle
M109 S225 ; wait for temperature to be reached
G90 ; use absolute coordinates
G92 E0
M82 ; use absolute distances for extrusion
G1 F1800.000 E-1.00000
G92 E0
G1 Z0.300 F11700.000
G1 X79.530 Y81.390
G1 F1800.000 E1.00000
G1 X80.860 Y80.460 F1680.000 E1.02885
G1 X82.320 Y79.780 E1.05748
G1 X83.890 Y79.360 E1.08638
G1 X85.500 Y79.220 E1.11511
G1 X101.500 Y79.220 E1.39955
G1 X103.540 Y79.440 E1.43603
G1 X105.470 Y80.110 E1.47235
G1 X108.680 Y81.630 E1.53549
G1 X109.980 Y82.380 E1.56217
G1 X111.140 Y83.320 E1.58871
G1 X112.130 Y84.440 E1.61529
G1 X112.930 Y85.700 E1.64182
G1 X113.510 Y87.080 E1.66843
G1 X113.870 Y88.530 E1.69499
G1 X113.990 Y90.020 E1.72157
G1 X113.990 Y98.400 E1.87055
G1 X113.770 Y100.420 E1.90667
G1 X113.120 Y102.340 E1.94271
G1 X109.140 Y110.840 E2.10956
G1 X108.850 Y111.430 E2.12125
G1 X108.190 Y112.580 E2.14482
G1 X107.690 Y113.350 E2.16114
G1 X107.240 Y113.980 E2.17491
G1 X106.340 Y115.060 E2.19990
G1 X105.890 Y115.530 E2.21147
G1 X105.060 Y116.340 E2.23209
G1 X104.370 Y116.930 E2.24823
G1 X103.980 Y117.240 E2.25708
G1 X102.930 Y117.970 E2.27982
G1 X102.150 Y118.450 E2.29610
G1 X101.430 Y118.850 E2.31074
G1 X100.600 Y119.240 E2.32705
G1 X99.700 Y119.620 E2.34441
G1 X99.220 Y119.800 E2.35353
G1 X98.390 Y120.070 E2.36904
G1 X97.510 Y120.300 E2.38521
G1 X96.490 Y120.510 E2.40373
G1 X95.420 Y120.670 E2.42296
G1 X94.920 Y120.720 E2.43189
G1 X94.180 Y120.760 E2.44507
G1 X93.300 Y120.770 E2.46071
G1 X92.070 Y120.720 E2.48260
G1 X91.570 Y120.670 E2.49153
G1 X90.990 Y120.590 E2.50194
G1 X89.970 Y120.410 E2.52035
G1 X88.960 Y120.170 E2.53881
G1 X88.470 Y120.030 E2.54787
G1 X87.440 Y119.680 E2.56721
G1 X86.770 Y119.410 E2.58005
G1 X85.560 Y118.850 E2.60375
G1 X84.840 Y118.450 E2.61840
G1 X83.640 Y117.690 E2.64365
G1 X83.010 Y117.240 E2.65741
G1 X82.310 Y116.670 E2.67346
G1 X81.930 Y116.340 E2.68241
G1 X81.100 Y115.530 E2.70303
G1 X80.650 Y115.060 E2.71459
G1 X80.060 Y114.370 E2.73073
G1 X79.750 Y113.980 E2.73959
G1 X79.020 Y112.930 E2.76232
G1 X78.540 Y112.150 E2.77861
G1 X78.140 Y111.430 E2.79325
G1 X77.920 Y110.980 E2.80215
G1 X77.550 Y110.140 E2.81847
G1 X77.190 Y109.220 E2.83604
G1 X76.920 Y108.390 E2.85155
G1 X76.690 Y107.510 E2.86772
G1 X76.470 Y106.460 E2.88679
G1 X76.320 Y105.430 E2.90530
G1 X76.270 Y104.940 E2.91405
G1 X76.220 Y103.670 E2.93665
G1 X76.220 Y88.500 E3.20634
G1 X76.360 Y86.890 E3.23507
G1 X76.780 Y85.320 E3.26396
G1 X77.460 Y83.860 E3.29259
G1 X78.390 Y82.530 E3.32145
G1 X79.486 Y81.434 E3.34899
G1 X79.800 Y81.710 F11700.000
G1 X81.070 Y80.820 F1680.000 E3.37656
G1 X82.470 Y80.170 E3.40400
G1 X83.960 Y79.770 E3.43143
G1 X85.500 Y79.640 E3.45890
G1 X101.500 Y79.640 E3.74335
G1 X103.440 Y79.850 E3.77804
G1 X105.290 Y80.490 E3.81284
G1 X108.500 Y82.010 E3.87598
G1 X109.930 Y82.860 E3.90555
G1 X111.180 Y83.960 E3.93516
G1 X112.200 Y85.280 E3.96481
G1 X112.950 Y86.760 E3.99431
G1 X113.420 Y88.360 E4.02395
G1 X113.570 Y90.020 E4.05359
G1 X113.570 Y98.400 E4.20256
G1 X113.360 Y100.330 E4.23708
G1 X112.740 Y102.160 E4.27143
G1 X108.760 Y110.660 E4.43828
G1 X108.100 Y111.940 E4.46389
G1 X107.840 Y112.370 E4.47282
G1 X107.350 Y113.120 E4.48875
G1 X106.910 Y113.720 E4.50197
G1 X106.600 Y114.110 E4.51083
G1 X105.600 Y115.240 E4.53766
G1 X105.240 Y115.600 E4.54671
G1 X104.780 Y116.020 E4.55778
G1 X104.110 Y116.600 E4.57353
G1 X103.120 Y117.350 E4.59561
G1 X102.370 Y117.840 E4.61154
G1 X101.940 Y118.100 E4.62047
G1 X100.790 Y118.690 E4.64345
G1 X99.970 Y119.060 E4.65945
G1 X99.070 Y119.410 E4.67661
G1 X98.280 Y119.670 E4.69140
G1 X97.800 Y119.800 E4.70024
G1 X96.930 Y120.000 E4.71611
G1 X95.930 Y120.180 E4.73417
G1 X94.880 Y120.300 E4.75296
G1 X94.170 Y120.340 E4.76560
G1 X92.810 Y120.340 E4.78978
G1 X92.110 Y120.300 E4.80225
G1 X91.060 Y120.180 E4.82103
G1 X90.570 Y120.100 E4.82986
G1 X89.570 Y119.890 E4.84803
G1 X88.060 Y119.460 E4.87594
G1 X87.580 Y119.290 E4.88499
G1 X86.490 Y118.830 E4.90602
G1 X85.750 Y118.470 E4.92065
G1 X85.050 Y118.100 E4.93473
G1 X83.870 Y117.350 E4.95959
G1 X82.880 Y116.600 E4.98167
G1 X82.210 Y116.020 E4.99742
G1 X81.750 Y115.600 E5.00849
G1 X81.390 Y115.240 E5.01754
G1 X80.390 Y114.110 E5.04437
G1 X80.080 Y113.720 E5.05323
G1 X79.640 Y113.120 E5.06645
G1 X79.150 Y112.370 E5.08238
G1 X78.890 Y111.940 E5.09131
G1 X78.300 Y110.790 E5.11429
G1 X77.930 Y109.970 E5.13029
G1 X77.580 Y109.070 E5.14745
G1 X77.320 Y108.280 E5.16224
G1 X77.100 Y107.420 E5.17802
G1 X76.890 Y106.390 E5.19671
G1 X76.740 Y105.390 E5.21468
G1 X76.690 Y104.900 E5.22344
G1 X76.640 Y103.660 E5.24550
G1 X76.640 Y88.500 E5.51501
G1 X76.770 Y86.960 E5.54249
G1 X77.170 Y85.470 E5.56992
G1 X77.820 Y84.070 E5.59736
G1 X78.710 Y82.800 E5.62493
G1 X79.756 Y81.754 E5.65121
G1 X80.070 Y82.030 F11700.000
G1 X81.280 Y81.190 F1680.000 E5.67740
G1 X82.610 Y80.560 E5.70356
G1 X84.030 Y80.180 E5.72970
G1 X85.500 Y80.050 E5.75593
G1 X101.500 Y80.050 E6.04038
G1 X103.350 Y80.260 E6.07348
G1 X105.110 Y80.870 E6.10659
G1 X108.320 Y82.390 E6.16973
G1 X109.690 Y83.200 E6.19803
G1 X110.880 Y84.250 E6.22624
G1 X111.850 Y85.500 E6.25437
G1 X112.560 Y86.920 E6.28259
G1 X113.010 Y88.440 E6.31077
G1 X113.160 Y90.020 E6.33899
G1 X113.160 Y98.400 E6.48797
G1 X112.950 Y100.230 E6.52071
G1 X112.360 Y101.980 E6.55354
G1 X108.320 Y110.610 E6.72295
G1 X108.100 Y111.060 E6.73185
G1 X107.740 Y111.720 E6.74522
G1 X107.480 Y112.150 E6.75415
G1 X107.000 Y112.880 E6.76968
G1 X106.580 Y113.460 E6.78241
G1 X106.040 Y114.130 E6.79771
G1 X105.710 Y114.510 E6.80666
G1 X105.300 Y114.940 E6.81722
G1 X104.510 Y115.710 E6.83683
G1 X103.850 Y116.270 E6.85222
G1 X103.460 Y116.580 E6.86108
G1 X102.880 Y117.000 E6.87381
G1 X102.150 Y117.480 E6.88934
G1 X101.720 Y117.740 E6.89827
G1 X101.060 Y118.100 E6.91164
G1 X100.610 Y118.320 E6.92054
G1 X99.810 Y118.680 E6.93614
G1 X98.930 Y119.020 E6.95291
G1 X98.170 Y119.260 E6.96708
G1 X97.330 Y119.480 E6.98252
G1 X96.350 Y119.690 E7.00033
G1 X95.860 Y119.770 E7.00916
G1 X94.840 Y119.880 E7.02740
G1 X94.170 Y119.920 E7.03933
G1 X92.820 Y119.920 E7.06333
G1 X92.150 Y119.880 E7.07526
G1 X91.130 Y119.770 E7.09350
G1 X90.640 Y119.690 E7.10233
G1 X89.660 Y119.480 E7.12015
G1 X88.700 Y119.220 E7.13783
G1 X88.200 Y119.060 E7.14716
G1 X87.110 Y118.650 E7.16786
G1 X86.660 Y118.450 E7.17662
G1 X85.930 Y118.100 E7.19101
G1 X85.270 Y117.740 E7.20438
G1 X84.110 Y117.000 E7.22884
G1 X83.530 Y116.580 E7.24157
G1 X82.480 Y115.710 E7.26581
G1 X82.050 Y115.300 E7.27637
G1 X81.280 Y114.510 E7.29598
G1 X80.410 Y113.460 E7.32023
G1 X79.990 Y112.880 E7.33296
G1 X79.510 Y112.150 E7.34849
G1 X79.250 Y111.720 E7.35742
G1 X78.890 Y111.060 E7.37079
G1 X78.670 Y110.610 E7.37969
G1 X78.310 Y109.810 E7.39529
G1 X77.970 Y108.930 E7.41206
G1 X77.730 Y108.170 E7.42623
G1 X77.510 Y107.330 E7.44166
G1 X77.300 Y106.320 E7.46000
G1 X77.160 Y105.350 E7.47743
G1 X77.110 Y104.860 E7.48618
G1 X77.050 Y103.490 E7.51056
G1 X77.050 Y88.500 E7.77705
G1 X77.180 Y87.030 E7.80329
G1 X77.560 Y85.610 E7.82942
G1 X78.190 Y84.280 E7.85558
G1 X79.030 Y83.070 E7.88177
G1 X80.026 Y82.074 E7.90680
G1 X80.340 Y82.350 F11700.000
G1 X81.490 Y81.550 F1680.000 E7.93170
G1 X82.750 Y80.960 E7.95644
G1 X84.110 Y80.600 E7.98145
G1 X85.500 Y80.470 E8.00627
G1 X101.500 Y80.470 E8.29071
G1 X103.260 Y80.670 E8.32220
G1 X104.940 Y81.250 E8.35380
G1 X108.150 Y82.770 E8.41694
G1 X109.440 Y83.540 E8.44365
G1 X110.570 Y84.530 E8.47036
G1 X111.490 Y85.730 E8.49724
G1 X112.180 Y87.070 E8.52403
G1 X112.590 Y88.520 E8.55082
G1 X112.740 Y90.020 E8.57762
G1 X112.740 Y98.400 E8.72660
G1 X112.540 Y100.140 E8.75774
G1 X111.980 Y101.800 E8.78888
G1 X107.940 Y110.430 E8.95828
G1 X107.720 Y110.880 E8.96719
G1 X107.120 Y111.930 E8.98869
G1 X106.650 Y112.650 E9.00397
G1 X106.250 Y113.190 E9.01592
G1 X105.720 Y113.850 E9.03097
G1 X105.010 Y114.650 E9.04998
G1 X104.650 Y115.010 E9.05903
G1 X104.230 Y115.390 E9.06910
G1 X103.580 Y115.940 E9.08424
G1 X102.650 Y116.650 E9.10504
G1 X101.930 Y117.120 E9.12033
G1 X100.880 Y117.720 E9.14183
G1 X100.430 Y117.940 E9.15073
G1 X99.260 Y118.450 E9.17342
G1 X98.780 Y118.630 E9.18253
G1 X98.060 Y118.860 E9.19597
G1 X97.580 Y118.990 E9.20481
G1 X96.750 Y119.180 E9.21995
G1 X95.790 Y119.350 E9.23728
G1 X94.800 Y119.470 E9.25501
G1 X94.160 Y119.510 E9.26641
G1 X93.650 Y119.520 E9.27548
G1 X92.830 Y119.500 E9.29006
G1 X92.190 Y119.470 E9.30145
G1 X91.690 Y119.420 E9.31038
G1 X90.710 Y119.270 E9.32801
G1 X89.750 Y119.070 E9.34544
G1 X88.810 Y118.820 E9.36274
G1 X87.860 Y118.500 E9.38056
G1 X86.560 Y117.940 E9.40572
G1 X86.110 Y117.720 E9.41463
G1 X85.490 Y117.380 E9.42720
G1 X84.340 Y116.650 E9.45141
G1 X83.800 Y116.250 E9.46336
G1 X83.140 Y115.720 E9.47841
G1 X82.340 Y115.010 E9.49742
G1 X81.980 Y114.650 E9.50647
G1 X81.270 Y113.850 E9.52549
G1 X80.740 Y113.190 E9.54054
G1 X80.340 Y112.650 E9.55248
G1 X79.870 Y111.930 E9.56777
G1 X79.270 Y110.880 E9.58927
G1 X79.050 Y110.430 E9.59817
G1 X78.540 Y109.260 E9.62086
G1 X78.360 Y108.780 E9.62998
G1 X78.130 Y108.060 E9.64342
G1 X77.920 Y107.240 E9.65846
G1 X77.710 Y106.260 E9.67628
G1 X77.570 Y105.300 E9.69353
G1 X77.480 Y104.160 E9.71386
G1 X77.470 Y103.650 E9.72293
G1 X77.470 Y88.500 E9.99226
G1 X77.600 Y87.110 E10.01708
G1 X77.960 Y85.750 E10.04209
G1 X78.550 Y84.490 E10.06682
G1 X79.350 Y83.340 E10.09173
G1 X80.296 Y82.394 E10.11550
G1 X80.120 Y83.120 F11700.000
G1 X81.270 Y82.170 F1680.000 E10.14202
G1 X82.590 Y81.470 E10.16858
G1 X84.020 Y81.040 E10.19513
G1 X85.500 Y80.890 E10.22157
G1 X101.500 Y80.890 E10.50602
G1 X103.170 Y81.080 E10.53590
G1 X104.760 Y81.620 E10.56575
G1 X107.970 Y83.140 E10.62889
G1 X109.190 Y83.870 E10.65417
G1 X110.260 Y84.820 E10.67961
G1 X111.140 Y85.950 E10.70507
G1 X111.790 Y87.230 E10.73059
G1 X112.180 Y88.600 E10.75591
G1 X112.320 Y90.020 E10.78128
G1 X112.320 Y98.400 E10.93026
G1 X112.140 Y100.050 E10.95976
G1 X111.600 Y101.630 E10.98945
G1 X107.620 Y110.130 E11.15630
G1 X107.020 Y111.290 E11.17952
G1 X106.760 Y111.720 E11.18845
G1 X106.300 Y112.420 E11.20335
G1 X105.930 Y112.930 E11.21455
G1 X105.400 Y113.580 E11.22946
G1 X104.710 Y114.350 E11.24784
G1 X103.960 Y115.070 E11.26632
G1 X103.320 Y115.620 E11.28132
G1 X102.930 Y115.930 E11.29018
G1 X102.000 Y116.580 E11.31035
G1 X101.290 Y117.020 E11.32520
G1 X100.690 Y117.340 E11.33729
G1 X99.930 Y117.710 E11.35232
G1 X99.470 Y117.910 E11.36123
G1 X98.630 Y118.230 E11.37721
G1 X97.950 Y118.450 E11.38992
G1 X97.150 Y118.660 E11.40462
G1 X96.220 Y118.860 E11.42154
G1 X95.730 Y118.940 E11.43036
G1 X94.760 Y119.050 E11.44772
G1 X94.150 Y119.090 E11.45858
G1 X93.340 Y119.100 E11.47299
G1 X92.840 Y119.090 E11.48188
G1 X91.730 Y119.000 E11.50167
G1 X90.770 Y118.860 E11.51892
G1 X90.330 Y118.770 E11.52691
G1 X89.840 Y118.660 E11.53583
G1 X88.930 Y118.410 E11.55261
G1 X88.000 Y118.100 E11.57004
G1 X87.450 Y117.880 E11.58057
G1 X86.300 Y117.340 E11.60316
G1 X85.700 Y117.020 E11.61524
G1 X84.570 Y116.300 E11.63907
G1 X84.060 Y115.930 E11.65027
G1 X83.410 Y115.400 E11.66518
G1 X82.640 Y114.710 E11.68356
G1 X82.280 Y114.350 E11.69261
G1 X81.370 Y113.320 E11.71704
G1 X81.060 Y112.930 E11.72590
G1 X80.410 Y112.000 E11.74607
G1 X79.970 Y111.290 E11.76092
G1 X79.650 Y110.690 E11.77301
G1 X79.280 Y109.930 E11.78804
G1 X79.080 Y109.470 E11.79695
G1 X78.760 Y108.630 E11.81293
G1 X78.540 Y107.950 E11.82564
G1 X78.220 Y106.660 E11.84927
G1 X78.050 Y105.690 E11.86678
G1 X77.940 Y104.770 E11.88325
G1 X77.900 Y104.150 E11.89429
G1 X77.890 Y103.640 E11.90336
G1 X77.890 Y88.500 E12.17252
G1 X78.040 Y87.020 E12.19896
G1 X78.470 Y85.590 E12.22551
G1 X79.170 Y84.270 E12.25207
G1 X80.080 Y83.168 E12.27747
G1 X80.420 Y83.420 F11700.000
G1 X81.510 Y82.520 F1680.000 E12.30260
G1 X82.750 Y81.860 E12.32757
G1 X84.100 Y81.450 E12.35266
G1 X85.500 Y81.310 E12.37767
G1 X101.500 Y81.310 E12.66211
G1 X103.080 Y81.490 E12.69038
G1 X104.580 Y82.000 E12.71855
G1 X107.790 Y83.520 E12.78169
G1 X108.950 Y84.210 E12.80569
G1 X109.960 Y85.110 E12.82974
G1 X110.780 Y86.180 E12.85370
G1 X111.400 Y87.380 E12.87771
G1 X111.770 Y88.680 E12.90174
G1 X111.900 Y90.020 E12.92568
G1 X111.900 Y98.400 E13.07466
G1 X111.730 Y99.960 E13.10255
G1 X111.220 Y101.450 E13.13055
G1 X107.190 Y110.060 E13.29955
G1 X106.970 Y110.510 E13.30846
G1 X106.400 Y111.500 E13.32877
G1 X105.950 Y112.190 E13.34341
G1 X105.600 Y112.670 E13.35397
G1 X105.090 Y113.300 E13.36838
G1 X104.410 Y114.050 E13.38638
G1 X103.680 Y114.760 E13.40449
G1 X103.060 Y115.290 E13.41899
G1 X102.190 Y115.950 E13.43840
G1 X101.770 Y116.230 E13.44737
G1 X101.070 Y116.660 E13.46198
G1 X100.510 Y116.970 E13.47336
G1 X99.770 Y117.320 E13.48791
G1 X98.960 Y117.660 E13.50353
G1 X97.840 Y118.050 E13.52461
G1 X97.360 Y118.180 E13.53345
G1 X96.150 Y118.440 E13.55545
G1 X95.220 Y118.580 E13.57217
G1 X94.720 Y118.630 E13.58111
G1 X94.140 Y118.670 E13.59144
G1 X93.350 Y118.680 E13.60549
G1 X92.850 Y118.670 E13.61438
G1 X91.770 Y118.580 E13.63365
G1 X90.840 Y118.440 E13.65036
G1 X90.430 Y118.360 E13.65779
G1 X89.540 Y118.150 E13.67405
G1 X88.620 Y117.880 E13.69109
G1 X87.620 Y117.500 E13.71011
G1 X86.480 Y116.970 E13.73246
G1 X85.490 Y116.400 E13.75277
G1 X84.800 Y115.950 E13.76741
G1 X84.320 Y115.600 E13.77798
G1 X83.690 Y115.090 E13.79239
G1 X83.310 Y114.760 E13.80133
G1 X82.580 Y114.050 E13.81944
G1 X82.230 Y113.680 E13.82849
G1 X81.700 Y113.060 E13.84299
G1 X81.040 Y112.190 E13.86241
G1 X80.760 Y111.770 E13.87138
G1 X80.330 Y111.070 E13.88598
G1 X80.020 Y110.510 E13.89736
G1 X79.800 Y110.060 E13.90627
G1 X79.330 Y108.960 E13.92753
G1 X78.940 Y107.840 E13.94862
G1 X78.810 Y107.360 E13.95746
G1 X78.630 Y106.560 E13.97204
G1 X78.460 Y105.630 E13.98884
G1 X78.360 Y104.730 E14.00494
G1 X78.320 Y104.140 E14.01545
G1 X78.310 Y103.630 E14.02452
G1 X78.310 Y88.500 E14.29350
G1 X78.450 Y87.100 E14.31851
G1 X78.860 Y85.750 E14.34360
G1 X79.520 Y84.510 E14.36857
G1 X80.380 Y83.468 E14.39258
G1 X80.710 Y83.710 F11700.000
G1 X81.740 Y82.870 F1680.000 E14.41621
G1 X82.910 Y82.250 E14.43975
G1 X84.180 Y81.860 E14.46337
G1 X85.500 Y81.730 E14.48695
G1 X101.500 Y81.730 E14.77139
G1 X102.980 Y81.890 E14.79786
G1 X104.400 Y82.380 E14.82456
G1 X107.610 Y83.900 E14.88770
G1 X108.900 Y84.700 E14.91469
G1 X109.990 Y85.780 E14.94197
G1 X110.800 Y87.070 E14.96905
G1 X111.310 Y88.500 E14.99604
G1 X111.480 Y90.020 E15.02323
G1 X111.480 Y98.400 E15.17221
G1 X111.320 Y99.870 E15.19849
G1 X110.840 Y101.270 E15.22481
G1 X106.860 Y109.770 E15.39166
G1 X106.590 Y110.320 E15.40255
G1 X106.040 Y111.280 E15.42222
G1 X105.600 Y111.960 E15.43662
G1 X105.270 Y112.410 E15.44654
G1 X104.770 Y113.030 E15.46070
G1 X104.120 Y113.760 E15.47808
G1 X103.410 Y114.440 E15.49556
G1 X102.800 Y114.960 E15.50981
G1 X101.960 Y115.600 E15.52858
G1 X101.540 Y115.880 E15.53755
G1 X100.850 Y116.300 E15.55191
G1 X100.320 Y116.590 E15.56266
G1 X99.600 Y116.940 E15.57689
G1 X99.140 Y117.140 E15.58580
G1 X98.340 Y117.450 E15.60106
G1 X97.730 Y117.640 E15.61242
G1 X96.960 Y117.850 E15.62660
G1 X96.470 Y117.960 E15.63553
G1 X95.170 Y118.170 E15.65894
G1 X94.670 Y118.220 E15.66788
G1 X93.620 Y118.260 E15.68656
G1 X92.850 Y118.250 E15.70025
G1 X92.320 Y118.220 E15.70968
G1 X91.400 Y118.110 E15.72616
G1 X90.520 Y117.960 E15.74203
G1 X90.030 Y117.850 E15.75095
G1 X89.160 Y117.610 E15.76700
G1 X88.280 Y117.310 E15.78353
G1 X87.790 Y117.120 E15.79287
G1 X86.670 Y116.590 E15.81490
G1 X86.140 Y116.300 E15.82564
G1 X85.450 Y115.880 E15.84000
G1 X85.030 Y115.600 E15.84897
G1 X84.580 Y115.270 E15.85889
G1 X83.960 Y114.770 E15.87305
G1 X83.230 Y114.120 E15.89043
