; generated by Slic3r 0.9.10b on 2013-09-27 at 14:57:28

; layer_height = 0.3
; perimeters = 3
; top_solid_layers = 3
; bottom_solid_layers = 3
; fill_density = 0.2
; perimeter_speed = 80
; infill_speed = 130
; travel_speed = 195
; nozzle_diameter = 0.4
; filament_diameter = 3
; extrusion_multiplier = 1
; perimeters extrusion width = 0.42mm
; infill extrusion width = 0.42mm
; solid infill extrusion width = 0.42mm
; top infill extrusion width = 0.42mm
; support material extrusion width = 0.42mm

G21 ; set units to millimeters
M107
M190 S60 ; wait for bed temperature to be reached
M104 S225 ; set temperature
G28 ; home all axes
G1 Z5 F5000 ; lift nozzle
M109 S225 ; wait for temperature to be reached
G90 ; use absolute coordinates
G92 E0
M82 ; use absolute distances for extrusion
G1 F1800.000 E-1.00000
G92 E0
G1 Z0.300 F11700.000
G1 X53.360 Y47.300
G1 F1800.000 E1.00000
G1 X54.300 Y46.360 F1680.000 E1.02363
G1 X55.430 Y45.660 E1.04726
G1 X56.680 Y45.220 E1.07082
G1 X58.000 Y45.070 E1.09444
G1 X82.000 Y45.070 E1.52111
G1 X83.300 Y45.210 E1.54435
G1 X84.540 Y45.640 E1.56768
G1 X134.750 Y69.460 E2.55566
G1 X135.890 Y70.160 E2.57944
G1 X136.830 Y71.110 E2.60320
G1 X137.550 Y72.230 E2.62687
G1 X137.990 Y73.490 E2.65060
G1 X138.140 Y74.820 E2.67439
G1 X138.140 Y84.870 E2.85306
G1 X138.000 Y86.170 E2.87631
G1 X137.570 Y87.410 E2.89964
G1 X136.880 Y88.530 E2.92302
G1 X86.670 Y152.660 E4.37098
G1 X85.730 Y153.610 E4.39474
G1 X84.600 Y154.330 E4.41856
G1 X83.330 Y154.780 E4.44251
G1 X82.000 Y154.930 E4.46631
G1 X58.000 Y154.930 E4.89297
G1 X56.680 Y154.780 E4.91659
G1 X55.430 Y154.340 E4.94015
G1 X54.300 Y153.640 E4.96378
G1 X53.360 Y152.700 E4.98741
G1 X52.660 Y151.570 E5.01105
G1 X52.220 Y150.320 E5.03460
G1 X52.070 Y149.000 E5.05822
G1 X52.070 Y51.000 E6.80044
G1 X52.220 Y49.680 E6.82406
G1 X52.660 Y48.430 E6.84762
G1 X53.327 Y47.353 E6.87013
G1 X53.690 Y47.560 F11700.000
G1 X54.560 Y46.690 F1680.000 E6.89201
G1 X55.610 Y46.030 E6.91406
G1 X56.770 Y45.620 E6.93593
G1 X58.000 Y45.490 E6.95792
G1 X82.000 Y45.490 E7.38458
G1 X83.210 Y45.620 E7.40622
G1 X84.360 Y46.020 E7.42786
G1 X134.570 Y69.840 E8.41584
G1 X135.630 Y70.490 E8.43795
G1 X136.510 Y71.370 E8.46007
G1 X137.170 Y72.420 E8.48212
G1 X137.580 Y73.590 E8.50416
G1 X137.720 Y74.820 E8.52617
G1 X137.720 Y84.870 E8.70483
G1 X137.590 Y86.080 E8.72647
G1 X137.190 Y87.230 E8.74811
G1 X136.550 Y88.270 E8.76982
G1 X86.340 Y152.400 E10.21778
G1 X85.470 Y153.290 E10.23991
G1 X84.410 Y153.960 E10.26220
G1 X83.240 Y154.370 E10.28424
G1 X82.000 Y154.510 E10.30642
G1 X58.000 Y154.510 E10.73309
G1 X56.770 Y154.380 E10.75508
G1 X55.610 Y153.970 E10.77695
G1 X54.560 Y153.310 E10.79900
G1 X53.690 Y152.440 E10.82087
G1 X53.030 Y151.390 E10.84292
G1 X52.620 Y150.230 E10.86479
G1 X52.490 Y149.000 E10.88678
G1 X52.490 Y51.000 E12.62900
G1 X52.620 Y49.770 E12.65099
G1 X53.030 Y48.610 E12.67287
G1 X53.657 Y47.613 E12.69380
G1 X54.020 Y47.820 F11700.000
G1 X54.820 Y47.020 F1680.000 E12.71391
G1 X55.790 Y46.410 E12.73428
G1 X56.870 Y46.030 E12.75463
G1 X58.000 Y45.910 E12.77484
G1 X82.000 Y45.910 E13.20150
G1 X83.120 Y46.030 E13.22153
G1 X84.180 Y46.400 E13.24149
G1 X134.390 Y70.220 E14.22946
G1 X135.370 Y70.820 E14.24989
G1 X136.180 Y71.630 E14.27026
G1 X136.790 Y72.600 E14.29063
G1 X137.180 Y73.680 E14.31104
G1 X137.300 Y74.820 E14.33142
G1 X137.300 Y84.870 E14.51009
G1 X137.180 Y85.990 E14.53011
G1 X136.810 Y87.050 E14.55007
G1 X136.220 Y88.010 E14.57010
G1 X86.010 Y152.140 E16.01806
G1 X85.200 Y152.960 E16.03855
G1 X84.230 Y153.580 E16.05902
G1 X83.140 Y153.960 E16.07954
G1 X82.000 Y154.090 E16.09994
G1 X58.000 Y154.090 E16.52660
G1 X56.870 Y153.970 E16.54680
G1 X55.790 Y153.590 E16.56716
G1 X54.820 Y152.980 E16.58753
G1 X54.020 Y152.180 E16.60764
G1 X53.410 Y151.210 E16.62801
G1 X53.030 Y150.130 E16.64837
G1 X52.910 Y149.000 E16.66857
G1 X52.910 Y51.000 E18.41079
G1 X53.030 Y49.870 E18.43099
G1 X53.410 Y48.790 E18.45135
G1 X53.987 Y47.873 E18.47060
G1 X54.690 Y47.690 F11700.000
G1 X55.660 Y46.950 F1680.000 E18.49229
G1 X56.790 Y46.480 E18.51405
G1 X58.000 Y46.320 E18.53575
G1 X82.000 Y46.320 E18.96241
G1 X83.030 Y46.440 E18.98085
G1 X84.000 Y46.780 E18.99912
G1 X134.210 Y70.600 E19.98710
G1 X135.310 Y71.320 E20.01047
G1 X136.160 Y72.320 E20.03380
G1 X136.700 Y73.520 E20.05720
G1 X136.890 Y74.820 E20.08055
G1 X136.890 Y84.870 E20.25922
G1 X136.630 Y86.390 E20.28663
G1 X135.890 Y87.750 E20.31416
G1 X85.680 Y151.880 E21.76212
G1 X84.660 Y152.850 E21.78714
G1 X83.390 Y153.460 E21.81219
G1 X82.000 Y153.680 E21.83721
G1 X58.000 Y153.680 E22.26387
G1 X56.790 Y153.520 E22.28557
G1 X55.660 Y153.050 E22.30733
G1 X54.690 Y152.310 E22.32902
G1 X53.950 Y151.340 E22.35071
G1 X53.480 Y150.210 E22.37246
G1 X53.320 Y149.000 E22.39416
G1 X53.320 Y51.000 E24.13638
G1 X53.480 Y49.790 E24.15808
G1 X53.950 Y48.660 E24.17984
G1 X54.652 Y47.740 E24.20041
G1 X54.990 Y47.990 F11700.000
G1 X55.870 Y47.310 F1680.000 E24.22018
G1 X56.900 Y46.890 E24.23996
G1 X58.000 Y46.740 E24.25970
G1 X82.000 Y46.740 E24.68636
G1 X82.940 Y46.850 E24.70319
G1 X83.820 Y47.150 E24.71972
G1 X134.030 Y70.970 E25.70769
G1 X135.030 Y71.630 E25.72899
G1 X135.810 Y72.540 E25.75030
G1 X136.300 Y73.640 E25.77171
G1 X136.470 Y74.820 E25.79290
G1 X136.470 Y84.870 E25.97157
G1 X136.230 Y86.260 E25.99665
G1 X135.560 Y87.490 E26.02155
G1 X85.350 Y151.620 E27.46950
G1 X84.420 Y152.500 E27.49226
G1 X83.270 Y153.060 E27.51500
G1 X82.000 Y153.260 E27.53786
G1 X58.000 Y153.260 E27.96453
G1 X56.900 Y153.110 E27.98426
G1 X55.870 Y152.690 E28.00404
G1 X54.990 Y152.010 E28.02381
G1 X54.310 Y151.130 E28.04358
G1 X53.890 Y150.100 E28.06336
G1 X53.740 Y149.000 E28.08309
G1 X53.740 Y51.000 E29.82531
G1 X53.890 Y49.900 E29.84505
G1 X54.310 Y48.870 E29.86483
G1 X54.952 Y48.040 E29.88348
G1 X55.290 Y48.290 F11700.000
G1 X56.080 Y47.680 F1680.000 E29.90122
G1 X57.010 Y47.290 E29.91915
G1 X58.000 Y47.160 E29.93690
G1 X82.000 Y47.160 E30.36357
G1 X82.840 Y47.260 E30.37861
G1 X83.640 Y47.530 E30.39362
G1 X133.850 Y71.350 E31.38160
G1 X134.750 Y71.950 E31.40083
G1 X135.450 Y72.770 E31.41999
G1 X135.900 Y73.750 E31.43916
G1 X136.050 Y74.820 E31.45837
G1 X136.050 Y84.870 E31.63704
G1 X135.840 Y86.120 E31.65957
G1 X135.230 Y87.240 E31.68224
G1 X85.020 Y151.370 E33.13020
G1 X84.180 Y152.160 E33.15070
G1 X83.140 Y152.660 E33.17122
G1 X82.000 Y152.840 E33.19173
G1 X58.000 Y152.840 E33.61840
G1 X57.010 Y152.710 E33.63615
G1 X56.080 Y152.320 E33.65408
G1 X55.290 Y151.710 E33.67182
G1 X54.680 Y150.920 E33.68957
G1 X54.290 Y149.990 E33.70750
G1 X54.160 Y149.000 E33.72525
G1 X54.160 Y51.000 E35.46747
G1 X54.290 Y50.010 E35.48522
G1 X54.680 Y49.080 E35.50315
G1 X55.252 Y48.340 E35.51978
G1 X55.230 Y48.990 F11700.000
G1 X55.990 Y48.230 F1680.000 E35.53888
G1 X56.940 Y47.750 E35.55781
G1 X58.000 Y47.580 E35.57689
G1 X82.000 Y47.580 E36.00356
G1 X82.750 Y47.660 E36.01697
G1 X83.470 Y47.910 E36.03052
G1 X133.680 Y71.730 E37.01849
G1 X134.480 Y72.260 E37.03555
G1 X135.100 Y72.990 E37.05258
G1 X135.490 Y73.870 E37.06969
G1 X135.630 Y74.820 E37.08676
G1 X135.630 Y84.870 E37.26543
G1 X135.440 Y85.980 E37.28545
G1 X134.900 Y86.980 E37.30565
G1 X84.690 Y151.110 E38.75361
G1 X83.940 Y151.810 E38.77185
G1 X83.020 Y152.260 E38.79006
G1 X82.000 Y152.420 E38.80841
G1 X58.000 Y152.420 E39.23508
G1 X56.940 Y152.250 E39.25416
G1 X55.990 Y151.770 E39.27309
G1 X55.230 Y151.010 E39.29219
G1 X54.750 Y150.060 E39.31112
G1 X54.580 Y149.000 E39.33020
G1 X54.580 Y51.000 E41.07242
G1 X54.750 Y49.940 E41.09151
G1 X55.202 Y49.046 E41.10931
G1 F1800.000 E40.10931
G92 E0
G1 X82.636 Y74.820 F11700.000
G1 F1800.000 E1.00000
G1 X132.212 Y74.820 F1260.000 E1.88135
G1 X132.212 Y75.658 E1.89625
G1 X82.636 Y75.658 E2.77760
G1 X82.636 Y76.496 E2.79249
G1 X132.212 Y76.496 E3.67385
G1 X132.212 Y77.333 E3.68874
G1 X82.636 Y77.333 E4.57010
G1 X82.636 Y78.171 E4.58499
G1 X132.212 Y78.171 E5.46634
G1 X132.212 Y79.009 E5.48124
G1 X82.636 Y79.009 E6.36259
G1 X82.636 Y79.847 E6.37748
G1 X132.212 Y79.847 E7.25884
G1 X132.212 Y80.684 E7.27373
G1 X82.636 Y80.684 E8.15509
G1 X82.636 Y81.522 E8.16998
G1 X132.212 Y81.522 E9.05133
G1 X132.212 Y82.360 E9.06623
G1 X82.636 Y82.360 E9.94758
G1 X82.636 Y83.198 E9.96247
G1 X132.212 Y83.198 E10.84383
G1 X132.212 Y84.035 E10.85872
G1 X82.636 Y84.035 E11.74008
G1 F1800.000 E10.74008
G92 E0
G1 X85.136 Y84.873 F11700.000
G1 F1800.000 E1.00000
G1 X132.212 Y84.873 F1260.000 E1.83691
G1 F1800.000 E0.83691
G92 E0
G1 X83.453 Y86.047 F11700.000
G1 F1800.000 E1.00000
G1 X83.453 Y113.953 F1680.000 E1.49610
G1 X80.953 Y113.953 E1.54054
G1 X80.953 Y147.953 E2.14499
G1 X59.047 Y147.953 E2.53442
G1 X59.047 Y52.047 E4.23941
G1 X80.953 Y52.047 E4.62884
G1 X80.953 Y86.047 E5.23329
G1 X83.390 Y86.047 E5.27662
G1 X83.872 Y85.628 F11700.000
G1 X83.872 Y114.372 F1680.000 E5.78761
G1 X81.372 Y114.372 E5.83205
G1 X81.372 Y148.372 E6.43650
G1 X58.628 Y148.372 E6.84082
G1 X58.628 Y51.628 E8.56071
G1 X81.372 Y51.628 E8.96503
G1 X81.372 Y85.628 E9.56948
G1 X83.809 Y85.628 E9.61280
G1 X84.291 Y85.209 F11700.000
G1 X84.291 Y114.791 F1680.000 E10.13869
G1 X81.791 Y114.791 E10.18314
G1 X81.791 Y148.791 E10.78758
G1 X58.209 Y148.791 E11.20680
G1 X58.209 Y51.209 E12.94158
G1 X81.791 Y51.209 E13.36080
G1 X81.791 Y85.209 E13.96524
G1 X84.228 Y85.209 E14.00857
G1 X84.081 Y85.572 F11700.000
G1 X83.149 Y86.594
G1 X82.906 Y86.351 F2100.000 E14.01468
G1 X82.313 Y86.351 E14.02525
G1 X83.149 Y87.187 E14.04630
G1 X83.149 Y87.780 E14.05687
G1 X81.720 Y86.351 E14.09286
G1 X81.126 Y86.351 E14.10342
G1 X83.149 Y88.374 E14.15436
G1 X83.149 Y88.967 E14.16492
G1 X59.351 Y65.168 E14.76416
G1 X59.351 Y65.762 E14.77472
G1 X83.149 Y89.560 E15.37395
G1 X83.149 Y90.153 E15.38452
G1 X59.351 Y66.355 E15.98375
G1 X59.351 Y66.948 E15.99432
G1 X83.149 Y90.747 E16.59355
G1 X83.149 Y91.340 E16.60412
G1 X59.351 Y67.541 E17.20335
G1 X59.351 Y68.135 E17.21391
G1 X83.149 Y91.933 E17.81315
G1 X83.149 Y92.527 E17.82371
G1 X59.351 Y68.728 E18.42295
G1 X59.351 Y69.321 E18.43351
G1 X83.149 Y93.120 E19.03275
G1 X83.149 Y93.713 E19.04331
G1 X59.351 Y69.915 E19.64255
G1 X59.351 Y70.508 E19.65311
G1 X83.149 Y94.306 E20.25234
G1 X83.149 Y94.900 E20.26291
G1 X59.351 Y71.101 E20.86214
G1 X59.351 Y71.694 E20.87271
G1 X83.149 Y95.493 E21.47194
G1 X83.149 Y96.086 E21.48250
G1 X59.351 Y72.288 E22.08174
G1 X59.351 Y72.881 E22.09230
G1 X83.149 Y96.679 E22.69154
G1 X83.149 Y97.273 E22.70210
G1 X59.351 Y73.474 E23.30134
G1 X59.351 Y74.068 E23.31190
G1 X83.149 Y97.866 E23.91114
G1 X83.149 Y98.459 E23.92170
G1 X59.351 Y74.661 E24.52094
G1 X59.351 Y75.254 E24.53150
G1 X83.149 Y99.053 E25.13073
G1 X83.149 Y99.646 E25.14130
G1 X59.351 Y75.847 E25.74053
G1 X59.351 Y76.441 E25.75110
G1 X83.149 Y100.239 E26.35033
G1 X83.149 Y100.832 E26.36089
G1 X59.351 Y77.034 E26.96013
G1 X59.351 Y77.627 E26.97069
G1 X83.149 Y101.426 E27.56993
G1 X83.149 Y102.019 E27.58049
G1 X59.351 Y78.221 E28.17973
G1 X59.351 Y78.814 E28.19029
G1 X83.149 Y102.612 E28.78953
G1 X83.149 Y103.206 E28.80009
G1 X59.351 Y79.407 E29.39932
G1 X59.351 Y80.000 E29.40989
G1 X83.149 Y103.799 E30.00912
G1 X83.149 Y104.392 E30.01969
G1 X59.351 Y80.594 E30.61892
G1 X59.351 Y81.187 E30.62949
G1 X83.149 Y104.985 E31.22872
G1 X83.149 Y105.579 E31.23928
G1 X59.351 Y81.780 E31.83852
G1 X59.351 Y82.373 E31.84908
G1 X83.149 Y106.172 E32.44832
G1 X83.149 Y106.765 E32.45888
G1 X59.351 Y82.967 E33.05812
G1 X59.351 Y83.560 E33.06868
G1 X83.149 Y107.359 E33.66792
G1 X83.149 Y107.952 E33.67848
G1 X59.351 Y84.153 E34.27771
G1 X59.351 Y84.747 E34.28828
G1 X83.149 Y108.545 E34.88751
G1 X83.149 Y109.138 E34.89808
G1 X59.351 Y85.340 E35.49731
G1 X59.351 Y85.933 E35.50787
G1 X83.149 Y109.732 E36.10711
G1 X83.149 Y110.325 E36.11767
G1 X59.351 Y86.526 E36.71691
G1 X59.351 Y87.120 E36.72747
G1 X83.149 Y110.918 E37.32671
G1 X83.149 Y111.511 E37.33727
G1 X59.351 Y87.713 E37.93651
G1 X59.351 Y88.306 E37.94707
G1 X83.149 Y112.105 E38.54631
G1 X83.149 Y112.698 E38.55687
G1 X59.351 Y88.900 E39.15610
G1 X59.351 Y89.493 E39.16667
G1 X83.149 Y113.291 E39.76590
G1 X82.914 Y113.649 E39.77353
G1 X59.351 Y90.086 E40.36684
G1 X59.351 Y90.679 E40.37740
G1 X82.321 Y113.649 E40.95577
G1 X81.727 Y113.649 E40.96634
G1 X59.351 Y91.273 E41.52977
G1 X59.351 Y91.866 E41.54033
G1 X81.134 Y113.649 E42.08883
G1 X80.649 Y113.758 E42.09767
G1 X59.351 Y92.459 E42.63396
G1 X59.351 Y93.053 E42.64452
G1 X80.649 Y114.351 E43.18081
G1 X80.649 Y114.944 E43.19137
G1 X59.351 Y93.646 E43.72766
G1 X59.351 Y94.239 E43.73822
G1 X80.649 Y115.538 E44.27451
G1 X80.649 Y116.131 E44.28507
G1 X59.351 Y94.832 E44.82136
G1 X59.351 Y95.426 E44.83192
G1 X80.649 Y116.724 E45.36821
G1 X80.649 Y117.317 E45.37877
G1 X59.351 Y96.019 E45.91506
G1 X59.351 Y96.612 E45.92562
G1 X80.649 Y117.911 E46.46191
G1 X80.649 Y118.504 E46.47247
G1 X59.351 Y97.205 E47.00876
G1 X59.351 Y97.799 E47.01932
G1 X80.649 Y119.097 E47.55561
G1 X80.649 Y119.691 E47.56617
G1 X59.351 Y98.392 E48.10246
G1 X59.351 Y98.985 E48.11302
G1 X80.649 Y120.284 E48.64930
G1 X80.649 Y120.877 E48.65987
G1 X59.351 Y99.579 E49.19615
G1 X59.351 Y100.172 E49.20672
G1 X80.649 Y121.470 E49.74300
G1 X80.649 Y122.064 E49.75357
G1 X59.351 Y100.765 E50.28985
G1 X59.351 Y101.358 E50.30042
G1 X80.649 Y122.657 E50.83670
G1 X80.649 Y123.250 E50.84727
G1 X59.351 Y101.952 E51.38355
G1 X59.351 Y102.545 E51.39412
G1 X80.649 Y123.843 E51.93040
G1 X80.649 Y124.437 E51.94097
G1 X59.351 Y103.138 E52.47725
G1 X59.351 Y103.732 E52.48782
G1 X80.649 Y125.030 E53.02410
G1 X80.649 Y125.623 E53.03467
G1 X59.351 Y104.325 E53.57095
G1 X59.351 Y104.918 E53.58152
G1 X80.649 Y126.217 E54.11780
G1 X80.649 Y126.810 E54.12837
G1 X59.351 Y105.511 E54.66465
G1 X59.351 Y106.105 E54.67522
G1 X80.649 Y127.403 E55.21150
G1 X80.649 Y127.996 E55.22207
G1 X59.351 Y106.698 E55.75835
G1 X59.351 Y107.291 E55.76891
G1 X80.649 Y128.590 E56.30520
G1 X80.649 Y129.183 E56.31576
G1 X59.351 Y107.885 E56.85205
G1 X59.351 Y108.478 E56.86261
G1 X80.649 Y129.776 E57.39890
G1 X80.649 Y130.370 E57.40946
G1 X59.351 Y109.071 E57.94575
G1 X59.351 Y109.664 E57.95631
G1 X80.649 Y130.963 E58.49260
G1 X80.649 Y131.556 E58.50316
G1 X59.351 Y110.258 E59.03945
G1 X59.351 Y110.851 E59.05001
G1 X80.649 Y132.149 E59.58630
G1 X80.649 Y132.743 E59.59686
G1 X59.351 Y111.444 E60.13315
G1 X59.351 Y112.037 E60.14371
G1 X80.649 Y133.336 E60.68000
G1 X80.649 Y133.929 E60.69056
G1 X59.351 Y112.631 E61.22685
G1 X59.351 Y113.224 E61.23741
G1 X80.649 Y134.522 E61.77370
G1 X80.649 Y135.116 E61.78426
G1 X59.351 Y113.817 E62.32055
G1 X59.351 Y114.411 E62.33111
G1 X80.649 Y135.709 E62.86740
G1 X80.649 Y136.302 E62.87796
G1 X59.351 Y115.004 E63.41425
G1 X59.351 Y115.597 E63.42481
G1 X80.649 Y136.896 E63.96110
G1 X80.649 Y137.489 E63.97166
G1 X59.351 Y116.190 E64.50795
G1 X59.351 Y116.784 E64.51851
G1 X80.649 Y138.082 E65.05480
G1 X80.649 Y138.675 E65.06536
G1 X59.351 Y117.377 E65.60165
G1 X59.351 Y117.970 E65.61221
G1 X80.649 Y139.269 E66.14850
G1 X80.649 Y139.862 E66.15906
G1 X59.351 Y118.564 E66.69535
G1 X59.351 Y119.157 E66.70591
G1 X80.649 Y140.455 E67.24220
G1 X80.649 Y141.049 E67.25276
G1 X59.351 Y119.750 E67.78905
G1 X59.351 Y120.343 E67.79961
G1 X80.649 Y141.642 E68.33590
G1 X80.649 Y142.235 E68.34646
G1 X59.351 Y120.937 E68.88275
G1 X59.351 Y121.530 E68.89331
G1 X80.649 Y142.828 E69.42960
G1 X80.649 Y143.422 E69.44016
G1 X59.351 Y122.123 E69.97645
G1 X59.351 Y122.717 E69.98701
G1 X80.649 Y144.015 E70.52329
G1 X80.649 Y144.608 E70.53386
G1 X59.351 Y123.310 E71.07014
G1 X59.351 Y123.903 E71.08071
G1 X80.649 Y145.202 E71.61699
G1 X80.649 Y145.795 E71.62756
G1 X59.351 Y124.496 E72.16384
G1 X59.351 Y125.090 E72.17441
G1 X80.649 Y146.388 E72.71069
G1 X80.649 Y146.981 E72.72126
G1 X59.351 Y125.683 E73.25754
G1 X59.351 Y126.276 E73.26811
G1 X80.649 Y147.575 E73.80439
G1 X80.131 Y147.649 E73.81372
G1 X59.351 Y126.869 E74.33695
G1 X59.351 Y127.463 E74.34751
G1 X79.537 Y147.649 E74.85580
G1 X78.944 Y147.649 E74.86636
G1 X59.351 Y128.056 E75.35971
G1 X59.351 Y128.649 E75.37028
G1 X78.351 Y147.649 E75.84869
G1 X77.757 Y147.649 E75.85925
G1 X59.351 Y129.243 E76.32272
G1 X59.351 Y129.836 E76.33328
