; generated by Slic3r 0.9.10b on 2013-09-27 at 14:58:25

; layer_height = 0.3
; perimeters = 3
; top_solid_layers = 3
; bottom_solid_layers = 3
; fill_density = 0.2
; perimeter_speed = 80
; infill_speed = 130
; travel_speed = 195
; nozzle_diameter = 0.4
; filament_diameter = 3
; extrusion_multiplier = 1
; perimeters extrusion width = 0.42mm
; infill extrusion width = 0.42mm
; solid infill extrusion width = 0.42mm
; top infill extrusion width = 0.42mm
; support material extrusion width = 0.42mm

G21 ; set units to millimeters
M107
M190 S60 ; wait for bed temperature to be reached
M104 S225 ; set temperature
G28 ; home all axes
G1 Z5 F5000 ; lift nozzle
M109 S225 ; wait for temperature to be reached
G90 ; use absolute coordinates
G92 E0
M82 ; use absolute distances for extrusion
G1 F1800.000 E-1.00000
G92 E0
G1 Z0.300 F11700.000
G1 X80.120 Y47.250
G1 F1800.000 E1.00000
G1 X81.140 Y46.160 F1680.000 E1.02654
G1 X82.380 Y45.340 E1.05297
G1 X83.770 Y44.820 E1.07935
G1 X85.250 Y44.650 E1.10584
G1 X105.250 Y44.650 E1.46139
G1 X106.500 Y44.770 E1.48372
G1 X107.690 Y45.140 E1.50587
G1 X108.790 Y45.730 E1.52806
G1 X109.760 Y46.530 E1.55041
G1 X110.550 Y47.500 E1.57265
G1 X136.260 Y86.390 E2.40146
G1 X136.840 Y87.480 E2.42341
G1 X137.190 Y88.660 E2.44529
G1 X137.310 Y89.890 E2.46726
G1 X137.310 Y110.000 E2.82477
G1 X137.040 Y111.820 E2.85748
G1 X136.260 Y113.500 E2.89041
G1 X110.550 Y152.500 E3.72084
G1 X109.760 Y153.470 E3.74308
G1 X108.800 Y154.270 E3.76530
G1 X107.700 Y154.860 E3.78749
G1 X106.500 Y155.230 E3.80981
G1 X105.250 Y155.350 E3.83214
G1 X85.250 Y155.350 E4.18769
G1 X83.790 Y155.180 E4.21382
G1 X82.400 Y154.680 E4.24008
G1 X81.170 Y153.870 E4.26627
G1 X80.160 Y152.800 E4.29243
G1 X54.160 Y117.990 E5.06484
G1 X53.470 Y116.820 E5.08898
G1 X53.040 Y115.540 E5.11299
G1 X52.900 Y114.190 E5.13712
G1 X52.900 Y86.540 E5.62867
G1 X53.040 Y85.210 E5.65245
G1 X53.450 Y83.940 E5.67617
G1 X54.120 Y82.790 E5.69983
G1 X80.083 Y47.301 E6.48156
G1 X80.460 Y47.500 F11700.000
G1 X81.410 Y46.480 F1680.000 E6.50634
G1 X82.570 Y45.710 E6.53110
G1 X83.870 Y45.230 E6.55573
G1 X85.250 Y45.070 E6.58043
G1 X105.250 Y45.070 E6.93599
G1 X106.700 Y45.250 E6.96196
G1 X108.060 Y45.780 E6.98791
G1 X109.250 Y46.620 E7.01380
G1 X110.200 Y47.730 E7.03978
G1 X135.910 Y86.620 E7.86858
G1 X136.640 Y88.180 E7.89920
G1 X136.890 Y89.890 E7.92992
G1 X136.890 Y110.000 E8.28743
G1 X136.640 Y111.700 E8.31798
G1 X135.910 Y113.270 E8.34876
G1 X110.200 Y152.270 E9.17920
G1 X109.250 Y153.380 E9.20517
G1 X108.060 Y154.220 E9.23107
G1 X106.700 Y154.750 E9.25702
G1 X105.250 Y154.930 E9.28299
G1 X85.250 Y154.930 E9.63855
G1 X83.880 Y154.770 E9.66307
G1 X82.590 Y154.300 E9.68748
G1 X81.440 Y153.550 E9.71188
G1 X80.500 Y152.550 E9.73628
G1 X54.500 Y117.740 E10.50869
G1 X53.850 Y116.650 E10.53125
G1 X53.450 Y115.450 E10.55374
G1 X53.320 Y114.190 E10.57626
G1 X53.320 Y86.540 E11.06782
G1 X53.450 Y85.300 E11.08998
G1 X53.840 Y84.120 E11.11208
G1 X54.460 Y83.040 E11.13421
G1 X80.423 Y47.551 E11.91594
G1 X80.800 Y47.740 F11700.000
G1 X81.680 Y46.800 F1680.000 E11.93884
G1 X82.760 Y46.080 E11.96191
G1 X83.970 Y45.640 E11.98480
G1 X85.250 Y45.490 E12.00771
G1 X105.250 Y45.490 E12.36327
G1 X106.600 Y45.650 E12.38743
G1 X107.860 Y46.140 E12.41147
G1 X108.970 Y46.930 E12.43569
G1 X109.850 Y47.960 E12.45977
G1 X135.560 Y86.850 E13.28858
G1 X136.240 Y88.300 E13.31705
G1 X136.470 Y89.890 E13.34561
G1 X136.470 Y110.000 E13.70312
G1 X136.240 Y111.580 E13.73150
G1 X135.560 Y113.030 E13.75998
G1 X109.850 Y152.030 E14.59041
G1 X108.970 Y153.070 E14.61463
G1 X107.860 Y153.850 E14.63875
G1 X106.600 Y154.350 E14.66285
G1 X105.250 Y154.510 E14.68702
G1 X85.250 Y154.510 E15.04257
G1 X83.980 Y154.370 E15.06529
G1 X82.780 Y153.930 E15.08801
G1 X81.710 Y153.230 E15.11074
G1 X80.830 Y152.300 E15.13350
G1 X54.830 Y117.490 E15.90591
G1 X54.230 Y116.480 E15.92680
G1 X53.860 Y115.360 E15.94777
G1 X53.740 Y114.190 E15.96867
G1 X53.740 Y86.540 E16.46023
G1 X53.860 Y85.390 E16.48079
G1 X54.220 Y84.290 E16.50136
G1 X54.800 Y83.280 E16.52207
G1 X80.763 Y47.791 E17.30380
G1 X81.140 Y47.990 F11700.000
G1 X81.950 Y47.120 F1680.000 E17.32493
G1 X82.940 Y46.460 E17.34608
G1 X84.060 Y46.050 E17.36729
G1 X85.250 Y45.910 E17.38859
G1 X105.250 Y45.910 E17.74414
G1 X106.490 Y46.060 E17.76635
G1 X107.660 Y46.510 E17.78863
G1 X108.690 Y47.240 E17.81108
G1 X109.500 Y48.190 E17.83327
G1 X135.210 Y87.080 E18.66207
G1 X135.840 Y88.420 E18.68840
G1 X136.050 Y89.890 E18.71480
G1 X136.050 Y110.000 E19.07231
G1 X135.840 Y111.460 E19.09853
G1 X135.210 Y112.800 E19.12485
G1 X109.500 Y151.800 E19.95529
G1 X108.690 Y152.760 E19.97762
G1 X107.670 Y153.490 E19.99992
G1 X106.500 Y153.940 E20.02220
G1 X105.250 Y154.090 E20.04458
G1 X85.250 Y154.090 E20.40014
G1 X84.080 Y153.960 E20.42107
G1 X82.970 Y153.550 E20.44210
G1 X81.980 Y152.910 E20.46306
G1 X81.170 Y152.050 E20.48406
G1 X55.170 Y117.240 E21.25647
G1 X54.420 Y115.800 E21.28534
G1 X54.160 Y114.190 E21.31433
G1 X54.160 Y86.540 E21.80589
G1 X54.410 Y84.960 E21.83433
G1 X55.140 Y83.530 E21.86287
G1 X81.103 Y48.041 E22.64460
G1 X81.480 Y48.240 F11700.000
G1 X82.220 Y47.440 F1680.000 E22.66397
G1 X83.130 Y46.830 E22.68345
G1 X84.160 Y46.450 E22.70297
G1 X85.250 Y46.320 E22.72248
G1 X105.250 Y46.320 E23.07804
G1 X106.390 Y46.470 E23.09848
G1 X107.460 Y46.880 E23.11885
G1 X108.400 Y47.550 E23.13937
G1 X109.150 Y48.420 E23.15979
G1 X134.860 Y87.310 E23.98859
G1 X135.440 Y88.540 E24.01277
G1 X135.640 Y89.890 E24.03703
G1 X135.640 Y110.000 E24.39454
G1 X135.440 Y111.340 E24.41863
G1 X134.860 Y112.570 E24.44280
G1 X109.150 Y151.570 E25.27324
G1 X108.410 Y152.450 E25.29368
G1 X107.470 Y153.120 E25.31420
G1 X106.390 Y153.530 E25.33474
G1 X105.250 Y153.680 E25.35518
G1 X85.250 Y153.680 E25.71073
G1 X84.170 Y153.550 E25.73007
G1 X83.150 Y153.180 E25.74936
G1 X82.250 Y152.590 E25.76849
G1 X81.500 Y151.800 E25.78786
G1 X55.500 Y116.990 E26.56027
G1 X54.810 Y115.660 E26.58691
G1 X54.570 Y114.190 E26.61339
G1 X54.570 Y86.540 E27.10494
G1 X54.810 Y85.090 E27.13107
G1 X55.480 Y83.780 E27.15723
G1 X81.443 Y48.291 E27.93896
G1 X81.810 Y48.490 F11700.000
G1 X82.760 Y47.550 F1680.000 E27.96272
G1 X83.940 Y46.950 E27.98625
G1 X85.250 Y46.740 E28.00984
G1 X105.250 Y46.740 E28.36539
G1 X106.290 Y46.870 E28.38403
G1 X107.270 Y47.250 E28.40271
G1 X108.120 Y47.860 E28.42131
G1 X108.800 Y48.650 E28.43984
G1 X134.510 Y87.540 E29.26864
G1 X135.040 Y88.660 E29.29067
G1 X135.220 Y89.890 E29.31277
G1 X135.220 Y110.000 E29.67028
G1 X135.040 Y111.220 E29.69221
G1 X134.510 Y112.340 E29.71423
G1 X108.800 Y151.340 E30.54467
G1 X108.120 Y152.140 E30.56333
G1 X107.270 Y152.750 E30.58193
G1 X106.290 Y153.130 E30.60062
G1 X105.250 Y153.260 E30.61925
G1 X85.250 Y153.260 E30.97481
G1 X83.950 Y153.050 E30.99822
G1 X82.780 Y152.470 E31.02143
G1 X81.840 Y151.550 E31.04482
G1 X55.840 Y116.740 E31.81723
G1 X55.210 Y115.530 E31.84148
G1 X54.990 Y114.190 E31.86562
G1 X54.990 Y86.540 E32.35718
G1 X55.200 Y85.220 E32.38094
G1 X55.810 Y84.030 E32.40471
G1 X81.773 Y48.541 E33.18644
G1 X82.150 Y48.730 F11700.000
G1 X83.000 Y47.890 F1680.000 E33.20769
G1 X84.070 Y47.350 E33.22899
G1 X85.250 Y47.160 E33.25024
G1 X105.250 Y47.160 E33.60580
G1 X106.490 Y47.370 E33.62816
G1 X107.600 Y47.960 E33.65050
G1 X108.450 Y48.880 E33.67277
G1 X134.160 Y87.770 E34.50157
G1 X134.640 Y88.780 E34.52145
G1 X134.800 Y89.890 E34.54139
G1 X134.800 Y110.000 E34.89890
G1 X134.640 Y111.100 E34.91866
G1 X134.160 Y112.110 E34.93854
G1 X108.450 Y151.110 E35.76898
G1 X107.600 Y152.030 E35.79125
G1 X106.490 Y152.630 E35.81368
G1 X105.250 Y152.840 E35.83604
G1 X85.250 Y152.840 E36.19159
G1 X84.080 Y152.660 E36.21264
G1 X83.020 Y152.120 E36.23378
G1 X82.180 Y151.300 E36.25465
G1 X56.180 Y116.490 E37.02706
G1 X55.610 Y115.400 E37.04893
G1 X55.410 Y114.190 E37.07073
G1 X55.410 Y86.540 E37.56229
G1 X55.600 Y85.350 E37.58371
G1 X56.150 Y84.270 E37.60526
G1 X82.113 Y48.781 E38.38699
G1 X82.490 Y48.980 F11700.000
G1 X83.250 Y48.230 F1680.000 E38.40597
G1 X84.200 Y47.750 E38.42489
G1 X85.250 Y47.580 E38.44380
G1 X105.250 Y47.580 E38.79936
G1 X106.350 Y47.760 E38.81917
G1 X107.340 Y48.290 E38.83914
G1 X108.100 Y49.110 E38.85901
G1 X133.810 Y88.000 E39.68782
G1 X134.230 Y88.910 E39.70563
G1 X134.380 Y89.890 E39.72326
G1 X134.380 Y110.000 E40.08077
G1 X134.230 Y110.980 E40.09840
G1 X133.810 Y111.880 E40.11605
G1 X108.100 Y150.880 E40.94649
G1 X107.340 Y151.700 E40.96636
G1 X106.360 Y152.240 E40.98625
G1 X105.250 Y152.420 E41.00625
G1 X85.250 Y152.420 E41.36180
G1 X84.210 Y152.260 E41.38051
G1 X83.260 Y151.780 E41.39943
G1 X82.510 Y151.050 E41.41804
G1 X56.510 Y116.240 E42.19045
G1 X56.010 Y115.270 E42.20985
G1 X55.830 Y114.190 E42.22931
G1 X55.830 Y86.540 E42.72087
G1 X56.000 Y85.480 E42.73995
G1 X56.490 Y84.520 E42.75911
G1 X82.453 Y49.031 E43.54084
G1 F1800.000 E42.54084
G92 E0
G1 X84.614 Y86.549 F11700.000
G1 F1800.000 E1.00000
G1 X59.250 Y86.549 F1260.000 E1.45092
G1 X59.250 Y87.386 E1.46581
G1 X84.614 Y87.386 E1.91673
G1 X84.614 Y88.224 E1.93162
G1 X59.250 Y88.224 E2.38254
G1 X59.250 Y89.062 E2.39743
G1 X64.054 Y89.062 E2.48284
G1 X63.256 Y89.900 E2.50342
G1 X59.250 Y89.900 E2.57463
G1 X59.250 Y90.737 E2.58952
G1 X62.988 Y90.737 E2.65597
G1 X63.037 Y91.575 E2.67089
G1 X59.250 Y91.575 E2.73822
G1 X59.250 Y92.413 E2.75311
G1 X63.460 Y92.413 E2.82797
G1 X64.867 Y93.251 F11700.000
G1 X59.250 Y93.251 F1260.000 E2.92783
G1 X59.250 Y94.089 E2.94272
G1 X84.614 Y94.089 E3.39364
G1 X84.614 Y94.926 E3.40853
G1 X59.250 Y94.926 E3.85945
G1 X59.250 Y95.764 E3.87434
G1 X84.614 Y95.764 E4.32526
G1 X84.614 Y96.602 E4.34015
G1 X59.250 Y96.602 E4.79107
G1 X59.250 Y97.440 E4.80596
G1 X84.614 Y97.440 E5.25688
G1 X84.614 Y98.277 E5.27177
G1 X59.250 Y98.277 E5.72269
G1 X59.250 Y99.115 E5.73758
G1 X84.614 Y99.115 E6.18850
G1 X84.614 Y99.953 E6.20339
G1 X59.250 Y99.953 E6.65431
G1 X59.250 Y100.791 E6.66920
G1 X84.614 Y100.791 E7.12012
G1 X84.614 Y101.628 E7.13501
G1 X59.250 Y101.628 E7.58593
G1 X59.250 Y102.466 E7.60082
G1 X84.614 Y102.466 E8.05174
G1 X84.614 Y103.304 E8.06663
G1 X59.250 Y103.304 E8.51755
G1 X59.250 Y104.142 E8.53244
G1 X84.614 Y104.142 E8.98336
G1 X84.614 Y104.979 E8.99825
G1 X59.250 Y104.979 E9.44917
G1 X59.250 Y105.817 E9.46406
G1 X84.614 Y105.817 E9.91498
G1 X84.614 Y106.655 E9.92987
G1 X59.250 Y106.655 E10.38079
G1 X59.250 Y107.493 E10.39568
G1 X63.544 Y107.493 E10.47201
G1 X63.071 Y108.330 E10.48911
G1 X59.250 Y108.330 E10.55704
G1 X59.250 Y109.168 E10.57194
G1 X62.979 Y109.168 E10.63823
G1 X63.207 Y110.006 E10.65366
G1 X59.250 Y110.006 E10.72402
G1 X59.250 Y110.844 E10.73891
G1 X63.914 Y110.844 E10.82183
G1 F1800.000 E9.82183
G92 E0
G1 X66.587 Y110.844 F11700.000
G1 F1800.000 E1.00000
G1 X75.914 Y110.844 F1260.000 E1.16581
G1 X75.207 Y110.006 E1.18530
G1 X67.293 Y110.006 E1.32600
G1 X67.521 Y109.168 E1.34144
G1 X74.979 Y109.168 E1.47402
G1 X75.071 Y108.330 E1.48901
G1 X67.426 Y108.330 E1.62491
G1 X66.962 Y107.493 E1.64194
G1 X75.544 Y107.493 E1.79450
G1 F1800.000 E0.79450
G92 E0
G1 X78.962 Y107.493 F11700.000
G1 F1800.000 E1.00000
G1 X84.614 Y107.493 F1260.000 E1.10048
G1 X84.614 Y108.330 E1.11537
G1 X79.426 Y108.330 E1.20760
G1 X79.521 Y109.168 E1.22258
G1 X84.614 Y109.168 E1.31313
G1 X84.614 Y110.006 E1.32802
G1 X79.293 Y110.006 E1.42262
G1 X78.588 Y110.844 E1.44209
G1 X84.614 Y110.844 E1.54922
G1 X84.614 Y111.681 E1.56411
G1 X59.250 Y111.681 E2.01503
G1 X59.250 Y112.519 E2.02992
G1 X84.614 Y112.519 E2.48084
G1 X84.614 Y113.357 E2.49573
G1 X59.250 Y113.357 E2.94665
G1 X59.250 Y114.195 E2.96154
G1 X84.614 Y114.195 E3.41246
G1 F1800.000 E2.41246
G92 E0
G1 X77.633 Y93.251 F11700.000
G1 F1800.000 E1.00000
G1 X84.614 Y93.251 F1260.000 E1.12411
G1 X84.614 Y92.413 E1.13900
G1 X79.040 Y92.413 E1.23811
G1 X79.463 Y91.575 E1.25479
G1 X84.614 Y91.575 E1.34637
G1 X84.614 Y90.737 E1.36127
G1 X79.512 Y90.737 E1.45197
G1 X79.245 Y89.900 E1.46760
G1 X84.614 Y89.900 E1.56306
G1 X84.614 Y89.062 E1.57795
G1 X78.446 Y89.062 E1.68761
G1 F1800.000 E0.68761
G92 E0
G1 X76.054 Y89.062 F11700.000
G1 F1800.000 E1.00000
G1 X66.446 Y89.062 F1260.000 E1.17082
G1 X67.245 Y89.900 E1.19140
G1 X75.256 Y89.900 E1.33382
G1 X74.988 Y90.737 E1.34945
G1 X67.512 Y90.737 E1.48236
G1 X67.463 Y91.575 E1.49728
G1 X75.037 Y91.575 E1.63193
G1 X75.460 Y92.413 E1.64862
G1 X67.040 Y92.413 E1.79833
G1 X65.633 Y93.251 F11700.000
G1 X76.867 Y93.251 F1260.000 E1.99805
G1 F1800.000 E0.99805
G92 E0
G1 X105.886 Y89.900 F11700.000
G1 F1800.000 E1.00000
G1 X130.962 Y89.900 F1260.000 E1.44580
G1 X130.962 Y90.737 E1.46069
G1 X105.886 Y90.737 E1.90649
G1 X105.886 Y91.575 E1.92138
G1 X130.962 Y91.575 E2.36718
G1 X130.962 Y92.413 E2.38208
G1 X105.886 Y92.413 E2.82787
G1 X105.886 Y93.251 E2.84277
G1 X130.962 Y93.251 E3.28857
G1 X130.962 Y94.089 E3.30346
G1 X105.886 Y94.089 E3.74926
G1 X105.886 Y94.926 E3.76415
G1 X130.962 Y94.926 E4.20995
G1 F1800.000 E3.20995
G92 E0
G1 X130.962 Y110.006 F11700.000
G1 F1800.000 E1.00000
G1 X105.886 Y110.006 F1260.000 E1.44580
G1 X105.886 Y109.168 E1.46069
G1 X130.962 Y109.168 E1.90649
G1 X130.962 Y108.330 E1.92138
G1 X105.886 Y108.330 E2.36718
G1 X105.886 Y107.493 E2.38208
G1 X130.962 Y107.493 E2.82787
G1 X130.962 Y106.655 E2.84277
G1 X105.886 Y106.655 E3.28857
G1 X105.886 Y105.817 E3.30346
G1 X130.962 Y105.817 E3.74926
G1 X130.962 Y104.979 E3.76415
G1 X105.886 Y104.979 E4.20995
G1 F1800.000 E3.20995
G92 E0
G1 X104.203 Y147.953 F11700.000
G1 F1800.000 E1.00000
G1 X86.297 Y147.953 F1680.000 E1.31832
G1 X86.297 Y52.047 E3.02331
G1 X104.203 Y52.047 E3.34163
G1 X104.203 Y147.890 E5.04550
G1 X104.622 Y148.372 F11700.000
G1 X85.878 Y148.372 F1680.000 E5.37872
G1 X85.878 Y51.628 E7.09860
G1 X104.622 Y51.628 E7.43182
G1 X104.622 Y148.309 E9.15058
G1 X105.041 Y148.791 F11700.000
G1 X85.459 Y148.791 F1680.000 E9.49869
G1 X85.459 Y51.209 E11.23347
G1 X105.041 Y51.209 E11.58158
G1 X105.041 Y148.728 E13.31523
G1 X104.678 Y148.581 F11700.000
G1 X86.727 Y147.649
G1 X86.601 Y147.523 F2100.000 E13.31841
G1 X86.601 Y146.930 E13.32898
G1 X87.320 Y147.649 E13.34710
G1 X87.914 Y147.649 E13.35767
G1 X86.601 Y146.336 E13.39073
G1 X86.601 Y145.743 E13.40129
G1 X88.507 Y147.649 E13.44930
G1 X89.100 Y147.649 E13.45986
G1 X86.601 Y145.150 E13.52281
G1 X86.601 Y144.556 E13.53338
G1 X89.694 Y147.649 E13.61126
G1 X90.287 Y147.649 E13.62183
G1 X86.601 Y143.963 E13.71466
G1 X86.601 Y143.370 E13.72522
G1 X90.880 Y147.649 E13.83299
G1 X91.474 Y147.649 E13.84356
G1 X86.601 Y142.776 E13.96627
G1 X86.601 Y142.183 E13.97684
G1 X92.067 Y147.649 E14.11449
G1 X92.660 Y147.649 E14.12506
G1 X86.601 Y141.590 E14.27765
G1 X86.601 Y140.996 E14.28822
G1 X93.254 Y147.649 E14.45575
G1 X93.847 Y147.649 E14.46632
G1 X86.601 Y140.403 E14.64880
G1 X86.601 Y139.810 E14.65936
G1 X94.440 Y147.649 E14.85678
G1 X95.034 Y147.649 E14.86735
G1 X86.601 Y139.216 E15.07971
G1 X86.601 Y138.623 E15.09028
G1 X95.627 Y147.649 E15.31758
G1 X96.220 Y147.649 E15.32814
G1 X86.601 Y138.030 E15.57039
G1 X86.601 Y137.436 E15.58095
G1 X96.814 Y147.649 E15.83814
G1 X97.407 Y147.649 E15.84871
G1 X86.601 Y136.843 E16.12083
G1 X86.601 Y136.249 E16.13140
G1 X98.000 Y147.649 E16.41847
G1 X98.594 Y147.649 E16.42903
G1 X86.601 Y135.656 E16.73104
G1 X86.601 Y135.063 E16.74161
G1 X99.187 Y147.649 E17.05856
G1 X99.781 Y147.649 E17.06913
G1 X86.601 Y134.469 E17.40102
G1 X86.601 Y133.876 E17.41159
G1 X100.374 Y147.649 E17.75842
G1 X100.967 Y147.649 E17.76899
G1 X86.601 Y133.283 E18.13076
G1 X86.601 Y132.689 E18.14133
G1 X101.561 Y147.649 E18.51805
G1 X102.154 Y147.649 E18.52861
G1 X86.601 Y132.096 E18.92027
G1 X86.601 Y131.503 E18.93084
G1 X102.747 Y147.649 E19.33744
G1 X103.341 Y147.649 E19.34801
G1 X86.601 Y130.909 E19.76955
G1 X86.601 Y130.316 E19.78012
G1 X103.899 Y147.615 E20.21573
G1 X103.899 Y147.021 E20.22629
G1 X86.601 Y129.723 E20.66190
G1 X86.601 Y129.129 E20.67247
G1 X103.899 Y146.428 E21.10808
G1 X103.899 Y145.835 E21.11865
G1 X86.601 Y128.536 E21.55426
G1 X86.601 Y127.943 E21.56482
G1 X103.899 Y145.241 E22.00044
G1 X103.899 Y144.648 E22.01100
G1 X86.601 Y127.349 E22.44661
G1 X86.601 Y126.756 E22.45718
G1 X103.899 Y144.055 E22.89279
