; generated by Slic3r 0.9.10b on 2013-09-26 at 18:12:57

; layer_height = 0.3
; perimeters = 3
; top_solid_layers = 3
; bottom_solid_layers = 3
; fill_density = 0.2
; perimeter_speed = 80
; infill_speed = 130
; travel_speed = 195
; nozzle_diameter = 0.4
; filament_diameter = 3
; extrusion_multiplier = 1
; perimeters extrusion width = 0.42mm
; infill extrusion width = 0.42mm
; solid infill extrusion width = 0.42mm
; top infill extrusion width = 0.42mm
; support material extrusion width = 0.42mm

G21 ; set units to millimeters
M107
M190 S60 ; wait for bed temperature to be reached
M104 S225 ; set temperature
G28 ; home all axes
G1 Z5 F5000 ; lift nozzle
M109 S225 ; wait for temperature to be reached
G90 ; use absolute coordinates
G92 E0
M82 ; use absolute distances for extrusion
G1 F1800.000 E-1.00000
G92 E0
G1 Z0.300 F11700.000
G1 X44.300 Y46.360
G1 F1800.000 E1.00000
G1 X45.430 Y45.660 F1680.000 E1.02363
G1 X46.680 Y45.220 E1.04719
G1 X48.000 Y45.070 E1.07081
G1 X142.000 Y45.070 E2.74192
G1 X143.320 Y45.220 E2.76554
G1 X144.570 Y45.660 E2.78910
G1 X145.700 Y46.360 E2.81273
G1 X146.640 Y47.300 E2.83636
G1 X147.340 Y48.430 E2.85999
G1 X147.780 Y49.680 E2.88355
G1 X147.930 Y51.000 E2.90717
G1 X147.930 Y149.000 E4.64939
G1 X147.780 Y150.320 E4.67301
G1 X147.340 Y151.570 E4.69657
G1 X146.640 Y152.700 E4.72020
G1 X145.700 Y153.640 E4.74383
G1 X144.570 Y154.340 E4.76746
G1 X143.320 Y154.780 E4.79102
G1 X142.000 Y154.930 E4.81464
G1 X48.000 Y154.930 E6.48575
G1 X46.680 Y154.780 E6.50937
G1 X45.430 Y154.340 E6.53292
G1 X44.300 Y153.640 E6.55656
G1 X43.360 Y152.700 E6.58019
G1 X42.660 Y151.570 E6.60382
G1 X42.220 Y150.320 E6.62738
G1 X42.070 Y149.000 E6.65100
G1 X42.070 Y51.000 E8.39322
G1 X42.220 Y49.680 E8.41684
G1 X42.660 Y48.430 E8.44040
G1 X43.360 Y47.300 E8.46403
G1 X44.256 Y46.404 E8.48654
G1 X44.560 Y46.690 F11700.000
G1 X45.610 Y46.030 F1680.000 E8.50859
G1 X46.770 Y45.620 E8.53046
G1 X48.000 Y45.490 E8.55245
G1 X142.000 Y45.490 E10.22356
G1 X143.230 Y45.620 E10.24555
G1 X144.390 Y46.030 E10.26742
G1 X145.440 Y46.690 E10.28947
G1 X146.310 Y47.560 E10.31134
G1 X146.970 Y48.610 E10.33339
G1 X147.380 Y49.770 E10.35526
G1 X147.510 Y51.000 E10.37725
G1 X147.510 Y149.000 E12.11948
G1 X147.380 Y150.230 E12.14146
G1 X146.970 Y151.390 E12.16334
G1 X146.310 Y152.440 E12.18538
G1 X145.440 Y153.310 E12.20726
G1 X144.390 Y153.970 E12.22931
G1 X143.230 Y154.380 E12.25118
G1 X142.000 Y154.510 E12.27317
G1 X48.000 Y154.510 E13.94428
G1 X46.770 Y154.380 E13.96627
G1 X45.610 Y153.970 E13.98814
G1 X44.560 Y153.310 E14.01019
G1 X43.690 Y152.440 E14.03206
G1 X43.030 Y151.390 E14.05411
G1 X42.620 Y150.230 E14.07598
G1 X42.490 Y149.000 E14.09797
G1 X42.490 Y51.000 E15.84019
G1 X42.620 Y49.770 E15.86218
G1 X43.030 Y48.610 E15.88405
G1 X43.690 Y47.560 E15.90610
G1 X44.516 Y46.734 E15.92686
G1 X44.820 Y47.020 F11700.000
G1 X45.790 Y46.410 F1680.000 E15.94723
G1 X46.870 Y46.030 E15.96758
G1 X48.000 Y45.910 E15.98778
G1 X142.000 Y45.910 E17.65889
G1 X143.130 Y46.030 E17.67910
G1 X144.210 Y46.410 E17.69945
G1 X145.180 Y47.020 E17.71982
G1 X145.980 Y47.820 E17.73993
G1 X146.590 Y48.790 E17.76030
G1 X146.970 Y49.870 E17.78066
G1 X147.090 Y51.000 E17.80086
G1 X147.090 Y149.000 E19.54308
G1 X146.970 Y150.130 E19.56328
G1 X146.590 Y151.210 E19.58364
G1 X145.980 Y152.180 E19.60401
G1 X145.180 Y152.980 E19.62412
G1 X144.210 Y153.590 E19.64449
G1 X143.130 Y153.970 E19.66485
G1 X142.000 Y154.090 E19.68505
G1 X48.000 Y154.090 E21.35616
G1 X46.870 Y153.970 E21.37636
G1 X45.790 Y153.590 E21.39672
G1 X44.820 Y152.980 E21.41709
G1 X44.020 Y152.180 E21.43720
G1 X43.410 Y151.210 E21.45757
G1 X43.030 Y150.130 E21.47792
G1 X42.910 Y149.000 E21.49813
G1 X42.910 Y51.000 E23.24035
G1 X43.030 Y49.870 E23.26055
G1 X43.410 Y48.790 E23.28090
G1 X44.020 Y47.820 E23.30128
G1 X44.776 Y47.064 E23.32027
G1 X44.690 Y47.690 F11700.000
G1 X45.660 Y46.950 F1680.000 E23.34196
G1 X46.790 Y46.480 E23.36372
G1 X48.000 Y46.320 E23.38542
G1 X142.000 Y46.320 E25.05653
G1 X143.210 Y46.480 E25.07823
G1 X144.340 Y46.950 E25.09998
G1 X145.310 Y47.690 E25.12167
G1 X146.050 Y48.660 E25.14336
G1 X146.520 Y49.790 E25.16512
G1 X146.680 Y51.000 E25.18682
G1 X146.680 Y149.000 E26.92904
G1 X146.520 Y150.210 E26.95074
G1 X146.050 Y151.340 E26.97250
G1 X145.310 Y152.310 E26.99419
G1 X144.340 Y153.050 E27.01588
G1 X143.210 Y153.520 E27.03763
G1 X142.000 Y153.680 E27.05933
G1 X48.000 Y153.680 E28.73044
G1 X46.790 Y153.520 E28.75214
G1 X45.660 Y153.050 E28.77390
G1 X44.690 Y152.310 E28.79559
G1 X43.950 Y151.340 E28.81728
G1 X43.480 Y150.210 E28.83903
G1 X43.320 Y149.000 E28.86073
G1 X43.320 Y51.000 E30.60296
G1 X43.480 Y49.790 E30.62465
G1 X43.950 Y48.660 E30.64641
G1 X44.652 Y47.740 E30.66698
G1 X44.990 Y47.990 F11700.000
G1 X45.870 Y47.310 F1680.000 E30.68675
G1 X46.900 Y46.890 E30.70653
G1 X48.000 Y46.740 E30.72627
G1 X142.000 Y46.740 E32.39738
G1 X143.100 Y46.890 E32.41711
G1 X144.130 Y47.310 E32.43689
G1 X145.010 Y47.990 E32.45666
G1 X145.690 Y48.870 E32.47643
G1 X146.110 Y49.900 E32.49621
G1 X146.260 Y51.000 E32.51594
G1 X146.260 Y149.000 E34.25816
G1 X146.110 Y150.100 E34.27790
G1 X145.690 Y151.130 E34.29768
G1 X145.010 Y152.010 E34.31745
G1 X144.130 Y152.690 E34.33722
G1 X143.100 Y153.110 E34.35699
G1 X142.000 Y153.260 E34.37673
G1 X48.000 Y153.260 E36.04784
G1 X46.900 Y153.110 E36.06758
G1 X45.870 Y152.690 E36.08735
G1 X44.990 Y152.010 E36.10712
G1 X44.310 Y151.130 E36.12689
G1 X43.890 Y150.100 E36.14667
G1 X43.740 Y149.000 E36.16640
G1 X43.740 Y51.000 E37.90863
G1 X43.890 Y49.900 E37.92836
G1 X44.310 Y48.870 E37.94814
G1 X44.952 Y48.040 E37.96679
G1 X45.290 Y48.290 F11700.000
G1 X46.080 Y47.680 F1680.000 E37.98454
G1 X47.010 Y47.290 E38.00246
G1 X48.000 Y47.160 E38.02022
G1 X142.000 Y47.160 E39.69133
G1 X142.990 Y47.290 E39.70908
G1 X143.920 Y47.680 E39.72701
G1 X144.710 Y48.290 E39.74475
G1 X145.320 Y49.080 E39.76249
G1 X145.710 Y50.010 E39.78042
G1 X145.840 Y51.000 E39.79817
G1 X145.840 Y149.000 E41.54040
G1 X145.710 Y149.990 E41.55815
G1 X145.320 Y150.920 E41.57608
G1 X144.710 Y151.710 E41.59382
G1 X143.920 Y152.320 E41.61156
G1 X142.990 Y152.710 E41.62949
G1 X142.000 Y152.840 E41.64724
G1 X48.000 Y152.840 E43.31835
G1 X47.010 Y152.710 E43.33610
G1 X46.080 Y152.320 E43.35403
G1 X45.290 Y151.710 E43.37178
G1 X44.680 Y150.920 E43.38952
G1 X44.290 Y149.990 E43.40745
G1 X44.160 Y149.000 E43.42520
G1 X44.160 Y51.000 E45.16742
G1 X44.290 Y50.010 E45.18517
G1 X44.680 Y49.080 E45.20310
G1 X45.252 Y48.340 E45.21973
G1 X45.230 Y48.990 F11700.000
G1 X45.990 Y48.230 F1680.000 E45.23884
G1 X46.940 Y47.750 E45.25776
G1 X48.000 Y47.580 E45.27684
G1 X142.000 Y47.580 E46.94796
G1 X143.060 Y47.750 E46.96704
G1 X144.010 Y48.230 E46.98596
G1 X144.770 Y48.990 E47.00507
G1 X145.250 Y49.940 E47.02399
G1 X145.420 Y51.000 E47.04308
G1 X145.420 Y149.000 E48.78530
G1 X145.250 Y150.060 E48.80439
G1 X144.770 Y151.010 E48.82331
G1 X144.010 Y151.770 E48.84242
G1 X143.060 Y152.250 E48.86134
G1 X142.000 Y152.420 E48.88042
G1 X48.000 Y152.420 E50.55153
G1 X46.940 Y152.250 E50.57062
G1 X45.990 Y151.770 E50.58954
G1 X45.230 Y151.010 E50.60865
G1 X44.750 Y150.060 E50.62757
G1 X44.580 Y149.000 E50.64666
G1 X44.580 Y51.000 E52.38888
G1 X44.750 Y49.940 E52.40796
G1 X45.202 Y49.046 E52.42577
G1 F1800.000 E51.42577
G92 E0
G1 X85.626 Y61.904 F11700.000
G1 F1800.000 E1.00000
G1 X85.744 Y61.591 F1365.000 E1.00593
G1 X85.892 Y61.291 E1.01188
G1 X86.066 Y61.006 E1.01782
G1 X86.267 Y60.739 E1.02377
G1 X86.492 Y60.491 E1.02971
G1 X86.826 Y60.197 E1.03763
G1 X87.099 Y60.005 E1.04356
G1 X87.389 Y59.839 E1.04950
G1 X87.798 Y59.662 E1.05743
G1 X88.118 Y59.564 E1.06336
G1 X88.445 Y59.496 E1.06931
G1 X88.777 Y59.460 E1.07525
G1 X89.111 Y59.454 E1.08119
G1 X89.445 Y59.481 E1.08713
G1 X89.773 Y59.538 E1.09306
G1 X90.096 Y59.626 E1.09901
G1 X90.408 Y59.744 E1.10495
G1 X90.709 Y59.891 E1.11089
G1 X90.994 Y60.066 E1.11684
G1 X91.330 Y60.326 E1.12440
G1 X91.586 Y60.572 E1.13070
G1 X91.803 Y60.826 E1.13664
G1 X91.995 Y61.099 E1.14258
G1 X92.161 Y61.390 E1.14853
G1 X92.298 Y61.694 E1.15447
G1 X92.406 Y62.010 E1.16041
G1 X92.485 Y62.335 E1.16635
G1 X92.540 Y62.777 E1.17426
G1 X92.546 Y63.111 E1.18021
G1 X92.519 Y63.444 E1.18615
G1 X92.462 Y63.774 E1.19210
G1 X92.374 Y64.096 E1.19803
G1 X92.256 Y64.409 E1.20398
G1 X92.109 Y64.709 E1.20991
G1 X91.934 Y64.994 E1.21586
G1 X91.733 Y65.261 E1.22180
G1 X91.494 Y65.523 E1.22811
G1 X91.174 Y65.803 E1.23567
G1 X90.901 Y65.995 E1.24160
G1 X90.610 Y66.161 E1.24754
G1 X90.202 Y66.338 E1.25546
G1 X89.882 Y66.436 E1.26140
G1 X89.555 Y66.504 E1.26734
G1 X89.223 Y66.540 E1.27328
G1 X88.889 Y66.546 E1.27922
G1 X88.555 Y66.519 E1.28517
G1 X88.226 Y66.462 E1.29111
G1 X87.904 Y66.374 E1.29705
G1 X87.591 Y66.256 E1.30299
G1 X87.291 Y66.109 E1.30893
G1 X87.006 Y65.934 E1.31488
G1 X86.739 Y65.733 E1.32082
G1 X86.478 Y65.494 E1.32712
G1 X86.197 Y65.174 E1.33468
G1 X86.005 Y64.901 E1.34062
G1 X85.839 Y64.610 E1.34657
G1 X85.702 Y64.306 E1.35251
G1 X85.594 Y63.990 E1.35844
G1 X85.516 Y63.665 E1.36438
G1 X85.468 Y63.334 E1.37033
G1 X85.453 Y63.000 E1.37627
G1 X85.468 Y62.666 E1.38221
G1 X85.516 Y62.335 E1.38816
G1 X85.608 Y61.964 E1.39496
G1 X85.996 Y62.127 F11700.000
G1 X86.091 Y61.848 F1365.000 E1.40019
G1 X86.213 Y61.580 E1.40543
G1 X86.359 Y61.324 E1.41067
G1 X86.581 Y61.017 E1.41742
G1 X86.788 Y60.788 E1.42290
G1 X87.006 Y60.590 E1.42814
G1 X87.242 Y60.413 E1.43338
G1 X87.493 Y60.258 E1.43862
G1 X87.758 Y60.129 E1.44386
G1 X88.033 Y60.025 E1.44910
G1 X88.318 Y59.947 E1.45434
G1 X88.608 Y59.896 E1.45957
G1 X88.902 Y59.873 E1.46482
G1 X89.197 Y59.878 E1.47006
G1 X89.586 Y59.927 E1.47704
G1 X89.873 Y59.996 E1.48229
G1 X90.151 Y60.091 E1.48752
G1 X90.420 Y60.213 E1.49276
G1 X90.676 Y60.359 E1.49800
G1 X90.983 Y60.581 E1.50474
G1 X91.212 Y60.788 E1.51022
G1 X91.410 Y61.006 E1.51546
G1 X91.587 Y61.241 E1.52070
G1 X91.741 Y61.493 E1.52594
G1 X91.871 Y61.757 E1.53118
G1 X92.000 Y62.114 E1.53792
G1 X92.073 Y62.414 E1.54341
G1 X92.114 Y62.705 E1.54864
G1 X92.128 Y63.000 E1.55388
G1 X92.114 Y63.295 E1.55913
G1 X92.073 Y63.586 E1.56436
G1 X92.004 Y63.873 E1.56960
G1 X91.909 Y64.152 E1.57484
G1 X91.781 Y64.432 E1.58033
G1 X91.587 Y64.759 E1.58707
G1 X91.410 Y64.994 E1.59231
G1 X91.212 Y65.212 E1.59755
G1 X90.994 Y65.410 E1.60279
G1 X90.758 Y65.587 E1.60803
G1 X90.507 Y65.742 E1.61327
G1 X90.242 Y65.871 E1.61851
G1 X89.967 Y65.975 E1.62375
G1 X89.682 Y66.053 E1.62899
G1 X89.392 Y66.104 E1.63423
G1 X89.098 Y66.127 E1.63947
G1 X88.803 Y66.122 E1.64471
G1 X88.414 Y66.073 E1.65169
G1 X88.127 Y66.004 E1.65694
G1 X87.758 Y65.871 E1.66391
G1 X87.493 Y65.742 E1.66915
G1 X87.242 Y65.587 E1.67439
G1 X87.006 Y65.410 E1.67963
G1 X86.788 Y65.212 E1.68487
G1 X86.590 Y64.994 E1.69011
G1 X86.413 Y64.758 E1.69535
G1 X86.259 Y64.507 E1.70059
G1 X86.129 Y64.242 E1.70583
G1 X86.025 Y63.967 E1.71107
G1 X85.947 Y63.682 E1.71631
G1 X85.896 Y63.392 E1.72155
G1 X85.873 Y63.098 E1.72679
G1 X85.878 Y62.804 E1.73203
G1 X85.910 Y62.511 E1.73727
G1 X85.979 Y62.188 E1.74314
G1 X86.376 Y62.326 F11700.000
G1 X86.481 Y62.003 F1365.000 E1.74919
G1 X86.586 Y61.770 E1.75373
G1 X86.859 Y61.339 E1.76280
G1 X87.208 Y60.968 E1.77186
G1 X87.621 Y60.668 E1.78093
G1 X88.082 Y60.451 E1.79000
G1 X88.326 Y60.376 E1.79453
G1 X88.660 Y60.312 E1.80058
G1 X89.170 Y60.296 E1.80965
G1 X89.674 Y60.376 E1.81872
G1 X90.154 Y60.548 E1.82778
G1 X90.379 Y60.668 E1.83232
G1 X90.661 Y60.859 E1.83837
G1 X91.032 Y61.208 E1.84744
G1 X91.332 Y61.621 E1.85650
G1 X91.549 Y62.082 E1.86557
G1 X91.676 Y62.576 E1.87463
G1 X91.704 Y62.830 E1.87917
G1 X91.704 Y63.170 E1.88522
G1 X91.624 Y63.674 E1.89429
G1 X91.519 Y63.997 E1.90034
G1 X91.414 Y64.230 E1.90487
G1 X91.141 Y64.661 E1.91394
G1 X90.792 Y65.032 E1.92301
G1 X90.379 Y65.332 E1.93207
G1 X89.918 Y65.549 E1.94114
G1 X89.674 Y65.624 E1.94568
G1 X89.340 Y65.688 E1.95173
G1 X88.830 Y65.704 E1.96079
G1 X88.326 Y65.624 E1.96986
G1 X87.846 Y65.452 E1.97892
G1 X87.621 Y65.332 E1.98346
G1 X87.339 Y65.141 E1.98951
G1 X86.968 Y64.792 E1.99858
G1 X86.668 Y64.379 E2.00764
G1 X86.451 Y63.918 E2.01671
G1 X86.324 Y63.424 E2.02578
G1 X86.292 Y62.915 E2.03484
G1 X86.312 Y62.660 E2.03938
G1 X86.361 Y62.387 E2.04431
G1 X86.705 Y62.242 F11700.000
G1 F1800.000 E1.04431
G92 E0
G1 X97.460 Y62.777 F11700.000
G1 F1800.000 E1.00000
G1 X97.496 Y62.445 F1365.000 E1.00594
G1 X97.588 Y62.030 E1.01351
G1 X97.702 Y61.694 E1.01980
G1 X97.839 Y61.390 E1.02574
G1 X98.005 Y61.099 E1.03169
G1 X98.197 Y60.826 E1.03762
G1 X98.414 Y60.572 E1.04357
G1 X98.654 Y60.339 E1.04951
G1 X98.915 Y60.130 E1.05545
G1 X99.194 Y59.947 E1.06139
G1 X99.490 Y59.790 E1.06733
G1 X99.798 Y59.662 E1.07328
G1 X100.117 Y59.564 E1.07921
G1 X100.555 Y59.481 E1.08714
G1 X100.889 Y59.454 E1.09308
G1 X101.223 Y59.460 E1.09903
G1 X101.555 Y59.496 E1.10497
G1 X101.882 Y59.564 E1.11091
G1 X102.202 Y59.662 E1.11684
G1 X102.511 Y59.790 E1.12279
G1 X102.806 Y59.947 E1.12873
G1 X103.174 Y60.197 E1.13663
G1 X103.428 Y60.414 E1.14259
G1 X103.661 Y60.654 E1.14853
G1 X103.870 Y60.915 E1.15447
G1 X104.098 Y61.273 E1.16203
G1 X104.256 Y61.591 E1.16833
G1 X104.374 Y61.904 E1.17427
G1 X104.462 Y62.226 E1.18020
G1 X104.519 Y62.556 E1.18616
G1 X104.546 Y62.889 E1.19210
G1 X104.540 Y63.223 E1.19805
G1 X104.485 Y63.665 E1.20596
G1 X104.406 Y63.990 E1.21190
G1 X104.298 Y64.306 E1.21784
G1 X104.161 Y64.610 E1.22378
G1 X103.995 Y64.901 E1.22972
G1 X103.803 Y65.174 E1.23566
G1 X103.586 Y65.428 E1.24161
G1 X103.346 Y65.661 E1.24754
G1 X103.085 Y65.870 E1.25349
G1 X102.806 Y66.053 E1.25943
G1 X102.511 Y66.210 E1.26537
G1 X102.202 Y66.338 E1.27131
G1 X101.882 Y66.436 E1.27725
G1 X101.445 Y66.519 E1.28518
G1 X101.111 Y66.546 E1.29112
G1 X100.777 Y66.540 E1.29706
G1 X100.445 Y66.504 E1.30300
G1 X100.117 Y66.436 E1.30895
G1 X99.798 Y66.338 E1.31488
G1 X99.490 Y66.210 E1.32082
G1 X99.194 Y66.053 E1.32677
G1 X98.826 Y65.803 E1.33468
G1 X98.572 Y65.586 E1.34062
G1 X98.339 Y65.346 E1.34656
G1 X98.130 Y65.085 E1.35251
G1 X97.947 Y64.806 E1.35845
G1 X97.790 Y64.510 E1.36439
G1 X97.662 Y64.201 E1.37034
G1 X97.564 Y63.882 E1.37628
G1 X97.496 Y63.555 E1.38222
G1 X97.460 Y63.223 E1.38816
G1 X97.457 Y62.840 E1.39496
G1 X97.873 Y62.902 F11700.000
G1 X97.896 Y62.608 F1365.000 E1.40020
G1 X97.947 Y62.318 E1.40544
G1 X98.025 Y62.033 E1.41068
G1 X98.129 Y61.758 E1.41592
G1 X98.259 Y61.493 E1.42116
G1 X98.469 Y61.161 E1.42814
G1 X98.653 Y60.931 E1.43339
G1 X98.859 Y60.719 E1.43863
G1 X99.083 Y60.528 E1.44386
G1 X99.407 Y60.307 E1.45084
G1 X99.668 Y60.169 E1.45608
G1 X99.940 Y60.057 E1.46133
G1 X100.222 Y59.970 E1.46656
G1 X100.511 Y59.910 E1.47180
G1 X100.803 Y59.878 E1.47704
G1 X101.098 Y59.873 E1.48228
G1 X101.392 Y59.896 E1.48752
G1 X101.778 Y59.970 E1.49451
G1 X102.060 Y60.057 E1.49975
G1 X102.332 Y60.169 E1.50499
G1 X102.593 Y60.307 E1.51023
G1 X102.839 Y60.469 E1.51547
G1 X103.069 Y60.653 E1.52071
G1 X103.281 Y60.858 E1.52595
G1 X103.472 Y61.083 E1.53119
G1 X103.641 Y61.324 E1.53643
G1 X103.787 Y61.580 E1.54167
G1 X103.909 Y61.848 E1.54691
G1 X104.004 Y62.127 E1.55215
G1 X104.073 Y62.414 E1.55739
G1 X104.122 Y62.803 E1.56436
G1 X104.127 Y63.098 E1.56961
G1 X104.104 Y63.392 E1.57485
G1 X104.053 Y63.683 E1.58010
G1 X103.975 Y63.967 E1.58533
G1 X103.871 Y64.243 E1.59057
G1 X103.735 Y64.519 E1.59605
G1 X103.531 Y64.839 E1.60279
G1 X103.347 Y65.069 E1.60803
G1 X103.142 Y65.280 E1.61327
G1 X102.917 Y65.472 E1.61852
G1 X102.593 Y65.693 E1.62549
G1 X102.332 Y65.831 E1.63073
G1 X102.060 Y65.943 E1.63598
G1 X101.778 Y66.030 E1.64121
G1 X101.490 Y66.090 E1.64645
G1 X101.197 Y66.122 E1.65169
G1 X100.902 Y66.127 E1.65693
G1 X100.608 Y66.104 E1.66218
G1 X100.222 Y66.030 E1.66916
G1 X99.940 Y65.943 E1.67440
G1 X99.668 Y65.831 E1.67964
G1 X99.407 Y65.693 E1.68488
G1 X99.161 Y65.531 E1.69012
G1 X98.931 Y65.347 E1.69536
G1 X98.719 Y65.142 E1.70060
G1 X98.528 Y64.917 E1.70584
G1 X98.359 Y64.676 E1.71108
G1 X98.213 Y64.420 E1.71632
G1 X98.091 Y64.152 E1.72156
G1 X97.996 Y63.873 E1.72679
G1 X97.927 Y63.586 E1.73203
G1 X97.885 Y63.294 E1.73728
G1 X97.872 Y62.964 E1.74315
G1 X98.291 Y63.000 F11700.000
G1 X98.339 Y62.492 F1365.000 E1.75221
