; generated by Slic3r 0.9.10b on 2013-09-26 at 18:13:08

; layer_height = 0.3
; perimeters = 3
; top_solid_layers = 3
; bottom_solid_layers = 3
; fill_density = 0.2
; perimeter_speed = 80
; infill_speed = 130
; travel_speed = 195
; nozzle_diameter = 0.4
; filament_diameter = 3
; extrusion_multiplier = 1
; perimeters extrusion width = 0.42mm
; infill extrusion width = 0.42mm
; solid infill extrusion width = 0.42mm
; top infill extrusion width = 0.42mm
; support material extrusion width = 0.42mm

G21 ; set units to millimeters
M107
M190 S60 ; wait for bed temperature to be reached
M104 S225 ; set temperature
G28 ; home all axes
G1 Z5 F5000 ; lift nozzle
M109 S225 ; wait for temperature to be reached
G90 ; use absolute coordinates
G92 E0
M82 ; use absolute distances for extrusion
G1 F1800.000 E-1.00000
G92 E0
G1 Z0.300 F11700.000
G1 X43.970 Y60.720
G1 F1800.000 E1.00000
G1 X45.070 Y60.130 F1680.000 E1.02219
G1 X46.260 Y59.770 E1.04429
G1 X47.500 Y59.650 E1.06644
G1 X95.640 Y59.650 E1.92226
G1 X142.640 Y60.700 E2.75803
G1 X144.030 Y60.890 E2.78297
G1 X145.350 Y61.370 E2.80794
G1 X146.520 Y62.140 E2.83284
G1 X147.500 Y63.140 E2.85773
G1 X148.240 Y64.330 E2.88264
G1 X148.700 Y65.660 E2.90766
G1 X148.850 Y67.050 E2.93252
G1 X148.850 Y113.250 E3.75385
G1 X148.720 Y114.530 E3.77672
G1 X148.340 Y115.750 E3.79944
G1 X147.710 Y116.880 E3.82244
G1 X146.880 Y117.850 E3.84513
G1 X145.860 Y118.640 E3.86807
G1 X144.710 Y119.210 E3.89089
G1 X88.710 Y139.960 E4.95259
G1 X87.620 Y140.250 E4.97264
G1 X86.500 Y140.350 E4.99263
G1 X56.500 Y140.350 E5.52596
G1 X55.050 Y140.180 E5.55192
G1 X53.690 Y139.690 E5.57762
G1 X52.460 Y138.900 E5.60361
G1 X51.450 Y137.860 E5.62938
G1 X50.710 Y136.610 E5.65520
G1 X41.710 Y116.610 E6.04510
G1 X41.290 Y115.330 E6.06905
G1 X41.150 Y114.000 E6.09283
G1 X41.150 Y66.000 E6.94616
G1 X41.270 Y64.760 E6.96831
G1 X41.630 Y63.570 E6.99041
G1 X42.220 Y62.470 E7.01260
G1 X43.010 Y61.510 E7.03470
G1 X43.921 Y60.760 E7.05569
G1 X43.800 Y61.360 F11700.000
G1 X44.930 Y60.660 F1680.000 E7.07932
G1 X46.180 Y60.220 E7.10288
G1 X47.500 Y60.070 E7.12649
G1 X95.630 Y60.070 E7.98214
G1 X142.630 Y61.120 E8.81790
G1 X143.930 Y61.290 E8.84121
G1 X145.160 Y61.750 E8.86456
G1 X146.260 Y62.460 E8.88783
G1 X147.170 Y63.400 E8.91109
G1 X147.860 Y64.510 E8.93433
G1 X148.290 Y65.750 E8.95766
G1 X148.430 Y67.050 E8.98090
G1 X148.430 Y113.250 E9.80224
G1 X148.310 Y114.440 E9.82350
G1 X147.950 Y115.590 E9.84492
G1 X147.370 Y116.640 E9.86625
G1 X146.590 Y117.550 E9.88756
G1 X145.640 Y118.280 E9.90885
G1 X144.560 Y118.810 E9.93024
G1 X88.560 Y139.560 E10.99194
G1 X87.550 Y139.840 E11.01058
G1 X86.500 Y139.930 E11.02931
G1 X56.500 Y139.930 E11.56264
G1 X55.150 Y139.780 E11.58679
G1 X53.870 Y139.320 E11.61097
G1 X52.730 Y138.580 E11.63513
G1 X51.790 Y137.600 E11.65928
G1 X51.090 Y136.430 E11.68351
G1 X42.090 Y116.430 E12.07341
G1 X41.700 Y115.240 E12.09567
G1 X41.570 Y114.000 E12.11784
G1 X41.570 Y66.000 E12.97117
G1 X41.720 Y64.680 E12.99479
G1 X42.160 Y63.430 E13.01835
G1 X42.860 Y62.300 E13.04198
G1 X43.756 Y61.404 E13.06450
G1 X44.060 Y61.690 F11700.000
G1 X45.110 Y61.030 F1680.000 E13.08654
G1 X46.270 Y60.620 E13.10842
G1 X47.500 Y60.490 E13.13041
G1 X95.620 Y60.490 E13.98587
G1 X142.620 Y61.540 E14.82164
G1 X143.830 Y61.700 E14.84333
G1 X144.970 Y62.120 E14.86493
G1 X145.990 Y62.780 E14.88653
G1 X146.840 Y63.650 E14.90815
G1 X147.480 Y64.690 E14.92986
G1 X147.880 Y65.840 E14.95151
G1 X148.010 Y67.050 E14.97314
G1 X148.010 Y113.250 E15.79448
G1 X147.850 Y114.580 E15.81829
G1 X147.370 Y115.830 E15.84210
G1 X146.610 Y116.920 E15.86572
G1 X145.600 Y117.810 E15.88965
G1 X144.420 Y118.420 E15.91327
G1 X88.420 Y139.170 E16.97497
G1 X87.470 Y139.430 E16.99248
G1 X86.500 Y139.510 E17.00978
G1 X56.500 Y139.510 E17.54311
G1 X55.250 Y139.370 E17.56548
G1 X54.060 Y138.940 E17.58797
G1 X53.000 Y138.260 E17.61036
G1 X52.120 Y137.350 E17.63286
G1 X51.470 Y136.260 E17.65543
G1 X42.470 Y116.260 E18.04532
G1 X42.110 Y115.160 E18.06590
G1 X41.990 Y114.000 E18.08663
G1 X41.990 Y66.000 E18.93996
G1 X42.120 Y64.770 E18.96195
G1 X42.530 Y63.610 E18.98383
G1 X43.190 Y62.560 E19.00587
G1 X44.016 Y61.734 E19.02663
G1 X44.320 Y62.020 F11700.000
G1 X45.290 Y61.410 F1680.000 E19.04700
G1 X46.370 Y61.030 E19.06735
G1 X47.500 Y60.910 E19.08756
G1 X95.610 Y60.910 E19.94285
G1 X142.610 Y61.960 E20.77861
G1 X143.730 Y62.110 E20.79870
G1 X144.780 Y62.500 E20.81861
G1 X145.730 Y63.110 E20.83868
G1 X146.510 Y63.910 E20.85855
G1 X147.100 Y64.870 E20.87858
G1 X147.470 Y65.930 E20.89854
G1 X147.590 Y67.050 E20.91856
G1 X147.590 Y113.250 E21.73990
G1 X147.440 Y114.480 E21.76192
G1 X147.000 Y115.630 E21.78381
G1 X146.300 Y116.650 E21.80581
G1 X145.370 Y117.460 E21.82773
G1 X144.270 Y118.030 E21.84976
G1 X88.270 Y138.780 E22.91146
G1 X87.400 Y139.010 E22.92746
G1 X86.500 Y139.090 E22.94352
G1 X56.500 Y139.090 E23.47685
G1 X55.340 Y138.960 E23.49760
G1 X54.240 Y138.570 E23.51835
G1 X53.260 Y137.930 E23.53916
G1 X52.450 Y137.090 E23.55991
G1 X51.850 Y136.090 E23.58064
G1 X42.850 Y116.090 E23.97054
G1 X42.520 Y115.070 E23.98959
G1 X42.410 Y114.000 E24.00872
G1 X42.410 Y66.000 E24.86205
G1 X42.530 Y64.870 E24.88225
G1 X42.910 Y63.790 E24.90261
G1 X43.520 Y62.820 E24.92298
G1 X44.276 Y62.064 E24.94197
G1 X44.190 Y62.690 F11700.000
G1 X45.160 Y61.950 F1680.000 E24.96366
G1 X46.290 Y61.480 E24.98542
G1 X47.500 Y61.320 E25.00712
G1 X95.500 Y61.320 E25.86045
G1 X142.600 Y62.380 E26.69800
G1 X143.790 Y62.560 E26.71939
G1 X144.900 Y63.040 E26.74089
G1 X145.840 Y63.780 E26.76216
G1 X146.570 Y64.740 E26.78360
G1 X147.020 Y65.860 E26.80506
G1 X147.180 Y67.050 E26.82640
G1 X147.180 Y113.250 E27.64774
G1 X147.040 Y114.380 E27.66798
G1 X146.630 Y115.440 E27.68819
G1 X145.990 Y116.370 E27.70826
G1 X145.130 Y117.110 E27.72843
G1 X144.120 Y117.630 E27.74862
G1 X88.120 Y138.380 E28.81032
G1 X87.330 Y138.600 E28.82490
G1 X86.500 Y138.680 E28.83972
G1 X56.500 Y138.680 E29.37306
G1 X55.440 Y138.550 E29.39204
G1 X54.430 Y138.190 E29.41111
G1 X53.530 Y137.610 E29.43014
G1 X52.780 Y136.840 E29.44925
G1 X52.240 Y135.920 E29.46821
G1 X43.240 Y115.920 E29.85811
G1 X42.930 Y114.980 E29.87571
G1 X42.820 Y114.000 E29.89324
G1 X42.820 Y66.000 E30.74657
G1 X42.980 Y64.790 E30.76827
G1 X43.450 Y63.660 E30.79003
G1 X44.152 Y62.740 E30.81060
G1 X44.490 Y62.990 F11700.000
G1 X45.370 Y62.310 F1680.000 E30.83037
G1 X46.400 Y61.890 E30.85015
G1 X47.500 Y61.740 E30.86988
G1 X95.600 Y61.740 E31.72500
G1 X142.600 Y62.790 E32.56076
G1 X143.680 Y62.960 E32.58020
G1 X144.680 Y63.400 E32.59962
G1 X145.540 Y64.070 E32.61900
G1 X146.200 Y64.950 E32.63855
G1 X146.620 Y65.960 E32.65800
G1 X146.760 Y67.050 E32.67754
G1 X146.760 Y113.250 E33.49887
G1 X146.630 Y114.270 E33.51715
G1 X146.260 Y115.240 E33.53561
G1 X145.670 Y116.090 E33.55400
G1 X144.900 Y116.770 E33.57226
G1 X143.980 Y117.240 E33.59063
G1 X87.980 Y137.990 E34.65233
G1 X87.250 Y138.190 E34.66579
G1 X86.500 Y138.260 E34.67918
G1 X56.500 Y138.260 E35.21251
G1 X55.300 Y138.080 E35.23409
G1 X54.190 Y137.570 E35.25580
G1 X53.270 Y136.770 E35.27748
G1 X52.620 Y135.750 E35.29898
G1 X43.620 Y115.750 E35.68888
G1 X43.340 Y114.890 E35.70495
G1 X43.240 Y114.000 E35.72088
G1 X43.240 Y66.000 E36.57421
G1 X43.390 Y64.900 E36.59395
G1 X43.810 Y63.870 E36.61372
G1 X44.452 Y63.040 E36.63237
G1 X44.790 Y63.290 F11700.000
G1 X45.580 Y62.680 F1680.000 E36.65012
G1 X46.510 Y62.290 E36.66805
G1 X47.500 Y62.160 E36.68580
G1 X95.590 Y62.160 E37.54073
G1 X142.590 Y63.210 E38.37650
G1 X143.560 Y63.360 E38.39395
G1 X144.470 Y63.760 E38.41162
G1 X145.240 Y64.370 E38.42908
G1 X145.840 Y65.160 E38.44672
G1 X146.210 Y66.070 E38.46418
G1 X146.340 Y67.050 E38.48176
G1 X146.340 Y113.250 E39.30309
G1 X146.160 Y114.400 E39.32378
G1 X145.650 Y115.440 E39.34437
G1 X144.850 Y116.280 E39.36500
G1 X143.830 Y116.850 E39.38577
G1 X87.830 Y137.600 E40.44747
G1 X87.180 Y137.780 E40.45946
G1 X86.500 Y137.840 E40.47160
G1 X56.500 Y137.840 E41.00493
G1 X55.410 Y137.680 E41.02452
G1 X54.420 Y137.220 E41.04392
G1 X53.590 Y136.500 E41.06346
G1 X53.000 Y135.570 E41.08304
G1 X44.000 Y115.570 E41.47293
G1 X43.750 Y114.810 E41.48716
G1 X43.660 Y114.000 E41.50165
G1 X43.660 Y66.000 E42.35498
G1 X43.790 Y65.010 E42.37273
G1 X44.180 Y64.080 E42.39066
G1 X44.752 Y63.340 E42.40728
G1 X44.730 Y63.990 F11700.000
G1 X45.490 Y63.230 F1680.000 E42.42639
G1 X46.440 Y62.750 E42.44531
G1 X47.500 Y62.580 E42.46440
G1 X95.580 Y62.580 E43.31916
G1 X142.580 Y63.630 E44.15492
G1 X143.610 Y63.820 E44.17354
G1 X144.550 Y64.310 E44.19239
G1 X145.280 Y65.070 E44.21112
G1 X145.760 Y66.010 E44.22988
G1 X145.920 Y67.050 E44.24859
G1 X145.920 Y113.250 E45.06992
G1 X145.760 Y114.270 E45.08828
G1 X145.310 Y115.200 E45.10665
G1 X144.590 Y115.950 E45.12513
G1 X143.690 Y116.460 E45.14352
G1 X87.690 Y137.210 E46.20522
G1 X87.100 Y137.370 E46.21609
G1 X86.500 Y137.420 E46.22679
G1 X56.500 Y137.420 E46.76012
G1 X55.530 Y137.280 E46.77755
G1 X54.640 Y136.870 E46.79497
G1 X53.910 Y136.230 E46.81223
G1 X53.380 Y135.400 E46.82973
G1 X44.380 Y115.400 E47.21963
G1 X44.160 Y114.720 E47.23234
G1 X44.080 Y114.000 E47.24522
G1 X44.080 Y66.000 E48.09855
G1 X44.250 Y64.940 E48.11763
G1 X44.702 Y64.046 E48.13544
G1 F1800.000 E47.13544
G92 E0
G1 X130.514 Y102.580 F11700.000
G1 F1800.000 E1.00000
G1 X130.680 Y102.278 F1365.000 E1.00613
G1 X130.883 Y101.998 E1.01227
G1 X131.249 Y101.633 E1.02146
G1 X131.677 Y101.342 E1.03067
G1 X132.151 Y101.137 E1.03985
G1 X132.656 Y101.024 E1.04906
G1 X133.172 Y101.008 E1.05823
G1 X133.683 Y101.089 E1.06743
G1 X134.170 Y101.264 E1.07662
G1 X134.472 Y101.430 E1.08276
G1 X134.751 Y101.633 E1.08889
G1 X135.117 Y101.999 E1.09809
G1 X135.407 Y102.426 E1.10727
G1 X135.613 Y102.901 E1.11648
G1 X135.726 Y103.405 E1.12566
G1 X135.742 Y103.922 E1.13486
G1 X135.661 Y104.433 E1.14405
G1 X135.486 Y104.920 E1.15325
G1 X135.320 Y105.222 E1.15938
G1 X135.117 Y105.501 E1.16552
G1 X134.751 Y105.867 E1.17472
G1 X134.324 Y106.158 E1.18391
G1 X133.849 Y106.363 E1.19310
G1 X133.344 Y106.476 E1.20231
G1 X132.828 Y106.492 E1.21149
G1 X132.317 Y106.411 E1.22069
G1 X131.830 Y106.236 E1.22988
G1 X131.385 Y105.973 E1.23907
G1 X130.997 Y105.631 E1.24826
G1 X130.680 Y105.222 E1.25747
G1 X130.445 Y104.762 E1.26665
G1 X130.301 Y104.266 E1.27583
G1 X130.252 Y103.750 E1.28504
G1 X130.301 Y103.234 E1.29425
G1 X130.387 Y102.901 E1.30038
G1 X130.489 Y102.638 E1.30539
G1 X130.893 Y102.758 F11700.000
G1 X131.034 Y102.502 F1365.000 E1.31059
G1 X131.206 Y102.266 E1.31579
G1 X131.516 Y101.956 E1.32358
G1 X131.879 Y101.709 E1.33138
G1 X132.280 Y101.535 E1.33917
G1 X132.709 Y101.440 E1.34696
G1 X133.146 Y101.426 E1.35475
G1 X133.579 Y101.495 E1.36254
G1 X133.991 Y101.643 E1.37033
G1 X134.248 Y101.784 E1.37553
G1 X134.484 Y101.956 E1.38073
G1 X134.794 Y102.266 E1.38852
G1 X135.040 Y102.628 E1.39630
G1 X135.215 Y103.030 E1.40410
G1 X135.310 Y103.458 E1.41189
G1 X135.324 Y103.896 E1.41969
G1 X135.256 Y104.329 E1.42748
G1 X135.107 Y104.741 E1.43527
G1 X134.966 Y104.998 E1.44047
G1 X134.794 Y105.234 E1.44567
G1 X134.484 Y105.544 E1.45346
G1 X134.122 Y105.791 E1.46125
G1 X133.720 Y105.965 E1.46904
G1 X133.292 Y106.060 E1.47684
G1 X132.854 Y106.074 E1.48463
G1 X132.421 Y106.005 E1.49242
G1 X132.009 Y105.857 E1.50021
G1 X131.631 Y105.634 E1.50800
G1 X131.303 Y105.344 E1.51579
G1 X131.034 Y104.998 E1.52359
G1 X130.835 Y104.607 E1.53137
G1 X130.713 Y104.187 E1.53916
G1 X130.671 Y103.750 E1.54696
G1 X130.713 Y103.313 E1.55476
G1 X130.785 Y103.030 E1.55996
G1 X130.868 Y102.816 E1.56404
G1 X131.272 Y102.937 F11700.000
G1 X131.388 Y102.727 F1365.000 E1.56830
G1 X131.529 Y102.533 E1.57256
G1 X131.783 Y102.279 E1.57895
G1 X132.080 Y102.077 E1.58534
G1 X132.410 Y101.934 E1.59173
G1 X132.761 Y101.855 E1.59812
G1 X133.120 Y101.844 E1.60451
G1 X133.475 Y101.900 E1.61090
G1 X133.813 Y102.022 E1.61729
G1 X134.023 Y102.138 E1.62155
G1 X134.217 Y102.279 E1.62581
G1 X134.471 Y102.533 E1.63220
G1 X134.673 Y102.830 E1.63859
G1 X134.816 Y103.160 E1.64498
G1 X134.894 Y103.511 E1.65137
G1 X134.906 Y103.870 E1.65776
G1 X134.850 Y104.225 E1.66415
G1 X134.728 Y104.563 E1.67054
G1 X134.612 Y104.773 E1.67480
G1 X134.471 Y104.967 E1.67907
G1 X134.217 Y105.221 E1.68546
G1 X133.920 Y105.423 E1.69185
G1 X133.590 Y105.566 E1.69824
G1 X133.239 Y105.645 E1.70463
G1 X132.880 Y105.656 E1.71101
G1 X132.525 Y105.600 E1.71740
G1 X132.187 Y105.478 E1.72379
G1 X131.878 Y105.295 E1.73018
G1 X131.608 Y105.057 E1.73657
G1 X131.388 Y104.773 E1.74296
G1 X131.225 Y104.453 E1.74935
G1 X131.124 Y104.108 E1.75574
G1 X131.090 Y103.750 E1.76213
G1 X131.124 Y103.392 E1.76852
G1 X131.247 Y102.995 E1.77592
G1 X131.511 Y102.917 F11700.000
G1 X132.854 Y75.074
G1 X132.421 Y75.006 F1365.000 E1.78371
G1 X132.009 Y74.857 E1.79150
G1 X131.752 Y74.716 E1.79671
G1 X131.516 Y74.544 E1.80190
G1 X131.206 Y74.235 E1.80969
G1 X130.959 Y73.872 E1.81749
G1 X130.785 Y73.470 E1.82527
G1 X130.690 Y73.042 E1.83307
G1 X130.676 Y72.604 E1.84086
G1 X130.751 Y72.149 E1.84906
G1 X130.835 Y71.892 E1.85385
G1 X130.959 Y71.628 E1.85904
G1 X131.206 Y71.265 E1.86684
G1 X131.516 Y70.956 E1.87463
G1 X131.878 Y70.709 E1.88243
G1 X132.280 Y70.535 E1.89021
G1 X132.708 Y70.440 E1.89801
G1 X133.146 Y70.426 E1.90580
G1 X133.579 Y70.495 E1.91359
G1 X133.857 Y70.585 E1.91879
G1 X134.122 Y70.709 E1.92398
G1 X134.484 Y70.956 E1.93177
G1 X134.794 Y71.266 E1.93958
G1 X135.040 Y71.628 E1.94735
G1 X135.215 Y72.030 E1.95515
G1 X135.310 Y72.458 E1.96294
G1 X135.324 Y72.896 E1.97073
G1 X135.255 Y73.329 E1.97853
G1 X135.107 Y73.742 E1.98632
G1 X134.884 Y74.119 E1.99411
G1 X134.594 Y74.447 E2.00190
G1 X134.248 Y74.716 E2.00969
G1 X133.857 Y74.915 E2.01748
G1 X133.436 Y75.037 E2.02528
G1 X133.146 Y75.074 E2.03048
G1 X132.917 Y75.076 E2.03456
G1 X132.890 Y74.656 F11700.000
G1 X132.525 Y74.600 F1365.000 E2.04112
G1 X132.187 Y74.478 E2.04751
G1 X131.878 Y74.295 E2.05390
G1 X131.608 Y74.057 E2.06029
G1 X131.388 Y73.773 E2.06668
G1 X131.272 Y73.563 E2.07095
G1 X131.184 Y73.340 E2.07521
G1 X131.106 Y72.989 E2.08160
G1 X131.094 Y72.630 E2.08799
G1 X131.153 Y72.265 E2.09456
G1 X131.225 Y72.047 E2.09864
G1 X131.327 Y71.830 E2.10290
G1 X131.529 Y71.533 E2.10929
G1 X131.783 Y71.279 E2.11568
G1 X132.080 Y71.077 E2.12207
G1 X132.410 Y70.934 E2.12846
G1 X132.761 Y70.856 E2.13485
G1 X133.120 Y70.844 E2.14124
G1 X133.475 Y70.900 E2.14763
G1 X133.703 Y70.975 E2.15189
G1 X133.920 Y71.077 E2.15615
G1 X134.217 Y71.279 E2.16254
G1 X134.471 Y71.533 E2.16894
G1 X134.673 Y71.830 E2.17532
G1 X134.816 Y72.160 E2.18171
G1 X134.894 Y72.511 E2.18810
G1 X134.906 Y72.870 E2.19449
G1 X134.850 Y73.225 E2.20088
G1 X134.728 Y73.563 E2.20727
G1 X134.545 Y73.872 E2.21366
G1 X134.307 Y74.142 E2.22005
G1 X134.023 Y74.362 E2.22644
G1 X133.703 Y74.525 E2.23283
G1 X133.358 Y74.626 E2.23922
G1 X132.953 Y74.658 E2.24644
G1 X132.732 Y74.322 F11700.000
G1 F1800.000 E1.24644
G92 E0
G1 X104.324 Y72.896 F11700.000
G1 F1800.000 E1.00000
G1 X104.255 Y73.329 F1365.000 E1.00779
G1 X104.165 Y73.607 E1.01300
G1 X104.041 Y73.872 E1.01819
G1 X103.794 Y74.234 E1.02598
G1 X103.484 Y74.544 E1.03378
G1 X103.122 Y74.791 E1.04157
G1 X102.720 Y74.965 E1.04935
G1 X102.292 Y75.060 E1.05715
G1 X101.854 Y75.074 E1.06494
G1 X101.421 Y75.005 E1.07274
G1 X101.009 Y74.857 E1.08052
G1 X100.631 Y74.634 E1.08832
G1 X100.406 Y74.447 E1.09352
G1 X100.221 Y74.252 E1.09830
G1 X99.959 Y73.872 E1.10650
G1 X99.785 Y73.470 E1.11429
G1 X99.690 Y73.041 E1.12209
G1 X99.676 Y72.604 E1.12987
G1 X99.744 Y72.171 E1.13767
G1 X99.893 Y71.759 E1.14546
G1 X100.034 Y71.502 E1.15066
G1 X100.206 Y71.266 E1.15586
G1 X100.516 Y70.956 E1.16365
G1 X100.878 Y70.709 E1.17144
G1 X101.280 Y70.535 E1.17923
G1 X101.708 Y70.440 E1.18703
G1 X102.146 Y70.426 E1.19482
G1 X102.579 Y70.495 E1.20261
G1 X102.991 Y70.643 E1.21040
G1 X103.369 Y70.866 E1.21819
G1 X103.697 Y71.156 E1.22598
G1 X103.966 Y71.502 E1.23378
G1 X104.165 Y71.893 E1.24156
G1 X104.287 Y72.314 E1.24936
G1 X104.324 Y72.604 E1.25456
G1 X104.326 Y72.833 E1.25864
G1 X103.906 Y72.860 F11700.000
G1 X103.850 Y73.225 F1365.000 E1.26521
G1 X103.728 Y73.563 E1.27159
G1 X103.545 Y73.872 E1.27799
