; generated by Slic3r 0.9.10b on 2013-09-26 at 18:13:26

; layer_height = 0.3
; perimeters = 3
; top_solid_layers = 3
; bottom_solid_layers = 3
; fill_density = 0.2
; perimeter_speed = 80
; infill_speed = 130
; travel_speed = 195
; nozzle_diameter = 0.4
; filament_diameter = 3
; extrusion_multiplier = 1
; perimeters extrusion width = 0.42mm
; infill extrusion width = 0.42mm
; solid infill extrusion width = 0.42mm
; top infill extrusion width = 0.42mm
; support material extrusion width = 0.42mm

G21 ; set units to millimeters
M107
M190 S60 ; wait for bed temperature to be reached
M104 S225 ; set temperature
G28 ; home all axes
G1 Z5 F5000 ; lift nozzle
M109 S225 ; wait for temperature to be reached
G90 ; use absolute coordinates
G92 E0
M82 ; use absolute distances for extrusion
G1 F1800.000 E-1.00000
G92 E0
G1 Z0.300 F11700.000
G1 X66.210 Y61.210
G1 F1800.000 E1.00000
G1 X67.240 Y60.370 F1680.000 E1.02363
G1 X68.410 Y59.750 E1.04717
G1 X69.680 Y59.360 E1.07079
G1 X71.000 Y59.230 E1.09437
G1 X119.000 Y59.230 E1.94770
G1 X120.320 Y59.360 E1.97128
G1 X121.590 Y59.750 E1.99490
G1 X122.760 Y60.370 E2.01844
G1 X123.790 Y61.210 E2.04207
G1 X124.630 Y62.240 E2.06570
G1 X125.250 Y63.410 E2.08924
G1 X125.640 Y64.680 E2.11285
G1 X125.770 Y66.000 E2.13643
G1 X125.770 Y114.000 E2.98977
G1 X125.620 Y115.420 E3.01515
G1 X125.170 Y116.780 E3.04062
G1 X116.170 Y136.780 E3.43052
G1 X115.530 Y137.900 E3.45345
G1 X114.690 Y138.880 E3.47640
G1 X113.680 Y139.690 E3.49941
G1 X112.530 Y140.280 E3.52239
G1 X111.290 Y140.650 E3.54540
G1 X110.000 Y140.770 E3.56843
G1 X80.000 Y140.770 E4.10176
G1 X78.710 Y140.650 E4.12479
G1 X77.470 Y140.280 E4.14780
G1 X76.320 Y139.690 E4.17078
G1 X75.310 Y138.880 E4.19379
G1 X74.470 Y137.900 E4.21674
G1 X73.830 Y136.780 E4.23967
G1 X64.830 Y116.780 E4.62957
G1 X64.380 Y115.420 E4.65504
G1 X64.230 Y114.000 E4.68042
G1 X64.230 Y66.000 E5.53375
G1 X64.360 Y64.680 E5.55733
G1 X64.750 Y63.410 E5.58095
G1 X65.370 Y62.240 E5.60449
G1 X66.170 Y61.259 E5.62700
G1 X66.510 Y61.510 F11700.000
G1 X67.470 Y60.720 F1680.000 E5.64911
G1 X68.570 Y60.130 E5.67130
G1 X69.760 Y59.770 E5.69340
G1 X71.000 Y59.650 E5.71555
G1 X119.000 Y59.650 E6.56888
G1 X120.240 Y59.770 E6.59103
G1 X121.430 Y60.130 E6.61313
G1 X122.530 Y60.720 E6.63532
G1 X123.490 Y61.510 E6.65742
G1 X124.280 Y62.470 E6.67953
G1 X124.870 Y63.570 E6.70172
G1 X125.230 Y64.760 E6.72382
G1 X125.350 Y66.000 E6.74597
G1 X125.350 Y114.000 E7.59930
G1 X125.210 Y115.330 E7.62308
G1 X124.790 Y116.610 E7.64702
G1 X115.790 Y136.610 E8.03692
G1 X115.050 Y137.860 E8.06275
G1 X114.040 Y138.900 E8.08852
G1 X112.810 Y139.690 E8.11451
G1 X111.450 Y140.180 E8.14021
G1 X110.000 Y140.350 E8.16616
G1 X80.000 Y140.350 E8.69949
G1 X78.550 Y140.180 E8.72545
G1 X77.190 Y139.690 E8.75115
G1 X75.960 Y138.900 E8.77714
G1 X74.950 Y137.860 E8.80291
G1 X74.210 Y136.610 E8.82873
G1 X65.210 Y116.610 E9.21863
G1 X64.790 Y115.330 E9.24258
G1 X64.650 Y114.000 E9.26635
G1 X64.650 Y66.000 E10.11969
G1 X64.770 Y64.760 E10.14184
G1 X65.130 Y63.570 E10.16394
G1 X65.720 Y62.470 E10.18613
G1 X66.470 Y61.559 E10.20711
G1 X66.360 Y62.300 F11700.000
G1 X67.300 Y61.360 F1680.000 E10.23075
G1 X68.430 Y60.660 E10.25438
G1 X69.680 Y60.220 E10.27794
G1 X71.000 Y60.070 E10.30155
G1 X119.000 Y60.070 E11.15489
G1 X120.320 Y60.220 E11.17851
G1 X121.570 Y60.660 E11.20206
G1 X122.700 Y61.360 E11.22570
G1 X123.640 Y62.300 E11.24933
G1 X124.340 Y63.430 E11.27296
G1 X124.780 Y64.680 E11.29652
G1 X124.930 Y66.000 E11.32014
G1 X124.930 Y114.000 E12.17347
G1 X124.800 Y115.240 E12.19563
G1 X124.410 Y116.430 E12.21790
G1 X115.410 Y136.430 E12.60779
G1 X114.710 Y137.600 E12.63203
G1 X113.770 Y138.580 E12.65617
G1 X112.630 Y139.320 E12.68034
G1 X111.350 Y139.780 E12.70452
G1 X110.000 Y139.930 E12.72866
G1 X80.000 Y139.930 E13.26200
G1 X78.650 Y139.780 E13.28615
G1 X77.370 Y139.320 E13.31033
G1 X76.230 Y138.580 E13.33449
G1 X75.290 Y137.600 E13.35863
G1 X74.590 Y136.430 E13.38287
G1 X65.590 Y116.430 E13.77276
G1 X65.200 Y115.240 E13.79503
G1 X65.070 Y114.000 E13.81719
G1 X65.070 Y66.000 E14.67053
G1 X65.220 Y64.680 E14.69414
G1 X65.660 Y63.430 E14.71770
G1 X66.327 Y62.353 E14.74022
G1 X66.690 Y62.560 F11700.000
G1 X67.560 Y61.690 F1680.000 E14.76209
G1 X68.610 Y61.030 E14.78414
G1 X69.770 Y60.620 E14.80601
G1 X71.000 Y60.490 E14.82800
G1 X119.000 Y60.490 E15.68133
G1 X120.230 Y60.620 E15.70332
G1 X121.390 Y61.030 E15.72519
G1 X122.440 Y61.690 E15.74724
G1 X123.310 Y62.560 E15.76911
G1 X123.970 Y63.610 E15.79116
G1 X124.380 Y64.770 E15.81303
G1 X124.510 Y66.000 E15.83502
G1 X124.510 Y114.000 E16.68836
G1 X124.390 Y115.160 E16.70909
G1 X124.030 Y116.260 E16.72967
G1 X115.030 Y136.260 E17.11956
G1 X114.380 Y137.350 E17.14212
G1 X113.500 Y138.260 E17.16463
G1 X112.440 Y138.940 E17.18702
G1 X111.250 Y139.370 E17.20951
G1 X110.000 Y139.510 E17.23187
G1 X80.000 Y139.510 E17.76521
G1 X78.750 Y139.370 E17.78757
G1 X77.560 Y138.940 E17.81006
G1 X76.500 Y138.260 E17.83245
G1 X75.620 Y137.350 E17.85496
G1 X74.970 Y136.260 E17.87752
G1 X65.970 Y116.260 E18.26741
G1 X65.610 Y115.160 E18.28799
G1 X65.490 Y114.000 E18.30872
G1 X65.490 Y66.000 E19.16206
G1 X65.620 Y64.770 E19.18404
G1 X66.030 Y63.610 E19.20592
G1 X66.657 Y62.613 E19.22685
G1 X67.020 Y62.820 F11700.000
G1 X67.820 Y62.020 F1680.000 E19.24696
G1 X68.790 Y61.410 E19.26733
G1 X69.870 Y61.030 E19.28769
G1 X71.000 Y60.910 E19.30789
G1 X119.000 Y60.910 E20.16122
G1 X120.130 Y61.030 E20.18142
G1 X121.210 Y61.410 E20.20178
G1 X122.180 Y62.020 E20.22215
G1 X122.980 Y62.820 E20.24226
G1 X123.590 Y63.790 E20.26263
G1 X123.970 Y64.870 E20.28299
G1 X124.090 Y66.000 E20.30319
G1 X124.090 Y114.000 E21.15652
G1 X123.980 Y115.070 E21.17564
G1 X123.650 Y116.090 E21.19470
G1 X114.650 Y136.090 E21.58460
G1 X114.050 Y137.090 E21.60533
G1 X113.240 Y137.930 E21.62608
G1 X112.260 Y138.570 E21.64688
G1 X111.160 Y138.960 E21.66763
G1 X110.000 Y139.090 E21.68838
G1 X80.000 Y139.090 E22.22172
G1 X78.840 Y138.960 E22.24247
G1 X77.740 Y138.570 E22.26322
G1 X76.760 Y137.930 E22.28403
G1 X75.950 Y137.090 E22.30477
G1 X75.350 Y136.090 E22.32550
G1 X66.350 Y116.090 E22.71540
G1 X66.020 Y115.070 E22.73446
G1 X65.910 Y114.000 E22.75358
G1 X65.910 Y66.000 E23.60692
G1 X66.030 Y64.870 E23.62712
G1 X66.410 Y63.790 E23.64747
G1 X66.987 Y62.873 E23.66672
G1 X67.690 Y62.690 F11700.000
G1 X68.660 Y61.950 F1680.000 E23.68841
G1 X69.790 Y61.480 E23.71017
G1 X71.000 Y61.320 E23.73187
G1 X119.000 Y61.320 E24.58520
G1 X120.210 Y61.480 E24.60690
G1 X121.340 Y61.950 E24.62866
G1 X122.310 Y62.690 E24.65035
G1 X123.050 Y63.660 E24.67204
G1 X123.520 Y64.790 E24.69380
G1 X123.680 Y66.000 E24.71549
G1 X123.680 Y114.000 E25.56883
G1 X123.570 Y114.980 E25.58636
G1 X123.260 Y115.920 E25.60396
G1 X114.260 Y135.920 E25.99385
G1 X113.720 Y136.840 E26.01282
G1 X112.970 Y137.610 E26.03193
G1 X112.070 Y138.190 E26.05096
G1 X111.060 Y138.550 E26.07002
G1 X110.000 Y138.680 E26.08901
G1 X80.000 Y138.680 E26.62234
G1 X78.940 Y138.550 E26.64133
G1 X77.930 Y138.190 E26.66039
G1 X77.030 Y137.610 E26.67942
G1 X76.280 Y136.840 E26.69853
G1 X75.740 Y135.920 E26.71750
G1 X66.740 Y115.920 E27.10740
G1 X66.430 Y114.980 E27.12499
G1 X66.320 Y114.000 E27.14252
G1 X66.320 Y66.000 E27.99586
G1 X66.480 Y64.790 E28.01756
G1 X66.950 Y63.660 E28.03931
G1 X67.652 Y62.740 E28.05989
G1 X67.990 Y62.990 F11700.000
G1 X68.870 Y62.310 F1680.000 E28.07966
G1 X69.900 Y61.890 E28.09943
G1 X71.000 Y61.740 E28.11917
G1 X119.000 Y61.740 E28.97250
G1 X120.100 Y61.890 E28.99224
G1 X121.130 Y62.310 E29.01201
G1 X122.010 Y62.990 E29.03178
G1 X122.690 Y63.870 E29.05155
G1 X123.110 Y64.900 E29.07133
G1 X123.260 Y66.000 E29.09107
G1 X123.260 Y114.000 E29.94440
G1 X123.160 Y114.890 E29.96032
G1 X122.880 Y115.750 E29.97640
G1 X113.880 Y135.750 E30.36630
G1 X113.230 Y136.770 E30.38780
G1 X112.310 Y137.570 E30.40947
G1 X111.200 Y138.080 E30.43119
G1 X110.000 Y138.260 E30.45276
G1 X80.000 Y138.260 E30.98610
G1 X78.800 Y138.080 E31.00767
G1 X77.690 Y137.570 E31.02938
G1 X76.770 Y136.770 E31.05106
G1 X76.120 Y135.750 E31.07256
G1 X67.120 Y115.750 E31.46246
G1 X66.840 Y114.890 E31.47854
G1 X66.740 Y114.000 E31.49446
G1 X66.740 Y66.000 E32.34779
G1 X66.890 Y64.900 E32.36753
G1 X67.310 Y63.870 E32.38730
G1 X67.952 Y63.040 E32.40596
G1 X68.290 Y63.290 F11700.000
G1 X69.080 Y62.680 F1680.000 E32.42370
G1 X70.010 Y62.290 E32.44163
G1 X71.000 Y62.160 E32.45938
G1 X119.000 Y62.160 E33.31271
G1 X119.990 Y62.290 E33.33046
G1 X120.920 Y62.680 E33.34839
G1 X121.710 Y63.290 E33.36614
G1 X122.320 Y64.080 E33.38388
G1 X122.710 Y65.010 E33.40181
G1 X122.840 Y66.000 E33.41956
G1 X122.840 Y114.000 E34.27289
G1 X122.750 Y114.810 E34.28738
G1 X122.500 Y115.570 E34.30161
G1 X113.500 Y135.570 E34.69150
G1 X112.910 Y136.500 E34.71108
G1 X112.080 Y137.220 E34.73062
G1 X111.090 Y137.680 E34.75002
G1 X110.000 Y137.840 E34.76961
G1 X80.000 Y137.840 E35.30294
G1 X78.910 Y137.680 E35.32253
G1 X77.920 Y137.220 E35.34193
G1 X77.090 Y136.500 E35.36147
G1 X76.500 Y135.570 E35.38105
G1 X67.500 Y115.570 E35.77095
G1 X67.250 Y114.810 E35.78517
G1 X67.160 Y114.000 E35.79966
G1 X67.160 Y66.000 E36.65299
G1 X67.290 Y65.010 E36.67074
G1 X67.680 Y64.080 E36.68867
G1 X68.252 Y63.340 E36.70530
G1 X68.230 Y63.990 F11700.000
G1 X68.990 Y63.230 F1680.000 E36.72440
G1 X69.940 Y62.750 E36.74333
G1 X71.000 Y62.580 E36.76241
G1 X119.000 Y62.580 E37.61575
G1 X120.060 Y62.750 E37.63483
G1 X121.010 Y63.230 E37.65375
G1 X121.770 Y63.990 E37.67286
G1 X122.250 Y64.940 E37.69178
G1 X122.420 Y66.000 E37.71087
G1 X122.420 Y114.000 E38.56420
G1 X122.340 Y114.720 E38.57708
G1 X122.120 Y115.400 E38.58979
G1 X113.120 Y135.400 E38.97968
G1 X112.590 Y136.230 E38.99719
G1 X111.860 Y136.870 E39.01445
G1 X110.970 Y137.280 E39.03187
G1 X110.000 Y137.420 E39.04929
G1 X80.000 Y137.420 E39.58263
G1 X79.030 Y137.280 E39.60005
G1 X78.140 Y136.870 E39.61747
G1 X77.410 Y136.230 E39.63473
G1 X76.880 Y135.400 E39.65224
G1 X67.880 Y115.400 E40.04213
G1 X67.660 Y114.720 E40.05484
G1 X67.580 Y114.000 E40.06772
G1 X67.580 Y66.000 E40.92105
G1 X67.750 Y64.940 E40.94014
G1 X68.202 Y64.046 E40.95794
G1 F1800.000 E39.95794
G92 E0
G1 X72.047 Y67.047 F11700.000
G1 F1800.000 E1.00000
G1 X117.953 Y67.047 F1680.000 E1.81610
G1 X117.953 Y112.953 E2.63220
G1 X108.953 Y112.953 E2.79220
G1 X108.953 Y132.953 E3.14775
G1 X81.047 Y132.953 E3.64385
G1 X81.047 Y112.953 E3.99941
G1 X72.047 Y112.953 E4.15941
G1 X72.047 Y67.110 E4.97439
G1 X71.628 Y66.628 F11700.000
G1 X118.372 Y66.628 F1680.000 E5.80539
G1 X118.372 Y113.372 E6.63638
G1 X109.372 Y113.372 E6.79638
G1 X109.372 Y133.372 E7.15193
G1 X80.628 Y133.372 E7.66293
G1 X80.628 Y113.372 E8.01848
G1 X71.628 Y113.372 E8.17848
G1 X71.628 Y66.691 E9.00836
G1 X71.209 Y66.209 F11700.000
G1 X118.791 Y66.209 F1680.000 E9.85425
G1 X118.791 Y113.791 E10.70013
G1 X109.791 Y113.791 E10.86013
G1 X109.791 Y133.791 E11.21569
G1 X80.209 Y133.791 E11.74158
G1 X80.209 Y113.791 E12.09713
G1 X71.209 Y113.791 E12.25713
G1 X71.209 Y66.272 E13.10190
G1 X71.572 Y66.419 F11700.000
G1 X72.351 Y104.674
G1 X80.326 Y112.649 F2100.000 E13.30309
G1 X79.732 Y112.649 E13.31370
G1 X72.351 Y105.268 E13.49989
G1 X72.351 Y105.862 E13.51050
G1 X79.138 Y112.649 E13.68170
G1 X78.543 Y112.649 E13.69230
G1 X72.351 Y106.457 E13.84852
G1 X72.351 Y107.051 E13.85912
G1 X77.949 Y112.649 E14.00033
G1 X77.354 Y112.649 E14.01094
G1 X72.351 Y107.646 E14.13716
G1 X72.351 Y108.240 E14.14776
G1 X76.760 Y112.649 E14.25899
G1 X76.166 Y112.649 E14.26959
G1 X72.351 Y108.834 E14.36583
G1 X72.351 Y109.429 E14.37643
G1 X75.571 Y112.649 E14.45767
G1 X74.977 Y112.649 E14.46827
G1 X72.351 Y110.023 E14.53452
G1 X72.351 Y110.617 E14.54512
G1 X74.382 Y112.649 E14.59638
G1 X73.788 Y112.649 E14.60698
G1 X72.351 Y111.212 E14.64324
G1 X72.351 Y111.806 E14.65384
G1 X73.194 Y112.649 E14.67511
G1 X72.599 Y112.649 E14.68571
G1 X72.351 Y112.401 E14.69198
G1 X80.921 Y112.649 F11700.000
G1 X72.351 Y104.079 F2100.000 E14.90817
G1 X72.351 Y103.485 E14.91877
G1 X101.515 Y132.649 E15.65448
G1 X102.109 Y132.649 E15.66508
G1 X72.351 Y102.891 E16.41578
G1 X72.351 Y102.296 E16.42638
G1 X102.704 Y132.649 E17.19207
G1 X103.298 Y132.649 E17.20268
G1 X72.351 Y101.702 E17.98336
G1 X72.351 Y101.107 E17.99397
G1 X103.893 Y132.649 E18.78965
G1 X104.487 Y132.649 E18.80025
G1 X72.351 Y100.513 E19.61093
G1 X72.351 Y99.919 E19.62153
G1 X105.081 Y132.649 E20.44720
G1 X105.676 Y132.649 E20.45780
G1 X72.351 Y99.324 E21.29846
G1 X72.351 Y98.730 E21.30907
G1 X106.270 Y132.649 E22.16473
G1 X106.864 Y132.649 E22.17533
G1 X72.351 Y98.136 E23.04598
G1 X72.351 Y97.541 E23.05658
G1 X107.459 Y132.649 E23.94223
G1 X108.053 Y132.649 E23.95283
G1 X72.351 Y96.947 E24.85347
G1 X72.351 Y96.352 E24.86407
G1 X108.648 Y132.649 E25.77971
G1 X108.649 Y132.056 E25.79028
G1 X72.351 Y95.758 E26.70595
G1 X72.351 Y95.164 E26.71656
G1 X108.649 Y131.462 E27.63223
G1 X108.649 Y130.868 E27.64283
G1 X72.351 Y94.569 E28.55851
G1 X72.351 Y93.975 E28.56911
G1 X108.649 Y130.273 E29.48478
G1 X108.649 Y129.679 E29.49539
G1 X72.351 Y93.380 E30.41106
G1 X72.351 Y92.786 E30.42166
G1 X108.649 Y129.085 E31.33734
G1 X108.649 Y128.490 E31.34794
G1 X72.351 Y92.192 E32.26361
G1 X72.351 Y91.597 E32.27422
G1 X108.649 Y127.896 E33.18989
G1 X108.649 Y127.301 E33.20049
G1 X72.351 Y91.003 E34.11617
G1 X72.351 Y90.409 E34.12677
G1 X108.649 Y126.707 E35.04245
G1 X108.649 Y126.113 E35.05305
G1 X72.351 Y89.814 E35.96872
G1 X72.351 Y89.220 E35.97932
G1 X108.649 Y125.518 E36.89500
G1 X108.649 Y124.924 E36.90560
G1 X72.351 Y88.625 E37.82128
G1 X72.351 Y88.031 E37.83188
G1 X108.649 Y124.330 E38.74755
G1 X108.649 Y123.735 E38.75816
G1 X72.351 Y87.437 E39.67383
G1 X72.351 Y86.842 E39.68443
G1 X108.649 Y123.141 E40.60011
G1 X108.649 Y122.546 E40.61071
G1 X72.351 Y86.248 E41.52638
G1 X72.351 Y85.654 E41.53699
G1 X108.649 Y121.952 E42.45266
G1 X108.649 Y121.358 E42.46326
G1 X72.351 Y85.059 E43.37894
G1 X72.351 Y84.465 E43.38954
G1 X108.649 Y120.763 E44.30521
G1 X108.649 Y120.169 E44.31582
G1 X72.351 Y83.870 E45.23149
G1 X72.351 Y83.276 E45.24209
G1 X108.649 Y119.575 E46.15777
G1 X108.649 Y118.980 E46.16837
G1 X72.351 Y82.682 E47.08405
G1 X72.351 Y82.087 E47.09465
G1 X108.649 Y118.386 E48.01032
G1 X108.649 Y117.791 E48.02092
G1 X72.351 Y81.493 E48.93660
G1 X72.351 Y80.899 E48.94720
G1 X108.649 Y117.197 E49.86288
G1 X108.649 Y116.603 E49.87348
G1 X72.351 Y80.304 E50.78915
G1 X72.351 Y79.710 E50.79976
G1 X108.649 Y116.008 E51.71543
G1 X108.649 Y115.414 E51.72603
G1 X72.351 Y79.115 E52.64171
G1 X72.351 Y78.521 E52.65231
G1 X108.649 Y114.819 E53.56798
G1 X108.649 Y114.225 E53.57859
G1 X72.351 Y77.927 E54.49426
G1 X72.351 Y77.332 E54.50486
G1 X108.649 Y113.631 E55.42054
G1 X108.649 Y113.036 E55.43114
G1 X72.351 Y76.738 E56.34681
G1 X72.351 Y76.143 E56.35742
G1 X108.857 Y112.649 E57.27832
G1 X109.451 Y112.649 E57.28892
G1 X72.351 Y75.549 E58.22482
G1 X72.351 Y74.955 E58.23542
G1 X110.045 Y112.649 E59.18631
G1 X110.640 Y112.649 E59.19692
G1 X72.351 Y74.360 E60.16280
G1 X72.351 Y73.766 E60.17340
G1 X111.234 Y112.649 E61.15428
G1 X111.828 Y112.649 E61.16489
G1 X72.351 Y73.172 E62.16076
G1 X72.351 Y72.577 E62.17136
G1 X112.423 Y112.649 E63.18223
G1 X113.017 Y112.649 E63.19283
G1 X72.351 Y71.983 E64.21869
G1 X72.351 Y71.388 E64.22930
G1 X113.612 Y112.649 E65.27015
G1 X114.206 Y112.649 E65.28075
G1 X72.351 Y70.794 E66.33660
G1 X72.351 Y70.200 E66.34720
G1 X114.800 Y112.649 E67.41805
G1 X115.395 Y112.649 E67.42865
G1 X72.351 Y69.605 E68.51449
G1 X72.351 Y69.011 E68.52509
G1 X115.989 Y112.649 E69.62592
G1 X116.583 Y112.649 E69.63652
G1 X72.351 Y68.417 E70.75235
G1 X72.351 Y67.822 E70.76295
G1 X117.178 Y112.649 E71.89377
G1 X117.649 Y112.526 E71.90246
G1 X72.474 Y67.351 E73.04207
G1 X73.068 Y67.351 E73.05267
G1 X117.649 Y111.932 E74.17729
G1 X117.649 Y111.337 E74.18789
G1 X73.662 Y67.351 E75.29751
G1 X74.257 Y67.351 E75.30811
G1 X117.649 Y110.743 E76.40274
G1 X117.649 Y110.149 E76.41334
G1 X74.851 Y67.351 E77.49297
G1 X75.446 Y67.351 E77.50358
G1 X117.649 Y109.554 E78.56821
G1 X117.649 Y108.960 E78.57882
G1 X76.040 Y67.351 E79.62846
G1 X76.634 Y67.351 E79.63906
G1 X117.649 Y108.366 E80.67371
