; generated by Slic3r 0.9.10b on 2013-09-26 at 18:13:18

; layer_height = 0.3
; perimeters = 3
; top_solid_layers = 3
; bottom_solid_layers = 3
; fill_density = 0.2
; perimeter_speed = 80
; infill_speed = 130
; travel_speed = 195
; nozzle_diameter = 0.4
; filament_diameter = 3
; extrusion_multiplier = 1
; perimeters extrusion width = 0.42mm
; infill extrusion width = 0.42mm
; solid infill extrusion width = 0.42mm
; top infill extrusion width = 0.42mm
; support material extrusion width = 0.42mm

G21 ; set units to millimeters
M107
M190 S60 ; wait for bed temperature to be reached
M104 S225 ; set temperature
G28 ; home all axes
G1 Z5 F5000 ; lift nozzle
M109 S225 ; wait for temperature to be reached
G90 ; use absolute coordinates
G92 E0
M82 ; use absolute distances for extrusion
G1 F1800.000 E-1.00000
G92 E0
G1 Z0.300 F11700.000
G1 X66.210 Y61.210
G1 F1800.000 E1.00000
G1 X67.240 Y60.370 F1680.000 E1.02363
G1 X68.410 Y59.750 E1.04717
G1 X69.680 Y59.360 E1.07079
G1 X71.000 Y59.230 E1.09437
G1 X119.000 Y59.230 E1.94770
G1 X120.320 Y59.360 E1.97128
G1 X121.590 Y59.750 E1.99490
G1 X122.760 Y60.370 E2.01844
G1 X123.790 Y61.210 E2.04207
G1 X124.630 Y62.240 E2.06570
G1 X125.250 Y63.410 E2.08924
G1 X125.640 Y64.680 E2.11285
G1 X125.770 Y66.000 E2.13643
G1 X125.770 Y114.000 E2.98977
G1 X125.620 Y115.410 E3.01498
G1 X125.180 Y116.760 E3.04022
G1 X116.390 Y136.440 E3.42340
G1 X115.750 Y137.570 E3.44648
G1 X114.910 Y138.550 E3.46943
G1 X113.890 Y139.360 E3.49259
G1 X112.740 Y139.960 E3.51565
G1 X111.500 Y140.330 E3.53865
G1 X110.210 Y140.450 E3.56168
G1 X79.780 Y140.450 E4.10266
G1 X78.490 Y140.330 E4.12569
G1 X77.250 Y139.960 E4.14870
G1 X76.090 Y139.360 E4.17192
G1 X75.080 Y138.550 E4.19493
G1 X74.240 Y137.570 E4.21788
G1 X73.600 Y136.440 E4.24097
G1 X64.820 Y116.760 E4.62407
G1 X64.380 Y115.410 E4.64931
G1 X64.230 Y114.000 E4.67452
G1 X64.230 Y66.000 E5.52786
G1 X64.360 Y64.680 E5.55144
G1 X64.750 Y63.410 E5.57505
G1 X65.370 Y62.240 E5.59859
G1 X66.170 Y61.259 E5.62111
G1 X66.510 Y61.510 F11700.000
G1 X67.470 Y60.720 F1680.000 E5.64321
G1 X68.570 Y60.130 E5.66540
G1 X69.760 Y59.770 E5.68750
G1 X71.000 Y59.650 E5.70965
G1 X119.000 Y59.650 E6.56298
G1 X120.240 Y59.770 E6.58513
G1 X121.430 Y60.130 E6.60723
G1 X122.530 Y60.720 E6.62942
G1 X123.490 Y61.510 E6.65153
G1 X124.280 Y62.470 E6.67363
G1 X124.870 Y63.570 E6.69582
G1 X125.230 Y64.760 E6.71792
G1 X125.350 Y66.000 E6.74007
G1 X125.350 Y114.000 E7.59340
G1 X125.210 Y115.320 E7.61700
G1 X124.800 Y116.590 E7.64073
G1 X116.010 Y136.270 E8.02390
G1 X115.270 Y137.520 E8.04973
G1 X114.250 Y138.580 E8.07588
G1 X113.030 Y139.370 E8.10172
G1 X111.660 Y139.860 E8.12759
G1 X110.210 Y140.030 E8.15354
G1 X79.780 Y140.030 E8.69452
G1 X78.330 Y139.860 E8.72047
G1 X76.960 Y139.370 E8.74634
G1 X75.730 Y138.580 E8.77233
G1 X74.720 Y137.520 E8.79836
G1 X73.980 Y136.270 E8.82418
G1 X65.200 Y116.590 E9.20729
G1 X64.790 Y115.320 E9.23101
G1 X64.650 Y114.000 E9.25461
G1 X64.650 Y66.000 E10.10794
G1 X64.770 Y64.760 E10.13009
G1 X65.130 Y63.570 E10.15219
G1 X65.720 Y62.470 E10.17439
G1 X66.470 Y61.559 E10.19537
G1 X66.360 Y62.300 F11700.000
G1 X67.300 Y61.360 F1680.000 E10.21900
G1 X68.430 Y60.660 E10.24263
G1 X69.680 Y60.220 E10.26619
G1 X71.000 Y60.070 E10.28981
G1 X119.000 Y60.070 E11.14314
G1 X120.320 Y60.220 E11.16676
G1 X121.570 Y60.660 E11.19032
G1 X122.700 Y61.360 E11.21395
G1 X123.640 Y62.300 E11.23759
G1 X124.340 Y63.430 E11.26122
G1 X124.780 Y64.680 E11.28477
G1 X124.930 Y66.000 E11.30839
G1 X124.930 Y114.000 E12.16173
G1 X124.800 Y115.240 E12.18389
G1 X124.420 Y116.420 E12.20593
G1 X115.630 Y136.100 E12.58911
G1 X114.930 Y137.270 E12.61335
G1 X113.990 Y138.250 E12.63749
G1 X112.850 Y138.990 E12.66165
G1 X111.560 Y139.460 E12.68606
G1 X110.210 Y139.610 E12.71021
G1 X79.780 Y139.610 E13.25118
G1 X78.430 Y139.460 E13.27533
G1 X77.140 Y138.990 E13.29974
G1 X76.000 Y138.250 E13.32390
G1 X75.060 Y137.270 E13.34804
G1 X74.360 Y136.100 E13.37228
G1 X65.580 Y116.420 E13.75539
G1 X65.200 Y115.240 E13.77743
G1 X65.070 Y114.000 E13.79959
G1 X65.070 Y66.000 E14.65293
G1 X65.220 Y64.680 E14.67654
G1 X65.660 Y63.430 E14.70010
G1 X66.327 Y62.353 E14.72262
G1 X66.690 Y62.560 F11700.000
G1 X67.560 Y61.690 F1680.000 E14.74449
G1 X68.610 Y61.030 E14.76654
G1 X69.770 Y60.620 E14.78841
G1 X71.000 Y60.490 E14.81040
G1 X119.000 Y60.490 E15.66373
G1 X120.230 Y60.620 E15.68572
G1 X121.390 Y61.030 E15.70759
G1 X122.440 Y61.690 E15.72964
G1 X123.310 Y62.560 E15.75151
G1 X123.970 Y63.610 E15.77356
G1 X124.380 Y64.770 E15.79543
G1 X124.510 Y66.000 E15.81742
G1 X124.510 Y114.000 E16.67076
G1 X124.390 Y115.150 E16.69131
G1 X124.030 Y116.250 E16.71189
G1 X115.240 Y135.930 E17.09507
G1 X114.600 Y137.020 E17.11754
G1 X113.720 Y137.930 E17.14004
G1 X112.660 Y138.620 E17.16253
G1 X111.470 Y139.050 E17.18502
G1 X110.210 Y139.190 E17.20756
G1 X79.780 Y139.190 E17.74854
G1 X78.520 Y139.050 E17.77107
G1 X77.330 Y138.620 E17.79357
G1 X76.270 Y137.930 E17.81605
G1 X75.390 Y137.020 E17.83856
G1 X74.750 Y135.930 E17.86103
G1 X65.970 Y116.250 E18.24414
G1 X65.610 Y115.150 E18.26471
G1 X65.490 Y114.000 E18.28527
G1 X65.490 Y66.000 E19.13860
G1 X65.620 Y64.770 E19.16059
G1 X66.030 Y63.610 E19.18246
G1 X66.657 Y62.613 E19.20339
G1 X67.020 Y62.820 F11700.000
G1 X67.820 Y62.020 F1680.000 E19.22351
G1 X68.790 Y61.410 E19.24388
G1 X69.870 Y61.030 E19.26423
G1 X71.000 Y60.910 E19.28443
G1 X119.000 Y60.910 E20.13777
G1 X120.130 Y61.030 E20.15797
G1 X121.210 Y61.410 E20.17832
G1 X122.180 Y62.020 E20.19869
G1 X122.980 Y62.820 E20.21881
G1 X123.590 Y63.790 E20.23918
G1 X123.970 Y64.870 E20.25953
G1 X124.090 Y66.000 E20.27973
G1 X124.090 Y114.000 E21.13307
G1 X123.980 Y115.060 E21.15201
G1 X123.650 Y116.080 E21.17107
G1 X114.860 Y135.760 E21.55425
G1 X114.260 Y136.760 E21.57498
G1 X113.450 Y137.610 E21.59586
G1 X112.470 Y138.240 E21.61657
G1 X111.370 Y138.640 E21.63738
G1 X110.210 Y138.770 E21.65813
G1 X79.780 Y138.770 E22.19910
G1 X78.620 Y138.640 E22.21986
G1 X77.520 Y138.240 E22.24066
G1 X76.530 Y137.610 E22.26153
G1 X75.720 Y136.760 E22.28240
G1 X75.130 Y135.760 E22.30304
G1 X66.350 Y116.080 E22.68615
G1 X66.020 Y115.060 E22.70521
G1 X65.910 Y114.000 E22.72415
G1 X65.910 Y66.000 E23.57748
G1 X66.030 Y64.870 E23.59769
G1 X66.410 Y63.790 E23.61804
G1 X66.987 Y62.873 E23.63729
G1 X67.690 Y62.690 F11700.000
G1 X68.660 Y61.950 F1680.000 E23.65898
G1 X69.790 Y61.480 E23.68074
G1 X71.000 Y61.320 E23.70244
G1 X119.000 Y61.320 E24.55577
G1 X120.210 Y61.480 E24.57747
G1 X121.340 Y61.950 E24.59923
G1 X122.310 Y62.690 E24.62092
G1 X123.050 Y63.660 E24.64261
G1 X123.520 Y64.790 E24.66437
G1 X123.680 Y66.000 E24.68606
G1 X123.680 Y114.000 E25.53940
G1 X123.570 Y114.970 E25.55675
G1 X123.270 Y115.910 E25.57429
G1 X114.480 Y135.590 E25.95747
G1 X113.930 Y136.510 E25.97653
G1 X113.190 Y137.280 E25.99551
G1 X112.290 Y137.870 E26.01464
G1 X111.280 Y138.230 E26.03371
G1 X110.210 Y138.360 E26.05287
G1 X79.780 Y138.360 E26.59385
G1 X78.710 Y138.230 E26.61301
G1 X77.700 Y137.870 E26.63207
G1 X76.800 Y137.280 E26.65120
G1 X76.060 Y136.510 E26.67019
G1 X75.510 Y135.580 E26.68940
G1 X66.730 Y115.900 E27.07250
G1 X66.430 Y114.970 E27.08987
G1 X66.320 Y114.000 E27.10723
G1 X66.320 Y66.000 E27.96056
G1 X66.480 Y64.790 E27.98226
G1 X66.950 Y63.660 E28.00402
G1 X67.652 Y62.740 E28.02459
G1 X67.990 Y62.990 F11700.000
G1 X68.870 Y62.310 F1680.000 E28.04436
G1 X69.900 Y61.890 E28.06414
G1 X71.000 Y61.740 E28.08387
G1 X119.000 Y61.740 E28.93721
G1 X120.100 Y61.890 E28.95694
G1 X121.130 Y62.310 E28.97672
G1 X122.010 Y62.990 E28.99649
G1 X122.690 Y63.870 E29.01626
G1 X123.110 Y64.900 E29.03604
G1 X123.260 Y66.000 E29.05577
G1 X123.260 Y114.000 E29.90911
G1 X123.160 Y114.890 E29.92503
G1 X122.890 Y115.740 E29.94088
G1 X114.100 Y135.420 E30.32406
G1 X113.440 Y136.450 E30.34581
G1 X112.530 Y137.250 E30.36735
G1 X111.420 Y137.760 E30.38907
G1 X110.210 Y137.940 E30.41081
G1 X79.780 Y137.940 E30.95179
G1 X78.570 Y137.760 E30.97354
G1 X77.460 Y137.250 E30.99526
G1 X76.540 Y136.450 E31.01693
G1 X75.890 Y135.410 E31.03873
G1 X67.110 Y115.730 E31.42184
G1 X66.840 Y114.890 E31.43753
G1 X66.740 Y114.000 E31.45345
G1 X66.740 Y66.000 E32.30678
G1 X66.890 Y64.900 E32.32652
G1 X67.310 Y63.870 E32.34629
G1 X67.952 Y63.040 E32.36495
G1 X68.290 Y63.290 F11700.000
G1 X69.080 Y62.680 F1680.000 E32.38269
G1 X70.010 Y62.290 E32.40062
G1 X71.000 Y62.160 E32.41837
G1 X119.000 Y62.160 E33.27170
G1 X119.990 Y62.290 E33.28945
G1 X120.920 Y62.680 E33.30738
G1 X121.710 Y63.290 E33.32513
G1 X122.320 Y64.080 E33.34287
G1 X122.710 Y65.010 E33.36080
G1 X122.840 Y66.000 E33.37855
G1 X122.840 Y114.000 E34.23188
G1 X122.750 Y114.800 E34.24619
G1 X122.500 Y115.570 E34.26059
G1 X113.710 Y135.250 E34.64377
G1 X113.130 Y136.180 E34.66325
G1 X112.300 Y136.900 E34.68278
G1 X111.300 Y137.360 E34.70235
G1 X110.210 Y137.520 E34.72194
G1 X79.780 Y137.520 E35.26292
G1 X78.690 Y137.360 E35.28250
G1 X77.690 Y136.900 E35.30207
G1 X76.860 Y136.170 E35.32172
G1 X76.280 Y135.240 E35.34121
G1 X67.500 Y115.560 E35.72431
G1 X67.250 Y114.800 E35.73854
G1 X67.160 Y114.000 E35.75285
G1 X67.160 Y66.000 E36.60618
G1 X67.290 Y65.010 E36.62393
G1 X67.680 Y64.080 E36.64186
G1 X68.252 Y63.340 E36.65849
G1 X68.230 Y63.990 F11700.000
G1 X68.990 Y63.230 F1680.000 E36.67759
G1 X69.940 Y62.750 E36.69652
G1 X71.000 Y62.580 E36.71560
G1 X119.000 Y62.580 E37.56894
G1 X120.060 Y62.750 E37.58802
G1 X121.010 Y63.230 E37.60694
G1 X121.770 Y63.990 E37.62605
G1 X122.250 Y64.940 E37.64497
G1 X122.420 Y66.000 E37.66406
G1 X122.420 Y114.000 E38.51739
G1 X122.340 Y114.710 E38.53009
G1 X122.120 Y115.390 E38.54280
G1 X113.330 Y135.070 E38.92598
G1 X112.810 Y135.900 E38.94339
G1 X112.070 Y136.550 E38.96090
G1 X111.180 Y136.960 E38.97832
G1 X110.210 Y137.100 E38.99574
G1 X79.780 Y137.100 E39.53672
G1 X78.810 Y136.960 E39.55414
G1 X77.920 Y136.550 E39.57157
G1 X77.180 Y135.900 E39.58908
G1 X76.660 Y135.070 E39.60649
G1 X67.880 Y115.390 E39.98959
G1 X67.660 Y114.710 E40.00230
G1 X67.580 Y114.000 E40.01500
G1 X67.580 Y66.000 E40.86833
G1 X67.750 Y64.940 E40.88742
G1 X68.202 Y64.046 E40.90523
G1 F1800.000 E39.90523
G92 E0
G1 X79.788 Y115.252 F11700.000
G1 F1800.000 E1.00000
G1 X110.212 Y115.252 F1260.000 E1.54088
G1 X110.212 Y116.090 E1.55577
G1 X79.788 Y116.090 E2.09664
G1 X79.788 Y116.928 E2.11154
G1 X110.212 Y116.928 E2.65241
G1 X110.212 Y117.765 E2.66731
G1 X79.788 Y117.765 E3.20818
G1 X79.788 Y118.603 E3.22308
G1 X110.212 Y118.603 E3.76395
G1 X110.212 Y119.441 E3.77884
G1 X79.788 Y119.441 E4.31972
G1 X79.788 Y120.279 E4.33461
G1 X110.212 Y120.279 E4.87549
G1 X110.212 Y121.116 E4.89038
G1 X79.788 Y121.116 E5.43126
G1 X79.788 Y121.954 E5.44615
G1 X110.212 Y121.954 E5.98703
G1 X110.212 Y122.792 E6.00192
G1 X79.788 Y122.792 E6.54279
G1 X79.788 Y123.630 E6.55769
G1 X110.212 Y123.630 E7.09856
G1 X110.212 Y124.467 E7.11346
G1 X79.788 Y124.467 E7.65433
G1 X79.788 Y125.305 E7.66923
G1 X110.212 Y125.305 E8.21010
G1 X110.212 Y126.143 E8.22499
G1 X79.788 Y126.143 E8.76587
G1 X79.788 Y126.981 E8.78076
G1 X110.212 Y126.981 E9.32164
G1 X110.212 Y127.818 E9.33653
G1 X79.788 Y127.818 E9.87741
G1 X79.788 Y128.656 E9.89230
G1 X110.212 Y128.656 E10.43318
G1 X110.212 Y129.494 E10.44807
G1 X79.788 Y129.494 E10.98894
G1 X79.788 Y130.332 E11.00384
G1 X110.212 Y130.332 E11.54471
G1 X110.212 Y131.169 E11.55961
G1 X79.788 Y131.169 E12.10048
G1 X79.788 Y132.007 E12.11538
G1 X110.212 Y132.007 E12.65625
G1 X110.212 Y132.845 E12.67114
G1 X79.788 Y132.845 E13.21202
G1 X79.788 Y133.683 E13.22691
G1 X110.212 Y133.683 E13.76779
G1 F1800.000 E12.76779
G92 E0
G1 X96.560 Y94.801 F11700.000
G1 F1800.000 E1.00000
G1 X95.946 Y94.958 F1365.000 E1.01127
G1 X95.633 Y95.008 E1.01691
G1 X95.278 Y95.039 E1.02323
G1 X94.683 Y95.038 E1.03381
G1 X94.367 Y95.008 E1.03945
G1 X93.745 Y94.889 E1.05072
G1 X93.142 Y94.693 E1.06199
G1 X92.816 Y94.550 E1.06831
G1 X92.295 Y94.262 E1.07890
G1 X91.783 Y93.889 E1.09016
G1 X91.545 Y93.680 E1.09580
G1 X91.111 Y93.217 E1.10707
G1 X90.895 Y92.935 E1.11339
G1 X90.577 Y92.432 E1.12398
G1 X90.307 Y91.858 E1.13525
G1 X90.199 Y91.560 E1.14088
G1 X90.042 Y90.946 E1.15215
G1 X89.992 Y90.633 E1.15779
G1 X89.961 Y90.278 E1.16411
G1 X89.962 Y89.683 E1.17470
G1 X90.036 Y89.092 E1.18528
G1 X90.111 Y88.745 E1.19160
G1 X90.307 Y88.142 E1.20287
G1 X90.433 Y87.851 E1.20851
G1 X90.738 Y87.295 E1.21978
G1 X90.916 Y87.033 E1.22542
G1 X91.320 Y86.545 E1.23668
G1 X91.753 Y86.136 E1.24727
G1 X92.033 Y85.916 E1.25359
G1 X92.568 Y85.577 E1.26486
G1 X93.142 Y85.307 E1.27613
G1 X93.440 Y85.199 E1.28177
G1 X94.054 Y85.042 E1.29303
G1 X94.367 Y84.992 E1.29867
G1 X94.683 Y84.962 E1.30431
G1 X95.317 Y84.962 E1.31558
G1 X95.908 Y85.036 E1.32616
G1 X96.255 Y85.111 E1.33249
G1 X96.858 Y85.307 E1.34375
G1 X97.149 Y85.433 E1.34939
G1 X97.705 Y85.738 E1.36066
G1 X97.967 Y85.916 E1.36630
G1 X98.455 Y86.320 E1.37757
G1 X98.864 Y86.753 E1.38815
G1 X99.084 Y87.033 E1.39448
G1 X99.423 Y87.568 E1.40574
G1 X99.693 Y88.142 E1.41701
G1 X99.801 Y88.440 E1.42265
G1 X99.958 Y89.054 E1.43392
G1 X100.008 Y89.367 E1.43955
G1 X100.038 Y89.683 E1.44519
G1 X100.038 Y90.317 E1.45646
G1 X100.008 Y90.633 E1.46210
G1 X99.889 Y91.255 E1.47337
G1 X99.801 Y91.560 E1.47901
G1 X99.567 Y92.149 E1.49028
G1 X99.423 Y92.432 E1.49591
G1 X99.084 Y92.967 E1.50718
G1 X98.864 Y93.247 E1.51351
G1 X98.455 Y93.680 E1.52409
G1 X97.967 Y94.084 E1.53536
G1 X97.705 Y94.262 E1.54100
G1 X97.149 Y94.567 E1.55226
G1 X96.619 Y94.779 E1.56242
G1 X96.430 Y94.402 F11700.000
G1 X95.867 Y94.547 F1365.000 E1.57275
G1 X95.580 Y94.592 E1.57792
G1 X95.265 Y94.620 E1.58354
G1 X94.709 Y94.619 E1.59342
G1 X94.420 Y94.592 E1.59859
G1 X93.849 Y94.483 E1.60893
G1 X93.296 Y94.304 E1.61926
G1 X93.007 Y94.177 E1.62488
G1 X92.520 Y93.908 E1.63476
G1 X92.050 Y93.566 E1.64510
G1 X91.831 Y93.374 E1.65027
G1 X91.434 Y92.950 E1.66060
G1 X91.241 Y92.700 E1.66622
G1 X90.944 Y92.230 E1.67610
G1 X90.802 Y91.947 E1.68172
G1 X90.598 Y91.430 E1.69160
G1 X90.453 Y90.867 E1.70194
G1 X90.408 Y90.580 E1.70711
G1 X90.380 Y90.265 E1.71273
G1 X90.380 Y89.709 E1.72261
G1 X90.449 Y89.158 E1.73249
G1 X90.517 Y88.849 E1.73811
G1 X90.688 Y88.320 E1.74799
G1 X90.812 Y88.029 E1.75362
G1 X91.092 Y87.520 E1.76395
G1 X91.255 Y87.279 E1.76912
G1 X91.626 Y86.832 E1.77945
G1 X92.030 Y86.450 E1.78933
G1 X92.279 Y86.255 E1.79496
G1 X92.770 Y85.944 E1.80529
G1 X93.296 Y85.696 E1.81562
G1 X93.570 Y85.598 E1.82079
G1 X94.133 Y85.453 E1.83112
G1 X94.420 Y85.408 E1.83629
G1 X94.709 Y85.380 E1.84146
G1 X95.291 Y85.380 E1.85180
G1 X95.842 Y85.449 E1.86168
G1 X96.151 Y85.517 E1.86730
G1 X96.680 Y85.688 E1.87718
G1 X96.971 Y85.812 E1.88280
G1 X97.480 Y86.092 E1.89314
G1 X97.721 Y86.255 E1.89831
G1 X98.168 Y86.626 E1.90864
G1 X98.550 Y87.030 E1.91852
G1 X98.745 Y87.279 E1.92414
G1 X99.056 Y87.770 E1.93447
G1 X99.304 Y88.296 E1.94481
G1 X99.402 Y88.570 E1.94998
G1 X99.547 Y89.133 E1.96031
G1 X99.592 Y89.420 E1.96548
G1 X99.619 Y89.709 E1.97065
G1 X99.619 Y90.291 E1.98098
G1 X99.592 Y90.580 E1.98615
G1 X99.483 Y91.151 E1.99649
G1 X99.402 Y91.430 E2.00166
G1 X99.188 Y91.971 E2.01199
G1 X99.056 Y92.230 E2.01716
G1 X98.745 Y92.721 E2.02749
G1 X98.550 Y92.970 E2.03312
G1 X98.168 Y93.374 E2.04300
G1 X97.721 Y93.745 E2.05333
G1 X97.480 Y93.908 E2.05850
G1 X96.971 Y94.188 E2.06883
G1 X96.489 Y94.381 E2.07805
G1 X96.301 Y94.004 F11700.000
G1 X95.789 Y94.135 F1365.000 E2.08745
G1 X95.528 Y94.176 E2.09215
G1 X95.252 Y94.202 E2.09707
G1 X94.736 Y94.201 E2.10625
G1 X94.211 Y94.135 E2.11565
G1 X93.953 Y94.077 E2.12035
G1 X93.450 Y93.914 E2.12975
G1 X93.197 Y93.803 E2.13467
G1 X92.744 Y93.554 E2.14384
G1 X92.317 Y93.244 E2.15324
G1 X92.118 Y93.069 E2.15794
G1 X91.756 Y92.683 E2.16734
G1 X91.587 Y92.464 E2.17226
G1 X91.311 Y92.028 E2.18144
G1 X91.186 Y91.781 E2.18636
G1 X90.996 Y91.301 E2.19554
G1 X90.865 Y90.789 E2.20494
G1 X90.824 Y90.528 E2.20964
G1 X90.798 Y90.252 E2.21456
G1 X90.799 Y89.736 E2.22374
G1 X90.863 Y89.223 E2.23292
G1 X90.923 Y88.953 E2.23784
G1 X90.996 Y88.699 E2.24254
G1 X91.191 Y88.208 E2.25194
G1 X91.446 Y87.744 E2.26133
G1 X91.594 Y87.526 E2.26604
G1 X91.931 Y87.118 E2.27543
